(Generated by PartKam Version 0.05)

G20 G90 G40

(pocket 1-0)
G0 Z0.1
T0 M6
G17
M3
G0 X59.6002 Y15.5251
G1 Z-0.13 F50
G1 X69.6385 Y43.1051 F30
G1 X69.5352 Y43.1427
G1 X59.4969 Y15.5628
G1 X59.6002 Y15.5251
G1 X59.66 Y15.397 F30
G1 X69.7667 Y43.1649 F30
G1 X69.4754 Y43.2709
G1 X59.3687 Y15.503
G1 X59.66 Y15.397
G1 X59.7198 Y15.2688 F30
G1 X69.8949 Y43.2247 F30
G1 X69.4156 Y43.3991
G1 X59.2405 Y15.4432
G1 X59.7198 Y15.2688
G0 Z0.1
G0 X59.6002 Y15.5251
G1 Z-0.25 F50
G1 X69.6385 Y43.1051 F30
G1 X69.5352 Y43.1427
G1 X59.4969 Y15.5628
G1 X59.6002 Y15.5251
G1 X59.66 Y15.397 F30
G1 X69.7667 Y43.1649 F30
G1 X69.4754 Y43.2709
G1 X59.3687 Y15.503
G1 X59.66 Y15.397
G1 X59.7198 Y15.2688 F30
G1 X69.8949 Y43.2247 F30
G1 X69.4156 Y43.3991
G1 X59.2405 Y15.4432
G1 X59.7198 Y15.2688

(pocket 1-1)
G0 Z0.1
G0 X58.7176 Y15.4482
G1 Z-0.13 F50
G1 X19.3676 Y15.4482 F30
G1 X19.3676 Y15.3382
G1 X58.7176 Y15.3382
G1 X58.7176 Y15.4482
G1 X58.8176 Y15.5482 F30
G1 X19.2676 Y15.5482 F30
G1 X19.2676 Y15.2382
G1 X58.8176 Y15.2382
G1 X58.8176 Y15.5482
G1 X58.9176 Y15.6482 F30
G1 X19.1676 Y15.6482 F30
G1 X19.1676 Y15.1382
G1 X58.9176 Y15.1382
G1 X58.9176 Y15.6482
G0 Z0.1
G0 X58.7176 Y15.4482
G1 Z-0.25 F50
G1 X19.3676 Y15.4482 F30
G1 X19.3676 Y15.3382
G1 X58.7176 Y15.3382
G1 X58.7176 Y15.4482
G1 X58.8176 Y15.5482 F30
G1 X19.2676 Y15.5482 F30
G1 X19.2676 Y15.2382
G1 X58.8176 Y15.2382
G1 X58.8176 Y15.5482
G1 X58.9176 Y15.6482 F30
G1 X19.1676 Y15.6482 F30
G1 X19.1676 Y15.1382
G1 X58.9176 Y15.1382
G1 X58.9176 Y15.6482

(pocket 1-2)
G0 Z0.1
G0 X48.3801 Y27.4561
G1 Z-0.13 F50
G1 X48.3801 Y16.1061 F30
G1 X48.4901 Y16.1061
G1 X48.4901 Y27.4561
G1 X48.3801 Y27.4561
G1 X48.2801 Y27.5561 F30
G1 X48.2801 Y16.0061 F30
G1 X48.5901 Y16.0061
G1 X48.5901 Y27.5561
G1 X48.2801 Y27.5561
G1 X48.1801 Y27.6561 F30
G1 X48.1801 Y15.9061 F30
G1 X48.6901 Y15.9061
G1 X48.6901 Y27.6561
G1 X48.1801 Y27.6561
G0 Z0.1
G0 X48.3801 Y27.4561
G1 Z-0.25 F50
G1 X48.3801 Y16.1061 F30
G1 X48.4901 Y16.1061
G1 X48.4901 Y27.4561
G1 X48.3801 Y27.4561
G1 X48.2801 Y27.5561 F30
G1 X48.2801 Y16.0061 F30
G1 X48.5901 Y16.0061
G1 X48.5901 Y27.5561
G1 X48.2801 Y27.5561
G1 X48.1801 Y27.6561 F30
G1 X48.1801 Y15.9061 F30
G1 X48.6901 Y15.9061
G1 X48.6901 Y27.6561
G1 X48.1801 Y27.6561

(pocket 1-3)
G0 Z0.1
G0 X63.2366 Y28.2433
G1 Z-0.13 F50
G1 X48.3866 Y28.2433 F30
G1 X48.3866 Y28.1333
G1 X63.2366 Y28.1333
G1 X63.2366 Y28.2433
G1 X63.3366 Y28.3433 F30
G1 X48.2866 Y28.3433 F30
G1 X48.2866 Y28.0333
G1 X63.3366 Y28.0333
G1 X63.3366 Y28.3433
G1 X63.4366 Y28.4433 F30
G1 X48.1866 Y28.4433 F30
G1 X48.1866 Y27.9333
G1 X63.4366 Y27.9333
G1 X63.4366 Y28.4433
G0 Z0.1
G0 X63.2366 Y28.2433
G1 Z-0.25 F50
G1 X48.3866 Y28.2433 F30
G1 X48.3866 Y28.1333
G1 X63.2366 Y28.1333
G1 X63.2366 Y28.2433
G1 X63.3366 Y28.3433 F30
G1 X48.2866 Y28.3433 F30
G1 X48.2866 Y28.0333
G1 X63.3366 Y28.0333
G1 X63.3366 Y28.3433
G1 X63.4366 Y28.4433 F30
G1 X48.1866 Y28.4433 F30
G1 X48.1866 Y27.9333
G1 X63.4366 Y27.9333
G1 X63.4366 Y28.4433

(pocket 1-4)
G0 Z0.1
G0 X19.3737 Y32.4669
G1 Z-0.13 F50
G1 X19.3737 Y16.1169 F30
G1 X19.4837 Y16.1169
G1 X19.4837 Y32.4669
G1 X19.3737 Y32.4669
G1 X19.2737 Y32.5669 F30
G1 X19.2737 Y16.0169 F30
G1 X19.5837 Y16.0169
G1 X19.5837 Y32.5669
G1 X19.2737 Y32.5669
G1 X19.1737 Y32.6669 F30
G1 X19.1737 Y15.9169 F30
G1 X19.6837 Y15.9169
G1 X19.6837 Y32.6669
G1 X19.1737 Y32.6669
G0 Z0.1
G0 X19.3737 Y32.4669
G1 Z-0.25 F50
G1 X19.3737 Y16.1169 F30
G1 X19.4837 Y16.1169
G1 X19.4837 Y32.4669
G1 X19.3737 Y32.4669
G1 X19.2737 Y32.5669 F30
G1 X19.2737 Y16.0169 F30
G1 X19.5837 Y16.0169
G1 X19.5837 Y32.5669
G1 X19.2737 Y32.5669
G1 X19.1737 Y32.6669 F30
G1 X19.1737 Y15.9169 F30
G1 X19.6837 Y15.9169
G1 X19.6837 Y32.6669
G1 X19.1737 Y32.6669

(pocket 1-5)
G0 Z0.1
G0 X66.3153 Y7.0084
G1 Z-0.13 F50
G1 X64.2802 Y8.1834 F30
G1 X64.2252 Y8.0882
G1 X66.2603 Y6.9132
G1 X66.3153 Y7.0084
G1 X66.4519 Y7.045 F30
G1 X64.2435 Y8.32 F30
G1 X64.0885 Y8.0516
G1 X66.2969 Y6.7766
G1 X66.4519 Y7.045
G1 X66.5885 Y7.0816 F30
G1 X64.2069 Y8.4566 F30
G1 X63.9519 Y8.015
G1 X66.3335 Y6.64
G1 X66.5885 Y7.0816
G0 Z0.1
G0 X66.3153 Y7.0084
G1 Z-0.25 F50
G1 X64.2802 Y8.1834 F30
G1 X64.2252 Y8.0882
G1 X66.2603 Y6.9132
G1 X66.3153 Y7.0084
G1 X66.4519 Y7.045 F30
G1 X64.2435 Y8.32 F30
G1 X64.0885 Y8.0516
G1 X66.2969 Y6.7766
G1 X66.4519 Y7.045
G1 X66.5885 Y7.0816 F30
G1 X64.2069 Y8.4566 F30
G1 X63.9519 Y8.015
G1 X66.3335 Y6.64
G1 X66.5885 Y7.0816

(pocket 1-6)
G0 Z0.1
G0 X30.206 Y10.2454
G1 Z-0.13 F50
G1 X30.206 Y7.8954 F30
G1 X30.316 Y7.8954
G1 X30.316 Y10.2454
G1 X30.206 Y10.2454
G1 X30.106 Y10.3454 F30
G1 X30.106 Y7.7954 F30
G1 X30.416 Y7.7954
G1 X30.416 Y10.3454
G1 X30.106 Y10.3454
G1 X30.006 Y10.4454 F30
G1 X30.006 Y7.6954 F30
G1 X30.516 Y7.6954
G1 X30.516 Y10.4454
G1 X30.006 Y10.4454
G0 Z0.1
G0 X30.206 Y10.2454
G1 Z-0.25 F50
G1 X30.206 Y7.8954 F30
G1 X30.316 Y7.8954
G1 X30.316 Y10.2454
G1 X30.206 Y10.2454
G1 X30.106 Y10.3454 F30
G1 X30.106 Y7.7954 F30
G1 X30.416 Y7.7954
G1 X30.416 Y10.3454
G1 X30.106 Y10.3454
G1 X30.006 Y10.4454 F30
G1 X30.006 Y7.6954 F30
G1 X30.516 Y7.6954
G1 X30.516 Y10.4454
G1 X30.006 Y10.4454

(pocket 1-7)
G0 Z0.1
G0 X56.8486 Y4.1072
G1 Z-0.13 F50
G1 X58.8838 Y2.9322 F30
G1 X58.9388 Y3.0274
G1 X56.9036 Y4.2024
G1 X56.8486 Y4.1072
G1 X56.712 Y4.0706 F30
G1 X58.9204 Y2.7956 F30
G1 X59.0754 Y3.064
G1 X56.867 Y4.339
G1 X56.712 Y4.0706
G1 X56.5754 Y4.034 F30
G1 X58.957 Y2.659 F30
G1 X59.212 Y3.1007
G1 X56.8304 Y4.4757
G1 X56.5754 Y4.034
G0 Z0.1
G0 X56.8486 Y4.1072
G1 Z-0.25 F50
G1 X58.8838 Y2.9322 F30
G1 X58.9388 Y3.0274
G1 X56.9036 Y4.2024
G1 X56.8486 Y4.1072
G1 X56.712 Y4.0706 F30
G1 X58.9204 Y2.7956 F30
G1 X59.0754 Y3.064
G1 X56.867 Y4.339
G1 X56.712 Y4.0706
G1 X56.5754 Y4.034 F30
G1 X58.957 Y2.659 F30
G1 X59.212 Y3.1007
G1 X56.8304 Y4.4757
G1 X56.5754 Y4.034

(pocket 1-8)
G0 Z0.1
G0 X21.4835 Y2.8027
G1 Z-0.13 F50
G1 X19.1335 Y2.8027 F30
G1 X19.1335 Y2.6927
G1 X21.4835 Y2.6927
G1 X21.4835 Y2.8027
G1 X21.5835 Y2.9027 F30
G1 X19.0335 Y2.9027 F30
G1 X19.0335 Y2.5927
G1 X21.5835 Y2.5927
G1 X21.5835 Y2.9027
G1 X21.6835 Y3.0027 F30
G1 X18.9335 Y3.0027 F30
G1 X18.9335 Y2.4927
G1 X21.6835 Y2.4927
G1 X21.6835 Y3.0027
G0 Z0.1
G0 X21.4835 Y2.8027
G1 Z-0.25 F50
G1 X19.1335 Y2.8027 F30
G1 X19.1335 Y2.6927
G1 X21.4835 Y2.6927
G1 X21.4835 Y2.8027
G1 X21.5835 Y2.9027 F30
G1 X19.0335 Y2.9027 F30
G1 X19.0335 Y2.5927
G1 X21.5835 Y2.5927
G1 X21.5835 Y2.9027
G1 X21.6835 Y3.0027 F30
G1 X18.9335 Y3.0027 F30
G1 X18.9335 Y2.4927
G1 X21.6835 Y2.4927
G1 X21.6835 Y3.0027

(pocket 1-9)
G0 Z0.1
G0 X77.1002 Y3.271
G1 Z-0.13 F50
G1 X74.7502 Y3.271 F30
G1 X74.7502 Y3.161
G1 X77.1002 Y3.161
G1 X77.1002 Y3.271
G1 X77.2002 Y3.371 F30
G1 X74.6502 Y3.371 F30
G1 X74.6502 Y3.061
G1 X77.2002 Y3.061
G1 X77.2002 Y3.371
G1 X77.3002 Y3.471 F30
G1 X74.5502 Y3.471 F30
G1 X74.5502 Y2.961
G1 X77.3002 Y2.961
G1 X77.3002 Y3.471
G0 Z0.1
G0 X77.1002 Y3.271
G1 Z-0.25 F50
G1 X74.7502 Y3.271 F30
G1 X74.7502 Y3.161
G1 X77.1002 Y3.161
G1 X77.1002 Y3.271
G1 X77.2002 Y3.371 F30
G1 X74.6502 Y3.371 F30
G1 X74.6502 Y3.061
G1 X77.2002 Y3.061
G1 X77.2002 Y3.371
G1 X77.3002 Y3.471 F30
G1 X74.5502 Y3.471 F30
G1 X74.5502 Y2.961
G1 X77.3002 Y2.961
G1 X77.3002 Y3.471

(pocket 1-10)
G0 Z0.1
G0 X5.9848 Y6.975
G1 Z-0.13 F50
G1 X4.9916 Y9.1048 F30
G1 X4.8919 Y9.0583
G1 X5.8851 Y6.9285
G1 X5.9848 Y6.975
G1 X6.1177 Y6.9266 F30
G1 X5.04 Y9.2377 F30
G1 X4.759 Y9.1067
G1 X5.8367 Y6.7956
G1 X6.1177 Y6.9266
G1 X6.2506 Y6.8782 F30
G1 X5.0884 Y9.3706 F30
G1 X4.6262 Y9.1551
G1 X5.7884 Y6.6627
G1 X6.2506 Y6.8782
G0 Z0.1
G0 X5.9848 Y6.975
G1 Z-0.25 F50
G1 X4.9916 Y9.1048 F30
G1 X4.8919 Y9.0583
G1 X5.8851 Y6.9285
G1 X5.9848 Y6.975
G1 X6.1177 Y6.9266 F30
G1 X5.04 Y9.2377 F30
G1 X4.759 Y9.1067
G1 X5.8367 Y6.7956
G1 X6.1177 Y6.9266
G1 X6.2506 Y6.8782 F30
G1 X5.0884 Y9.3706 F30
G1 X4.6262 Y9.1551
G1 X5.7884 Y6.6627
G1 X6.2506 Y6.8782

(pocket 1-11)
G0 Z0.1
G0 X12.1313 Y10.0414
G1 Z-0.13 F50
G3 X12.1071 Y10.0437 I-0.0243 J-0.1273 F30
G3 X12.0828 Y10.0414 I0 J-0.1296
G3 X12.0735 Y10.0386 I0.0089 J-0.0468
G3 X12.0649 Y10.034 I0.0182 J-0.044
G3 X12.0461 Y10.0185 I0.0728 J-0.1072
G3 X12.0306 Y9.9997 I0.0916 J-0.0916
G3 X12.026 Y9.9911 I0.0394 J-0.0268
G3 X12.0232 Y9.9818 I0.044 J-0.0182
G3 X12.0209 Y9.9575 I0.1273 J-0.0243
G3 X12.0232 Y9.9333 I0.1296 J0
G3 X12.026 Y9.924 I0.0468 J0.0089
G3 X12.0306 Y9.9154 I0.044 J0.0182
G3 X12.0461 Y9.8966 I0.1072 J0.0728
G3 X12.0649 Y9.8811 I0.0916 J0.0916
G3 X12.0735 Y9.8765 I0.0268 J0.0394
G3 X12.0828 Y9.8737 I0.0182 J0.044
G3 X12.1071 Y9.8714 I0.0243 J0.1273
G3 X12.1313 Y9.8737 I0 J0.1296
G3 X12.1407 Y9.8765 I-0.0089 J0.0468
G3 X12.1492 Y9.8811 I-0.0182 J0.044
G3 X12.168 Y9.8966 I-0.0728 J0.1072
G3 X12.1835 Y9.9154 I-0.0916 J0.0916
G3 X12.1881 Y9.924 I-0.0394 J0.0268
G3 X12.1909 Y9.9333 I-0.044 J0.0182
G3 X12.1932 Y9.9575 I-0.1273 J0.0243
G3 X12.1909 Y9.9818 I-0.1296 J0
G3 X12.1881 Y9.9911 I-0.0468 J-0.0089
G3 X12.1835 Y9.9997 I-0.044 J-0.0182
G3 X12.168 Y10.0185 I-0.1072 J-0.0728
G3 X12.1492 Y10.034 I-0.0916 J-0.0916
G3 X12.1407 Y10.0386 I-0.0268 J-0.0394
G3 X12.1313 Y10.0414 I-0.0182 J-0.044
G1 X12.1501 Y10.1396 F30
G3 X12.1071 Y10.1437 I-0.043 J-0.2255 F30
G3 X12.064 Y10.1396 I0 J-0.2296
G3 X12.0352 Y10.131 I0.0277 J-0.145
G3 X12.0087 Y10.1167 I0.0565 J-0.1364
G3 X11.9754 Y10.0892 I0.1291 J-0.1899
G3 X11.9479 Y10.0559 I0.1623 J-0.1623
G3 X11.9336 Y10.0294 I0.1221 J-0.083
G3 X11.925 Y10.0006 I0.1364 J-0.0565
G3 X11.9209 Y9.9575 I0.2255 J-0.043
G3 X11.925 Y9.9145 I0.2296 J0
G3 X11.9336 Y9.8857 I0.145 J0.0277
G3 X11.9479 Y9.8592 I0.1364 J0.0565
G3 X11.9754 Y9.8259 I0.1899 J0.1291
G3 X12.0087 Y9.7984 I0.1623 J0.1623
G3 X12.0352 Y9.7841 I0.083 J0.1221
G3 X12.064 Y9.7754 I0.0565 J0.1364
G3 X12.1071 Y9.7714 I0.043 J0.2255
G3 X12.1501 Y9.7754 I0 J0.2296
G3 X12.1789 Y9.7841 I-0.0277 J0.145
G3 X12.2054 Y9.7984 I-0.0565 J0.1364
G3 X12.2387 Y9.8259 I-0.1291 J0.1899
G3 X12.2662 Y9.8592 I-0.1623 J0.1623
G3 X12.2805 Y9.8857 I-0.1221 J0.083
G3 X12.2892 Y9.9145 I-0.1364 J0.0565
G3 X12.2932 Y9.9575 I-0.2255 J0.043
G3 X12.2892 Y10.0006 I-0.2296 J0
G3 X12.2805 Y10.0294 I-0.145 J-0.0277
G3 X12.2662 Y10.0559 I-0.1364 J-0.0565
G3 X12.2387 Y10.0892 I-0.1899 J-0.1291
G3 X12.2054 Y10.1167 I-0.1623 J-0.1623
G3 X12.1789 Y10.131 I-0.083 J-0.1221
G3 X12.1501 Y10.1396 I-0.0565 J-0.1364
G1 X12.1688 Y10.2379 F30
G3 X12.1071 Y10.2437 I-0.0618 J-0.3238 F30
G3 X12.0453 Y10.2379 I0 J-0.3296
G3 X11.9969 Y10.2234 I0.0464 J-0.2433
G3 X11.9525 Y10.1994 I0.0948 J-0.2288
G3 X11.9047 Y10.1599 I0.1853 J-0.2726
G3 X11.8652 Y10.1121 I0.2331 J-0.2331
G3 X11.8412 Y10.0677 I0.2048 J-0.1392
G3 X11.8267 Y10.0193 I0.2288 J-0.0948
G3 X11.8209 Y9.9575 I0.3238 J-0.0618
G3 X11.8267 Y9.8958 I0.3296 J0
G3 X11.8412 Y9.8474 I0.2433 J0.0464
G3 X11.8652 Y9.803 I0.2288 J0.0948
G3 X11.9047 Y9.7552 I0.2726 J0.1853
G3 X11.9525 Y9.7157 I0.2331 J0.2331
G3 X11.9969 Y9.6917 I0.1392 J0.2048
G3 X12.0453 Y9.6772 I0.0948 J0.2288
G3 X12.1071 Y9.6714 I0.0618 J0.3238
G3 X12.1688 Y9.6772 I0 J0.3296
G3 X12.2172 Y9.6917 I-0.0464 J0.2433
G3 X12.2616 Y9.7157 I-0.0948 J0.2288
G3 X12.3094 Y9.7552 I-0.1853 J0.2726
G3 X12.349 Y9.803 I-0.2331 J0.2331
G3 X12.3729 Y9.8474 I-0.2048 J0.1392
G3 X12.3874 Y9.8958 I-0.2288 J0.0948
G3 X12.3932 Y9.9575 I-0.3238 J0.0618
G3 X12.3874 Y10.0193 I-0.3296 J0
G3 X12.3729 Y10.0677 I-0.2433 J-0.0464
G3 X12.349 Y10.1121 I-0.2288 J-0.0948
G3 X12.3094 Y10.1599 I-0.2726 J-0.1853
G3 X12.2616 Y10.1994 I-0.2331 J-0.2331
G3 X12.2172 Y10.2234 I-0.1392 J-0.2048
G3 X12.1688 Y10.2379 I-0.0948 J-0.2288
G1 X12.1876 Y10.3361 F30
G3 X12.1071 Y10.3437 I-0.0805 J-0.422 F30
G3 X12.0266 Y10.3361 I0 J-0.4296
G3 X11.9587 Y10.3158 I0.0651 J-0.3415
G3 X11.8963 Y10.2821 I0.133 J-0.3212
G3 X11.834 Y10.2306 I0.2415 J-0.3553
G3 X11.7825 Y10.1683 I0.3038 J-0.3038
G3 X11.7488 Y10.1059 I0.2875 J-0.1954
G3 X11.7285 Y10.038 I0.3212 J-0.133
G3 X11.7209 Y9.9575 I0.422 J-0.0805
G3 X11.7285 Y9.8771 I0.4296 J0
G3 X11.7488 Y9.8092 I0.3415 J0.0651
G3 X11.7825 Y9.7468 I0.3212 J0.133
G3 X11.834 Y9.6845 I0.3553 J0.2415
G3 X11.8963 Y9.633 I0.3038 J0.3038
G3 X11.9587 Y9.5993 I0.1954 J0.2875
G3 X12.0266 Y9.579 I0.133 J0.3212
G3 X12.1071 Y9.5714 I0.0805 J0.422
G3 X12.1876 Y9.579 I0 J0.4296
G3 X12.2555 Y9.5993 I-0.0651 J0.3415
G3 X12.3178 Y9.633 I-0.133 J0.3212
G3 X12.3801 Y9.6845 I-0.2415 J0.3553
G3 X12.4317 Y9.7468 I-0.3038 J0.3038
G3 X12.4653 Y9.8092 I-0.2875 J0.1954
G3 X12.4856 Y9.8771 I-0.3212 J0.133
G3 X12.4932 Y9.9575 I-0.422 J0.0805
G3 X12.4856 Y10.038 I-0.4296 J0
G3 X12.4653 Y10.1059 I-0.3415 J-0.0651
G3 X12.4317 Y10.1683 I-0.3212 J-0.133
G3 X12.3801 Y10.2306 I-0.3553 J-0.2415
G3 X12.3178 Y10.2821 I-0.3038 J-0.3038
G3 X12.2555 Y10.3158 I-0.1954 J-0.2875
G3 X12.1876 Y10.3361 I-0.133 J-0.3212
G0 Z0.1
G0 X12.1313 Y10.0414
G1 Z-0.25 F50
G3 X12.1071 Y10.0437 I-0.0243 J-0.1273 F30
G3 X12.0828 Y10.0414 I0 J-0.1296
G3 X12.0735 Y10.0386 I0.0089 J-0.0468
G3 X12.0649 Y10.034 I0.0182 J-0.044
G3 X12.0461 Y10.0185 I0.0728 J-0.1072
G3 X12.0306 Y9.9997 I0.0916 J-0.0916
G3 X12.026 Y9.9911 I0.0394 J-0.0268
G3 X12.0232 Y9.9818 I0.044 J-0.0182
G3 X12.0209 Y9.9575 I0.1273 J-0.0243
G3 X12.0232 Y9.9333 I0.1296 J0
G3 X12.026 Y9.924 I0.0468 J0.0089
G3 X12.0306 Y9.9154 I0.044 J0.0182
G3 X12.0461 Y9.8966 I0.1072 J0.0728
G3 X12.0649 Y9.8811 I0.0916 J0.0916
G3 X12.0735 Y9.8765 I0.0268 J0.0394
G3 X12.0828 Y9.8737 I0.0182 J0.044
G3 X12.1071 Y9.8714 I0.0243 J0.1273
G3 X12.1313 Y9.8737 I0 J0.1296
G3 X12.1407 Y9.8765 I-0.0089 J0.0468
G3 X12.1492 Y9.8811 I-0.0182 J0.044
G3 X12.168 Y9.8966 I-0.0728 J0.1072
G3 X12.1835 Y9.9154 I-0.0916 J0.0916
G3 X12.1881 Y9.924 I-0.0394 J0.0268
G3 X12.1909 Y9.9333 I-0.044 J0.0182
G3 X12.1932 Y9.9575 I-0.1273 J0.0243
G3 X12.1909 Y9.9818 I-0.1296 J0
G3 X12.1881 Y9.9911 I-0.0468 J-0.0089
G3 X12.1835 Y9.9997 I-0.044 J-0.0182
G3 X12.168 Y10.0185 I-0.1072 J-0.0728
G3 X12.1492 Y10.034 I-0.0916 J-0.0916
G3 X12.1407 Y10.0386 I-0.0268 J-0.0394
G3 X12.1313 Y10.0414 I-0.0182 J-0.044
G1 X12.1501 Y10.1396 F30
G3 X12.1071 Y10.1437 I-0.043 J-0.2255 F30
G3 X12.064 Y10.1396 I0 J-0.2296
G3 X12.0352 Y10.131 I0.0277 J-0.145
G3 X12.0087 Y10.1167 I0.0565 J-0.1364
G3 X11.9754 Y10.0892 I0.1291 J-0.1899
G3 X11.9479 Y10.0559 I0.1623 J-0.1623
G3 X11.9336 Y10.0294 I0.1221 J-0.083
G3 X11.925 Y10.0006 I0.1364 J-0.0565
G3 X11.9209 Y9.9575 I0.2255 J-0.043
G3 X11.925 Y9.9145 I0.2296 J0
G3 X11.9336 Y9.8857 I0.145 J0.0277
G3 X11.9479 Y9.8592 I0.1364 J0.0565
G3 X11.9754 Y9.8259 I0.1899 J0.1291
G3 X12.0087 Y9.7984 I0.1623 J0.1623
G3 X12.0352 Y9.7841 I0.083 J0.1221
G3 X12.064 Y9.7754 I0.0565 J0.1364
G3 X12.1071 Y9.7714 I0.043 J0.2255
G3 X12.1501 Y9.7754 I0 J0.2296
G3 X12.1789 Y9.7841 I-0.0277 J0.145
G3 X12.2054 Y9.7984 I-0.0565 J0.1364
G3 X12.2387 Y9.8259 I-0.1291 J0.1899
G3 X12.2662 Y9.8592 I-0.1623 J0.1623
G3 X12.2805 Y9.8857 I-0.1221 J0.083
G3 X12.2892 Y9.9145 I-0.1364 J0.0565
G3 X12.2932 Y9.9575 I-0.2255 J0.043
G3 X12.2892 Y10.0006 I-0.2296 J0
G3 X12.2805 Y10.0294 I-0.145 J-0.0277
G3 X12.2662 Y10.0559 I-0.1364 J-0.0565
G3 X12.2387 Y10.0892 I-0.1899 J-0.1291
G3 X12.2054 Y10.1167 I-0.1623 J-0.1623
G3 X12.1789 Y10.131 I-0.083 J-0.1221
G3 X12.1501 Y10.1396 I-0.0565 J-0.1364
G1 X12.1688 Y10.2379 F30
G3 X12.1071 Y10.2437 I-0.0618 J-0.3238 F30
G3 X12.0453 Y10.2379 I0 J-0.3296
G3 X11.9969 Y10.2234 I0.0464 J-0.2433
G3 X11.9525 Y10.1994 I0.0948 J-0.2288
G3 X11.9047 Y10.1599 I0.1853 J-0.2726
G3 X11.8652 Y10.1121 I0.2331 J-0.2331
G3 X11.8412 Y10.0677 I0.2048 J-0.1392
G3 X11.8267 Y10.0193 I0.2288 J-0.0948
G3 X11.8209 Y9.9575 I0.3238 J-0.0618
G3 X11.8267 Y9.8958 I0.3296 J0
G3 X11.8412 Y9.8474 I0.2433 J0.0464
G3 X11.8652 Y9.803 I0.2288 J0.0948
G3 X11.9047 Y9.7552 I0.2726 J0.1853
G3 X11.9525 Y9.7157 I0.2331 J0.2331
G3 X11.9969 Y9.6917 I0.1392 J0.2048
G3 X12.0453 Y9.6772 I0.0948 J0.2288
G3 X12.1071 Y9.6714 I0.0618 J0.3238
G3 X12.1688 Y9.6772 I0 J0.3296
G3 X12.2172 Y9.6917 I-0.0464 J0.2433
G3 X12.2616 Y9.7157 I-0.0948 J0.2288
G3 X12.3094 Y9.7552 I-0.1853 J0.2726
G3 X12.349 Y9.803 I-0.2331 J0.2331
G3 X12.3729 Y9.8474 I-0.2048 J0.1392
G3 X12.3874 Y9.8958 I-0.2288 J0.0948
G3 X12.3932 Y9.9575 I-0.3238 J0.0618
G3 X12.3874 Y10.0193 I-0.3296 J0
G3 X12.3729 Y10.0677 I-0.2433 J-0.0464
G3 X12.349 Y10.1121 I-0.2288 J-0.0948
G3 X12.3094 Y10.1599 I-0.2726 J-0.1853
G3 X12.2616 Y10.1994 I-0.2331 J-0.2331
G3 X12.2172 Y10.2234 I-0.1392 J-0.2048
G3 X12.1688 Y10.2379 I-0.0948 J-0.2288
G1 X12.1876 Y10.3361 F30
G3 X12.1071 Y10.3437 I-0.0805 J-0.422 F30
G3 X12.0266 Y10.3361 I0 J-0.4296
G3 X11.9587 Y10.3158 I0.0651 J-0.3415
G3 X11.8963 Y10.2821 I0.133 J-0.3212
G3 X11.834 Y10.2306 I0.2415 J-0.3553
G3 X11.7825 Y10.1683 I0.3038 J-0.3038
G3 X11.7488 Y10.1059 I0.2875 J-0.1954
G3 X11.7285 Y10.038 I0.3212 J-0.133
G3 X11.7209 Y9.9575 I0.422 J-0.0805
G3 X11.7285 Y9.8771 I0.4296 J0
G3 X11.7488 Y9.8092 I0.3415 J0.0651
G3 X11.7825 Y9.7468 I0.3212 J0.133
G3 X11.834 Y9.6845 I0.3553 J0.2415
G3 X11.8963 Y9.633 I0.3038 J0.3038
G3 X11.9587 Y9.5993 I0.1954 J0.2875
G3 X12.0266 Y9.579 I0.133 J0.3212
G3 X12.1071 Y9.5714 I0.0805 J0.422
G3 X12.1876 Y9.579 I0 J0.4296
G3 X12.2555 Y9.5993 I-0.0651 J0.3415
G3 X12.3178 Y9.633 I-0.133 J0.3212
G3 X12.3801 Y9.6845 I-0.2415 J0.3553
G3 X12.4317 Y9.7468 I-0.3038 J0.3038
G3 X12.4653 Y9.8092 I-0.2875 J0.1954
G3 X12.4856 Y9.8771 I-0.3212 J0.133
G3 X12.4932 Y9.9575 I-0.422 J0.0805
G3 X12.4856 Y10.038 I-0.4296 J0
G3 X12.4653 Y10.1059 I-0.3415 J-0.0651
G3 X12.4317 Y10.1683 I-0.3212 J-0.133
G3 X12.3801 Y10.2306 I-0.3553 J-0.2415
G3 X12.3178 Y10.2821 I-0.3038 J-0.3038
G3 X12.2555 Y10.3158 I-0.1954 J-0.2875
G3 X12.1876 Y10.3361 I-0.133 J-0.3212

(pocket 1-12)
G0 Z0.1
G0 X87.7202 Y7.4496
G1 Z-0.13 F50
G3 X87.6959 Y7.4519 I-0.0243 J-0.1273 F30
G3 X87.6716 Y7.4496 I0 J-0.1296
G3 X87.6623 Y7.4468 I0.0089 J-0.0468
G3 X87.6538 Y7.4422 I0.0182 J-0.044
G3 X87.635 Y7.4266 I0.0728 J-0.1072
G3 X87.6194 Y7.4078 I0.0916 J-0.0916
G3 X87.6148 Y7.3993 I0.0394 J-0.0268
G3 X87.612 Y7.39 I0.044 J-0.0182
G3 X87.6097 Y7.3657 I0.1273 J-0.0243
G3 X87.612 Y7.3414 I0.1296 J0
G3 X87.6148 Y7.3321 I0.0468 J0.0089
G3 X87.6194 Y7.3236 I0.044 J0.0182
G3 X87.635 Y7.3048 I0.1072 J0.0728
G3 X87.6538 Y7.2892 I0.0916 J0.0916
G3 X87.6623 Y7.2846 I0.0268 J0.0394
G3 X87.6716 Y7.2818 I0.0182 J0.044
G3 X87.6959 Y7.2795 I0.0243 J0.1273
G3 X87.7202 Y7.2818 I0 J0.1296
G3 X87.7295 Y7.2846 I-0.0089 J0.0468
G3 X87.738 Y7.2892 I-0.0182 J0.044
G3 X87.7568 Y7.3048 I-0.0728 J0.1072
G3 X87.7724 Y7.3236 I-0.0916 J0.0916
G3 X87.777 Y7.3321 I-0.0394 J0.0268
G3 X87.7798 Y7.3414 I-0.044 J0.0182
G3 X87.7821 Y7.3657 I-0.1273 J0.0243
G3 X87.7798 Y7.39 I-0.1296 J0
G3 X87.777 Y7.3993 I-0.0468 J-0.0089
G3 X87.7724 Y7.4078 I-0.044 J-0.0182
G3 X87.7568 Y7.4266 I-0.1072 J-0.0728
G3 X87.738 Y7.4422 I-0.0916 J-0.0916
G3 X87.7295 Y7.4468 I-0.0268 J-0.0394
G3 X87.7202 Y7.4496 I-0.0182 J-0.044
G1 X87.7389 Y7.5478 F30
G3 X87.6959 Y7.5519 I-0.043 J-0.2255 F30
G3 X87.6529 Y7.5478 I0 J-0.2296
G3 X87.624 Y7.5392 I0.0277 J-0.145
G3 X87.5975 Y7.5249 I0.0565 J-0.1364
G3 X87.5643 Y7.4973 I0.1291 J-0.1899
G3 X87.5367 Y7.464 I0.1623 J-0.1623
G3 X87.5224 Y7.4376 I0.1221 J-0.083
G3 X87.5138 Y7.4087 I0.1364 J-0.0565
G3 X87.5097 Y7.3657 I0.2255 J-0.043
G3 X87.5138 Y7.3227 I0.2296 J0
G3 X87.5224 Y7.2938 I0.145 J0.0277
G3 X87.5367 Y7.2674 I0.1364 J0.0565
G3 X87.5643 Y7.2341 I0.1899 J0.1291
G3 X87.5975 Y7.2065 I0.1623 J0.1623
G3 X87.624 Y7.1922 I0.083 J0.1221
G3 X87.6529 Y7.1836 I0.0565 J0.1364
G3 X87.6959 Y7.1795 I0.043 J0.2255
G3 X87.7389 Y7.1836 I0 J0.2296
G3 X87.7677 Y7.1922 I-0.0277 J0.145
G3 X87.7942 Y7.2065 I-0.0565 J0.1364
G3 X87.8275 Y7.2341 I-0.1291 J0.1899
G3 X87.8551 Y7.2674 I-0.1623 J0.1623
G3 X87.8694 Y7.2938 I-0.1221 J0.083
G3 X87.878 Y7.3227 I-0.1364 J0.0565
G3 X87.8821 Y7.3657 I-0.2255 J0.043
G3 X87.878 Y7.4087 I-0.2296 J0
G3 X87.8694 Y7.4376 I-0.145 J-0.0277
G3 X87.8551 Y7.464 I-0.1364 J-0.0565
G3 X87.8275 Y7.4973 I-0.1899 J-0.1291
G3 X87.7942 Y7.5249 I-0.1623 J-0.1623
G3 X87.7677 Y7.5392 I-0.083 J-0.1221
G3 X87.7389 Y7.5478 I-0.0565 J-0.1364
G1 X87.7576 Y7.646 F30
G3 X87.6959 Y7.6519 I-0.0618 J-0.3238 F30
G3 X87.6341 Y7.646 I0 J-0.3296
G3 X87.5858 Y7.6316 I0.0464 J-0.2433
G3 X87.5413 Y7.6076 I0.0948 J-0.2288
G3 X87.4935 Y7.568 I0.1853 J-0.2726
G3 X87.454 Y7.5202 I0.2331 J-0.2331
G3 X87.43 Y7.4758 I0.2048 J-0.1392
G3 X87.4156 Y7.4274 I0.2288 J-0.0948
G3 X87.4097 Y7.3657 I0.3238 J-0.0618
G3 X87.4156 Y7.3039 I0.3296 J0
G3 X87.43 Y7.2556 I0.2433 J0.0464
G3 X87.454 Y7.2111 I0.2288 J0.0948
G3 X87.4935 Y7.1633 I0.2726 J0.1853
G3 X87.5413 Y7.1238 I0.2331 J0.2331
G3 X87.5858 Y7.0998 I0.1392 J0.2048
G3 X87.6341 Y7.0854 I0.0948 J0.2288
G3 X87.6959 Y7.0795 I0.0618 J0.3238
G3 X87.7576 Y7.0854 I0 J0.3296
G3 X87.806 Y7.0998 I-0.0464 J0.2433
G3 X87.8504 Y7.1238 I-0.0948 J0.2288
G3 X87.8982 Y7.1633 I-0.1853 J0.2726
G3 X87.9378 Y7.2111 I-0.2331 J0.2331
G3 X87.9618 Y7.2556 I-0.2048 J0.1392
G3 X87.9762 Y7.3039 I-0.2288 J0.0948
G3 X87.9821 Y7.3657 I-0.3238 J0.0618
G3 X87.9762 Y7.4274 I-0.3296 J0
G3 X87.9618 Y7.4758 I-0.2433 J-0.0464
G3 X87.9378 Y7.5202 I-0.2288 J-0.0948
G3 X87.8982 Y7.568 I-0.2726 J-0.1853
G3 X87.8504 Y7.6076 I-0.2331 J-0.2331
G3 X87.806 Y7.6316 I-0.1392 J-0.2048
G3 X87.7576 Y7.646 I-0.0948 J-0.2288
G1 X87.7764 Y7.7443 F30
G3 X87.6959 Y7.7519 I-0.0805 J-0.422 F30
G3 X87.6154 Y7.7443 I0 J-0.4296
G3 X87.5475 Y7.7239 I0.0651 J-0.3415
G3 X87.4851 Y7.6903 I0.133 J-0.3212
G3 X87.4228 Y7.6388 I0.2415 J-0.3553
G3 X87.3713 Y7.5765 I0.3038 J-0.3038
G3 X87.3376 Y7.5141 I0.2875 J-0.1954
G3 X87.3173 Y7.4462 I0.3212 J-0.133
G3 X87.3097 Y7.3657 I0.422 J-0.0805
G3 X87.3173 Y7.2852 I0.4296 J0
G3 X87.3376 Y7.2173 I0.3415 J0.0651
G3 X87.3713 Y7.1549 I0.3212 J0.133
G3 X87.4228 Y7.0926 I0.3553 J0.2415
G3 X87.4851 Y7.0411 I0.3038 J0.3038
G3 X87.5475 Y7.0074 I0.1954 J0.2875
G3 X87.6154 Y6.9871 I0.133 J0.3212
G3 X87.6959 Y6.9795 I0.0805 J0.422
G3 X87.7764 Y6.9871 I0 J0.4296
G3 X87.8443 Y7.0074 I-0.0651 J0.3415
G3 X87.9067 Y7.0411 I-0.133 J0.3212
G3 X87.9689 Y7.0926 I-0.2415 J0.3553
G3 X88.0205 Y7.1549 I-0.3038 J0.3038
G3 X88.0541 Y7.2173 I-0.2875 J0.1954
G3 X88.0744 Y7.2852 I-0.3212 J0.133
G3 X88.0821 Y7.3657 I-0.422 J0.0805
G3 X88.0744 Y7.4462 I-0.4296 J0
G3 X88.0541 Y7.5141 I-0.3415 J-0.0651
G3 X88.0205 Y7.5765 I-0.3212 J-0.133
G3 X87.9689 Y7.6388 I-0.3553 J-0.2415
G3 X87.9067 Y7.6903 I-0.3038 J-0.3038
G3 X87.8443 Y7.7239 I-0.1954 J-0.2875
G3 X87.7764 Y7.7443 I-0.133 J-0.3212
G0 Z0.1
G0 X87.7202 Y7.4496
G1 Z-0.25 F50
G3 X87.6959 Y7.4519 I-0.0243 J-0.1273 F30
G3 X87.6716 Y7.4496 I0 J-0.1296
G3 X87.6623 Y7.4468 I0.0089 J-0.0468
G3 X87.6538 Y7.4422 I0.0182 J-0.044
G3 X87.635 Y7.4266 I0.0728 J-0.1072
G3 X87.6194 Y7.4078 I0.0916 J-0.0916
G3 X87.6148 Y7.3993 I0.0394 J-0.0268
G3 X87.612 Y7.39 I0.044 J-0.0182
G3 X87.6097 Y7.3657 I0.1273 J-0.0243
G3 X87.612 Y7.3414 I0.1296 J0
G3 X87.6148 Y7.3321 I0.0468 J0.0089
G3 X87.6194 Y7.3236 I0.044 J0.0182
G3 X87.635 Y7.3048 I0.1072 J0.0728
G3 X87.6538 Y7.2892 I0.0916 J0.0916
G3 X87.6623 Y7.2846 I0.0268 J0.0394
G3 X87.6716 Y7.2818 I0.0182 J0.044
G3 X87.6959 Y7.2795 I0.0243 J0.1273
G3 X87.7202 Y7.2818 I0 J0.1296
G3 X87.7295 Y7.2846 I-0.0089 J0.0468
G3 X87.738 Y7.2892 I-0.0182 J0.044
G3 X87.7568 Y7.3048 I-0.0728 J0.1072
G3 X87.7724 Y7.3236 I-0.0916 J0.0916
G3 X87.777 Y7.3321 I-0.0394 J0.0268
G3 X87.7798 Y7.3414 I-0.044 J0.0182
G3 X87.7821 Y7.3657 I-0.1273 J0.0243
G3 X87.7798 Y7.39 I-0.1296 J0
G3 X87.777 Y7.3993 I-0.0468 J-0.0089
G3 X87.7724 Y7.4078 I-0.044 J-0.0182
G3 X87.7568 Y7.4266 I-0.1072 J-0.0728
G3 X87.738 Y7.4422 I-0.0916 J-0.0916
G3 X87.7295 Y7.4468 I-0.0268 J-0.0394
G3 X87.7202 Y7.4496 I-0.0182 J-0.044
G1 X87.7389 Y7.5478 F30
G3 X87.6959 Y7.5519 I-0.043 J-0.2255 F30
G3 X87.6529 Y7.5478 I0 J-0.2296
G3 X87.624 Y7.5392 I0.0277 J-0.145
G3 X87.5975 Y7.5249 I0.0565 J-0.1364
G3 X87.5643 Y7.4973 I0.1291 J-0.1899
G3 X87.5367 Y7.464 I0.1623 J-0.1623
G3 X87.5224 Y7.4376 I0.1221 J-0.083
G3 X87.5138 Y7.4087 I0.1364 J-0.0565
G3 X87.5097 Y7.3657 I0.2255 J-0.043
G3 X87.5138 Y7.3227 I0.2296 J0
G3 X87.5224 Y7.2938 I0.145 J0.0277
G3 X87.5367 Y7.2674 I0.1364 J0.0565
G3 X87.5643 Y7.2341 I0.1899 J0.1291
G3 X87.5975 Y7.2065 I0.1623 J0.1623
G3 X87.624 Y7.1922 I0.083 J0.1221
G3 X87.6529 Y7.1836 I0.0565 J0.1364
G3 X87.6959 Y7.1795 I0.043 J0.2255
G3 X87.7389 Y7.1836 I0 J0.2296
G3 X87.7677 Y7.1922 I-0.0277 J0.145
G3 X87.7942 Y7.2065 I-0.0565 J0.1364
G3 X87.8275 Y7.2341 I-0.1291 J0.1899
G3 X87.8551 Y7.2674 I-0.1623 J0.1623
G3 X87.8694 Y7.2938 I-0.1221 J0.083
G3 X87.878 Y7.3227 I-0.1364 J0.0565
G3 X87.8821 Y7.3657 I-0.2255 J0.043
G3 X87.878 Y7.4087 I-0.2296 J0
G3 X87.8694 Y7.4376 I-0.145 J-0.0277
G3 X87.8551 Y7.464 I-0.1364 J-0.0565
G3 X87.8275 Y7.4973 I-0.1899 J-0.1291
G3 X87.7942 Y7.5249 I-0.1623 J-0.1623
G3 X87.7677 Y7.5392 I-0.083 J-0.1221
G3 X87.7389 Y7.5478 I-0.0565 J-0.1364
G1 X87.7576 Y7.646 F30
G3 X87.6959 Y7.6519 I-0.0618 J-0.3238 F30
G3 X87.6341 Y7.646 I0 J-0.3296
G3 X87.5858 Y7.6316 I0.0464 J-0.2433
G3 X87.5413 Y7.6076 I0.0948 J-0.2288
G3 X87.4935 Y7.568 I0.1853 J-0.2726
G3 X87.454 Y7.5202 I0.2331 J-0.2331
G3 X87.43 Y7.4758 I0.2048 J-0.1392
G3 X87.4156 Y7.4274 I0.2288 J-0.0948
G3 X87.4097 Y7.3657 I0.3238 J-0.0618
G3 X87.4156 Y7.3039 I0.3296 J0
G3 X87.43 Y7.2556 I0.2433 J0.0464
G3 X87.454 Y7.2111 I0.2288 J0.0948
G3 X87.4935 Y7.1633 I0.2726 J0.1853
G3 X87.5413 Y7.1238 I0.2331 J0.2331
G3 X87.5858 Y7.0998 I0.1392 J0.2048
G3 X87.6341 Y7.0854 I0.0948 J0.2288
G3 X87.6959 Y7.0795 I0.0618 J0.3238
G3 X87.7576 Y7.0854 I0 J0.3296
G3 X87.806 Y7.0998 I-0.0464 J0.2433
G3 X87.8504 Y7.1238 I-0.0948 J0.2288
G3 X87.8982 Y7.1633 I-0.1853 J0.2726
G3 X87.9378 Y7.2111 I-0.2331 J0.2331
G3 X87.9618 Y7.2556 I-0.2048 J0.1392
G3 X87.9762 Y7.3039 I-0.2288 J0.0948
G3 X87.9821 Y7.3657 I-0.3238 J0.0618
G3 X87.9762 Y7.4274 I-0.3296 J0
G3 X87.9618 Y7.4758 I-0.2433 J-0.0464
G3 X87.9378 Y7.5202 I-0.2288 J-0.0948
G3 X87.8982 Y7.568 I-0.2726 J-0.1853
G3 X87.8504 Y7.6076 I-0.2331 J-0.2331
G3 X87.806 Y7.6316 I-0.1392 J-0.2048
G3 X87.7576 Y7.646 I-0.0948 J-0.2288
G1 X87.7764 Y7.7443 F30
G3 X87.6959 Y7.7519 I-0.0805 J-0.422 F30
G3 X87.6154 Y7.7443 I0 J-0.4296
G3 X87.5475 Y7.7239 I0.0651 J-0.3415
G3 X87.4851 Y7.6903 I0.133 J-0.3212
G3 X87.4228 Y7.6388 I0.2415 J-0.3553
G3 X87.3713 Y7.5765 I0.3038 J-0.3038
G3 X87.3376 Y7.5141 I0.2875 J-0.1954
G3 X87.3173 Y7.4462 I0.3212 J-0.133
G3 X87.3097 Y7.3657 I0.422 J-0.0805
G3 X87.3173 Y7.2852 I0.4296 J0
G3 X87.3376 Y7.2173 I0.3415 J0.0651
G3 X87.3713 Y7.1549 I0.3212 J0.133
G3 X87.4228 Y7.0926 I0.3553 J0.2415
G3 X87.4851 Y7.0411 I0.3038 J0.3038
G3 X87.5475 Y7.0074 I0.1954 J0.2875
G3 X87.6154 Y6.9871 I0.133 J0.3212
G3 X87.6959 Y6.9795 I0.0805 J0.422
G3 X87.7764 Y6.9871 I0 J0.4296
G3 X87.8443 Y7.0074 I-0.0651 J0.3415
G3 X87.9067 Y7.0411 I-0.133 J0.3212
G3 X87.9689 Y7.0926 I-0.2415 J0.3553
G3 X88.0205 Y7.1549 I-0.3038 J0.3038
G3 X88.0541 Y7.2173 I-0.2875 J0.1954
G3 X88.0744 Y7.2852 I-0.3212 J0.133
G3 X88.0821 Y7.3657 I-0.422 J0.0805
G3 X88.0744 Y7.4462 I-0.4296 J0
G3 X88.0541 Y7.5141 I-0.3415 J-0.0651
G3 X88.0205 Y7.5765 I-0.3212 J-0.133
G3 X87.9689 Y7.6388 I-0.3553 J-0.2415
G3 X87.9067 Y7.6903 I-0.3038 J-0.3038
G3 X87.8443 Y7.7239 I-0.1954 J-0.2875
G3 X87.7764 Y7.7443 I-0.133 J-0.3212

(profile 14-0)
G0 Z0.1
G0 X30.5987 Y4.9485
G1 Z-0.13 F50
G2 X29.8706 Y5.7583 I4.9243 J5.1594 F30
G2 X29.3084 Y6.6121 I5.5117 J4.2413
G3 X29.2804 Y6.5863 I0.1049 J-0.1414
G2 X28.8922 Y6.1701 I-6.229 J5.4213
G2 X28.4394 Y5.7447 I-6.9807 J6.9767
G2 X28.0153 Y5.3893 I-7.2745 J8.2489
G2 X27.5116 Y5.006 I-8.9917 J11.2937
G2 X27.0795 Y4.7021 I-9.9358 J13.6688
G2 X26.5306 Y4.3387 I-14.7954 J21.7527
G2 X26.1859 Y4.1198 I-17.2825 J26.8293
G2 X25.945 Y3.9693 I-60.9611 J97.3488
G3 X26.3304 Y4.0167 I-0.5936 J6.419
G3 X27.1928 Y4.209 I-1.0042 J6.5355
G3 X28.022 Y4.5144 I-1.8692 J6.352
G3 X28.7949 Y4.9239 I-2.6447 J5.9262
G2 X28.9458 Y4.9905 I0.3132 J-0.5055
G2 X29.1123 Y5.0142 I0.1711 J-0.6032
G2 X29.2566 Y5.0008 I0.0053 J-0.7243
G2 X29.4222 Y4.9546 I-0.2095 J-1.0712
G2 X29.5499 Y4.9005 I-0.4764 J-1.3018
G2 X29.707 Y4.817 I-1.0356 J-2.139
G2 X29.7994 Y4.7611 I-1.4793 J-2.5494
G2 X29.9624 Y4.6561 I-5.2148 J-8.2729
G3 X30.5251 Y4.3445 I2.3155 J3.5169
G3 X31.1368 Y4.1185 I1.7998 J3.9312
G3 X31.7754 Y3.9872 I1.1863 J4.1507
G3 X31.8852 Y3.9746 I0.5302 J4.146
G2 X31.4417 Y4.2591 I3.4802 J5.9126
G2 X30.5987 Y4.9485 I4.0671 J5.8339
G1 Z-0.26 F50
G2 X29.8706 Y5.7583 I4.9243 J5.1594 F30
G2 X29.3084 Y6.6121 I5.5117 J4.2413
G3 X29.2804 Y6.5863 I0.1049 J-0.1414
G2 X28.8922 Y6.1701 I-6.229 J5.4213
G2 X28.4394 Y5.7447 I-6.9807 J6.9767
G2 X28.0153 Y5.3893 I-7.2745 J8.2489
G2 X27.5116 Y5.006 I-8.9917 J11.2937
G2 X27.0795 Y4.7021 I-9.9358 J13.6688
G2 X26.5306 Y4.3387 I-14.7954 J21.7527
G2 X26.1859 Y4.1198 I-17.2825 J26.8293
G2 X25.945 Y3.9693 I-60.9611 J97.3488
G3 X26.3304 Y4.0167 I-0.5936 J6.419
G3 X27.1928 Y4.209 I-1.0042 J6.5355
G3 X28.022 Y4.5144 I-1.8692 J6.352
G3 X28.7949 Y4.9239 I-2.6447 J5.9262
G2 X28.9458 Y4.9905 I0.3132 J-0.5055
G2 X29.1123 Y5.0142 I0.1711 J-0.6032
G2 X29.2566 Y5.0008 I0.0053 J-0.7243
G2 X29.4222 Y4.9546 I-0.2095 J-1.0712
G2 X29.5499 Y4.9005 I-0.4764 J-1.3018
G2 X29.707 Y4.817 I-1.0356 J-2.139
G2 X29.7994 Y4.7611 I-1.4793 J-2.5494
G2 X29.9624 Y4.6561 I-5.2148 J-8.2729
G3 X30.5251 Y4.3445 I2.3155 J3.5169
G3 X31.1368 Y4.1185 I1.7998 J3.9312
G3 X31.7754 Y3.9872 I1.1863 J4.1507
G3 X31.8852 Y3.9746 I0.5302 J4.146
G2 X31.4417 Y4.2591 I3.4802 J5.9126
G2 X30.5987 Y4.9485 I4.0671 J5.8339
G1 Z-0.39 F50
G2 X29.8706 Y5.7583 I4.9243 J5.1594 F30
G2 X29.3084 Y6.6121 I5.5117 J4.2413
G3 X29.2804 Y6.5863 I0.1049 J-0.1414
G2 X28.8922 Y6.1701 I-6.229 J5.4213
G2 X28.4394 Y5.7447 I-6.9807 J6.9767
G2 X28.0153 Y5.3893 I-7.2745 J8.2489
G2 X27.5116 Y5.006 I-8.9917 J11.2937
G2 X27.0795 Y4.7021 I-9.9358 J13.6688
G2 X26.5306 Y4.3387 I-14.7954 J21.7527
G2 X26.1859 Y4.1198 I-17.2825 J26.8293
G2 X25.945 Y3.9693 I-60.9611 J97.3488
G3 X26.3304 Y4.0167 I-0.5936 J6.419
G3 X27.1928 Y4.209 I-1.0042 J6.5355
G3 X28.022 Y4.5144 I-1.8692 J6.352
G3 X28.7949 Y4.9239 I-2.6447 J5.9262
G2 X28.9458 Y4.9905 I0.3132 J-0.5055
G2 X29.1123 Y5.0142 I0.1711 J-0.6032
G2 X29.2566 Y5.0008 I0.0053 J-0.7243
G2 X29.4222 Y4.9546 I-0.2095 J-1.0712
G2 X29.5499 Y4.9005 I-0.4764 J-1.3018
G2 X29.707 Y4.817 I-1.0356 J-2.139
G2 X29.7994 Y4.7611 I-1.4793 J-2.5494
G2 X29.9624 Y4.6561 I-5.2148 J-8.2729
G3 X30.5251 Y4.3445 I2.3155 J3.5169
G3 X31.1368 Y4.1185 I1.7998 J3.9312
G3 X31.7754 Y3.9872 I1.1863 J4.1507
G3 X31.8852 Y3.9746 I0.5302 J4.146
G2 X31.4417 Y4.2591 I3.4802 J5.9126
G2 X30.5987 Y4.9485 I4.0671 J5.8339
G1 Z-0.52 F50
G2 X29.8706 Y5.7583 I4.9243 J5.1594 F30
G2 X29.3084 Y6.6121 I5.5117 J4.2413
G3 X29.2804 Y6.5863 I0.1049 J-0.1414
G2 X28.8922 Y6.1701 I-6.229 J5.4213
G2 X28.4394 Y5.7447 I-6.9807 J6.9767
G2 X28.0153 Y5.3893 I-7.2745 J8.2489
G2 X27.5116 Y5.006 I-8.9917 J11.2937
G2 X27.0795 Y4.7021 I-9.9358 J13.6688
G2 X26.5306 Y4.3387 I-14.7954 J21.7527
G2 X26.1859 Y4.1198 I-17.2825 J26.8293
G2 X25.945 Y3.9693 I-60.9611 J97.3488
G3 X26.3304 Y4.0167 I-0.5936 J6.419
G3 X27.1928 Y4.209 I-1.0042 J6.5355
G3 X28.022 Y4.5144 I-1.8692 J6.352
G3 X28.7949 Y4.9239 I-2.6447 J5.9262
G2 X28.9458 Y4.9905 I0.3132 J-0.5055
G2 X29.1123 Y5.0142 I0.1711 J-0.6032
G2 X29.2566 Y5.0008 I0.0053 J-0.7243
G2 X29.4222 Y4.9546 I-0.2095 J-1.0712
G2 X29.5499 Y4.9005 I-0.4764 J-1.3018
G2 X29.707 Y4.817 I-1.0356 J-2.139
G2 X29.7994 Y4.7611 I-1.4793 J-2.5494
G2 X29.9624 Y4.6561 I-5.2148 J-8.2729
G3 X30.5251 Y4.3445 I2.3155 J3.5169
G3 X31.1368 Y4.1185 I1.7998 J3.9312
G3 X31.7754 Y3.9872 I1.1863 J4.1507
G3 X31.8852 Y3.9746 I0.5302 J4.146
G2 X31.4417 Y4.2591 I3.4802 J5.9126
G2 X30.5987 Y4.9485 I4.0671 J5.8339
G1 Z-0.65 F50
G2 X29.8706 Y5.7583 I4.9243 J5.1594 F30
G2 X29.3084 Y6.6121 I5.5117 J4.2413
G3 X29.2804 Y6.5863 I0.1049 J-0.1414
G2 X28.8922 Y6.1701 I-6.229 J5.4213
G2 X28.4394 Y5.7447 I-6.9807 J6.9767
G2 X28.0153 Y5.3893 I-7.2745 J8.2489
G2 X27.5116 Y5.006 I-8.9917 J11.2937
G2 X27.0795 Y4.7021 I-9.9358 J13.6688
G2 X26.5306 Y4.3387 I-14.7954 J21.7527
G2 X26.1859 Y4.1198 I-17.2825 J26.8293
G2 X25.945 Y3.9693 I-60.9611 J97.3488
G3 X26.3304 Y4.0167 I-0.5936 J6.419
G3 X27.1928 Y4.209 I-1.0042 J6.5355
G3 X28.022 Y4.5144 I-1.8692 J6.352
G3 X28.7949 Y4.9239 I-2.6447 J5.9262
G2 X28.9458 Y4.9905 I0.3132 J-0.5055
G2 X29.1123 Y5.0142 I0.1711 J-0.6032
G2 X29.2566 Y5.0008 I0.0053 J-0.7243
G2 X29.4222 Y4.9546 I-0.2095 J-1.0712
G2 X29.5499 Y4.9005 I-0.4764 J-1.3018
G2 X29.707 Y4.817 I-1.0356 J-2.139
G2 X29.7994 Y4.7611 I-1.4793 J-2.5494
G2 X29.9624 Y4.6561 I-5.2148 J-8.2729
G3 X30.5251 Y4.3445 I2.3155 J3.5169
G3 X31.1368 Y4.1185 I1.7998 J3.9312
G3 X31.7754 Y3.9872 I1.1863 J4.1507
G3 X31.8852 Y3.9746 I0.5302 J4.146
G2 X31.4417 Y4.2591 I3.4802 J5.9126
G2 X30.5987 Y4.9485 I4.0671 J5.8339
G1 Z-0.78 F50
G2 X29.8706 Y5.7583 I4.9243 J5.1594 F30
G2 X29.3084 Y6.6121 I5.5117 J4.2413
G3 X29.2804 Y6.5863 I0.1049 J-0.1414
G2 X28.8922 Y6.1701 I-6.229 J5.4213
G2 X28.4394 Y5.7447 I-6.9807 J6.9767
G2 X28.0153 Y5.3893 I-7.2745 J8.2489
G2 X27.5116 Y5.006 I-8.9917 J11.2937
G2 X27.0795 Y4.7021 I-9.9358 J13.6688
G2 X26.5306 Y4.3387 I-14.7954 J21.7527
G2 X26.1859 Y4.1198 I-17.2825 J26.8293
G2 X25.945 Y3.9693 I-60.9611 J97.3488
G3 X26.3304 Y4.0167 I-0.5936 J6.419
G3 X27.1928 Y4.209 I-1.0042 J6.5355
G3 X28.022 Y4.5144 I-1.8692 J6.352
G3 X28.7949 Y4.9239 I-2.6447 J5.9262
G2 X28.9458 Y4.9905 I0.3132 J-0.5055
G2 X29.1123 Y5.0142 I0.1711 J-0.6032
G2 X29.2566 Y5.0008 I0.0053 J-0.7243
G2 X29.4222 Y4.9546 I-0.2095 J-1.0712
G2 X29.5499 Y4.9005 I-0.4764 J-1.3018
G2 X29.707 Y4.817 I-1.0356 J-2.139
G2 X29.7994 Y4.7611 I-1.4793 J-2.5494
G2 X29.9624 Y4.6561 I-5.2148 J-8.2729
G3 X30.5251 Y4.3445 I2.3155 J3.5169
G3 X31.1368 Y4.1185 I1.7998 J3.9312
G3 X31.7754 Y3.9872 I1.1863 J4.1507
G3 X31.8852 Y3.9746 I0.5302 J4.146
G2 X31.4417 Y4.2591 I3.4802 J5.9126
G2 X30.5987 Y4.9485 I4.0671 J5.8339
G1 Z-0.79 F50
G2 X29.8706 Y5.7583 I4.9243 J5.1594 F30
G2 X29.3084 Y6.6121 I5.5117 J4.2413
G3 X29.2804 Y6.5863 I0.1049 J-0.1414
G2 X28.8922 Y6.1701 I-6.229 J5.4213
G2 X28.4394 Y5.7447 I-6.9807 J6.9767
G2 X28.0153 Y5.3893 I-7.2745 J8.2489
G2 X27.5116 Y5.006 I-8.9917 J11.2937
G2 X27.0795 Y4.7021 I-9.9358 J13.6688
G2 X26.5306 Y4.3387 I-14.7954 J21.7527
G2 X26.1859 Y4.1198 I-17.2825 J26.8293
G2 X25.945 Y3.9693 I-60.9611 J97.3488
G3 X26.3304 Y4.0167 I-0.5936 J6.419
G3 X27.1928 Y4.209 I-1.0042 J6.5355
G3 X28.022 Y4.5144 I-1.8692 J6.352
G3 X28.7949 Y4.9239 I-2.6447 J5.9262
G2 X28.9458 Y4.9905 I0.3132 J-0.5055
G2 X29.1123 Y5.0142 I0.1711 J-0.6032
G2 X29.2566 Y5.0008 I0.0053 J-0.7243
G2 X29.4222 Y4.9546 I-0.2095 J-1.0712
G2 X29.5499 Y4.9005 I-0.4764 J-1.3018
G2 X29.707 Y4.817 I-1.0356 J-2.139
G2 X29.7994 Y4.7611 I-1.4793 J-2.5494
G2 X29.9624 Y4.6561 I-5.2148 J-8.2729
G3 X30.5251 Y4.3445 I2.3155 J3.5169
G3 X31.1368 Y4.1185 I1.7998 J3.9312
G3 X31.7754 Y3.9872 I1.1863 J4.1507
G3 X31.8852 Y3.9746 I0.5302 J4.146
G2 X31.4417 Y4.2591 I3.4802 J5.9126
G2 X30.5987 Y4.9485 I4.0671 J5.8339

(profile 14-1)
G0 Z0.1
G0 X42.7269 Y13.7322
G1 Z-0.13 F50
G1 X47.796 Y11.0866 F30
G2 X47.9506 Y11.4531 I3.3567 J-1.2007
G2 X48.2352 Y11.9395 I3.41 J-1.669
G2 X48.5783 Y12.3688 I3.2125 J-2.2154
G2 X48.9831 Y12.7509 I2.9451 J-2.7145
G2 X49.437 Y13.0731 I2.5339 J-3.0888
G2 X49.9231 Y13.3241 I2.0074 J-3.2918
G2 X50.4537 Y13.5061 I1.4734 J-3.4315
G2 X50.7274 Y13.5659 I0.8793 J-3.3698
G3 X50.6322 Y13.6273 I-0.5855 J-0.8031
G3 X50.4805 Y13.6992 I-0.5668 J-0.9995
G3 X50.2853 Y13.7613 I-0.5995 J-1.5472
G3 X50.1113 Y13.797 I-0.4963 J-1.9756
G3 X49.888 Y13.8248 I-0.5064 J-3.1596
G3 X49.7184 Y13.8362 I-0.3546 J-3.993
G3 X49.4749 Y13.8438 I-0.3743 J-8.1008
G3 X47.7278 Y13.8573 I-1.6676 J-103.161
G3 X45.9804 Y13.8411 I0.0795 J-103.215
G3 X44.2335 Y13.7954 I1.827 J-103.2009
G3 X42.7269 Y13.7322 I3.5727 J-103.1225
G1 Z-0.26 F50
G1 X47.796 Y11.0866 F30
G2 X47.9506 Y11.4531 I3.3567 J-1.2007
G2 X48.2352 Y11.9395 I3.41 J-1.669
G2 X48.5783 Y12.3688 I3.2125 J-2.2154
G2 X48.9831 Y12.7509 I2.9451 J-2.7145
G2 X49.437 Y13.0731 I2.5339 J-3.0888
G2 X49.9231 Y13.3241 I2.0074 J-3.2918
G2 X50.4537 Y13.5061 I1.4734 J-3.4315
G2 X50.7274 Y13.5659 I0.8793 J-3.3698
G3 X50.6322 Y13.6273 I-0.5855 J-0.8031
G3 X50.4805 Y13.6992 I-0.5668 J-0.9995
G3 X50.2853 Y13.7613 I-0.5995 J-1.5472
G3 X50.1113 Y13.797 I-0.4963 J-1.9756
G3 X49.888 Y13.8248 I-0.5064 J-3.1596
G3 X49.7184 Y13.8362 I-0.3546 J-3.993
G3 X49.4749 Y13.8438 I-0.3743 J-8.1008
G3 X47.7278 Y13.8573 I-1.6676 J-103.161
G3 X45.9804 Y13.8411 I0.0795 J-103.215
G3 X44.2335 Y13.7954 I1.827 J-103.2009
G3 X42.7269 Y13.7322 I3.5727 J-103.1225
G1 Z-0.39 F50
G1 X47.796 Y11.0866 F30
G2 X47.9506 Y11.4531 I3.3567 J-1.2007
G2 X48.2352 Y11.9395 I3.41 J-1.669
G2 X48.5783 Y12.3688 I3.2125 J-2.2154
G2 X48.9831 Y12.7509 I2.9451 J-2.7145
G2 X49.437 Y13.0731 I2.5339 J-3.0888
G2 X49.9231 Y13.3241 I2.0074 J-3.2918
G2 X50.4537 Y13.5061 I1.4734 J-3.4315
G2 X50.7274 Y13.5659 I0.8793 J-3.3698
G3 X50.6322 Y13.6273 I-0.5855 J-0.8031
G3 X50.4805 Y13.6992 I-0.5668 J-0.9995
G3 X50.2853 Y13.7613 I-0.5995 J-1.5472
G3 X50.1113 Y13.797 I-0.4963 J-1.9756
G3 X49.888 Y13.8248 I-0.5064 J-3.1596
G3 X49.7184 Y13.8362 I-0.3546 J-3.993
G3 X49.4749 Y13.8438 I-0.3743 J-8.1008
G3 X47.7278 Y13.8573 I-1.6676 J-103.161
G3 X45.9804 Y13.8411 I0.0795 J-103.215
G3 X44.2335 Y13.7954 I1.827 J-103.2009
G3 X42.7269 Y13.7322 I3.5727 J-103.1225
G1 Z-0.52 F50
G1 X47.796 Y11.0866 F30
G2 X47.9506 Y11.4531 I3.3567 J-1.2007
G2 X48.2352 Y11.9395 I3.41 J-1.669
G2 X48.5783 Y12.3688 I3.2125 J-2.2154
G2 X48.9831 Y12.7509 I2.9451 J-2.7145
G2 X49.437 Y13.0731 I2.5339 J-3.0888
G2 X49.9231 Y13.3241 I2.0074 J-3.2918
G2 X50.4537 Y13.5061 I1.4734 J-3.4315
G2 X50.7274 Y13.5659 I0.8793 J-3.3698
G3 X50.6322 Y13.6273 I-0.5855 J-0.8031
G3 X50.4805 Y13.6992 I-0.5668 J-0.9995
G3 X50.2853 Y13.7613 I-0.5995 J-1.5472
G3 X50.1113 Y13.797 I-0.4963 J-1.9756
G3 X49.888 Y13.8248 I-0.5064 J-3.1596
G3 X49.7184 Y13.8362 I-0.3546 J-3.993
G3 X49.4749 Y13.8438 I-0.3743 J-8.1008
G3 X47.7278 Y13.8573 I-1.6676 J-103.161
G3 X45.9804 Y13.8411 I0.0795 J-103.215
G3 X44.2335 Y13.7954 I1.827 J-103.2009
G3 X42.7269 Y13.7322 I3.5727 J-103.1225
G1 Z-0.65 F50
G1 X47.796 Y11.0866 F30
G2 X47.9506 Y11.4531 I3.3567 J-1.2007
G2 X48.2352 Y11.9395 I3.41 J-1.669
G2 X48.5783 Y12.3688 I3.2125 J-2.2154
G2 X48.9831 Y12.7509 I2.9451 J-2.7145
G2 X49.437 Y13.0731 I2.5339 J-3.0888
G2 X49.9231 Y13.3241 I2.0074 J-3.2918
G2 X50.4537 Y13.5061 I1.4734 J-3.4315
G2 X50.7274 Y13.5659 I0.8793 J-3.3698
G3 X50.6322 Y13.6273 I-0.5855 J-0.8031
G3 X50.4805 Y13.6992 I-0.5668 J-0.9995
G3 X50.2853 Y13.7613 I-0.5995 J-1.5472
G3 X50.1113 Y13.797 I-0.4963 J-1.9756
G3 X49.888 Y13.8248 I-0.5064 J-3.1596
G3 X49.7184 Y13.8362 I-0.3546 J-3.993
G3 X49.4749 Y13.8438 I-0.3743 J-8.1008
G3 X47.7278 Y13.8573 I-1.6676 J-103.161
G3 X45.9804 Y13.8411 I0.0795 J-103.215
G3 X44.2335 Y13.7954 I1.827 J-103.2009
G3 X42.7269 Y13.7322 I3.5727 J-103.1225
G1 Z-0.78 F50
G1 X47.796 Y11.0866 F30
G2 X47.9506 Y11.4531 I3.3567 J-1.2007
G2 X48.2352 Y11.9395 I3.41 J-1.669
G2 X48.5783 Y12.3688 I3.2125 J-2.2154
G2 X48.9831 Y12.7509 I2.9451 J-2.7145
G2 X49.437 Y13.0731 I2.5339 J-3.0888
G2 X49.9231 Y13.3241 I2.0074 J-3.2918
G2 X50.4537 Y13.5061 I1.4734 J-3.4315
G2 X50.7274 Y13.5659 I0.8793 J-3.3698
G3 X50.6322 Y13.6273 I-0.5855 J-0.8031
G3 X50.4805 Y13.6992 I-0.5668 J-0.9995
G3 X50.2853 Y13.7613 I-0.5995 J-1.5472
G3 X50.1113 Y13.797 I-0.4963 J-1.9756
G3 X49.888 Y13.8248 I-0.5064 J-3.1596
G3 X49.7184 Y13.8362 I-0.3546 J-3.993
G3 X49.4749 Y13.8438 I-0.3743 J-8.1008
G3 X47.7278 Y13.8573 I-1.6676 J-103.161
G3 X45.9804 Y13.8411 I0.0795 J-103.215
G3 X44.2335 Y13.7954 I1.827 J-103.2009
G3 X42.7269 Y13.7322 I3.5727 J-103.1225
G1 Z-0.79 F50
G1 X47.796 Y11.0866 F30
G2 X47.9506 Y11.4531 I3.3567 J-1.2007
G2 X48.2352 Y11.9395 I3.41 J-1.669
G2 X48.5783 Y12.3688 I3.2125 J-2.2154
G2 X48.9831 Y12.7509 I2.9451 J-2.7145
G2 X49.437 Y13.0731 I2.5339 J-3.0888
G2 X49.9231 Y13.3241 I2.0074 J-3.2918
G2 X50.4537 Y13.5061 I1.4734 J-3.4315
G2 X50.7274 Y13.5659 I0.8793 J-3.3698
G3 X50.6322 Y13.6273 I-0.5855 J-0.8031
G3 X50.4805 Y13.6992 I-0.5668 J-0.9995
G3 X50.2853 Y13.7613 I-0.5995 J-1.5472
G3 X50.1113 Y13.797 I-0.4963 J-1.9756
G3 X49.888 Y13.8248 I-0.5064 J-3.1596
G3 X49.7184 Y13.8362 I-0.3546 J-3.993
G3 X49.4749 Y13.8438 I-0.3743 J-8.1008
G3 X47.7278 Y13.8573 I-1.6676 J-103.161
G3 X45.9804 Y13.8411 I0.0795 J-103.215
G3 X44.2335 Y13.7954 I1.827 J-103.2009
G3 X42.7269 Y13.7322 I3.5727 J-103.1225

(profile 14-2)
G0 Z0.1
G0 X67.7202 Y3.8726
G1 Z-0.13 F50
G1 X72.2728 Y3.8275 F30
G3 X71.8394 Y4.0005 I-20.2492 J-50.0721
G3 X70.6254 Y4.467 I-26.9346 J-68.2954
G3 X69.6512 Y4.8248 I-30.6949 J-82.0603
G3 X68.351 Y5.2871 I-52.5172 J-145.6345
G3 X67.9137 Y5.4364 I-9.2234 J-26.3095
G3 X67.6424 Y5.5225 I-3.3588 J-10.1147
G3 X67.2471 Y5.6318 I-2.4813 J-8.1983
G3 X66.9267 Y5.7022 I-1.3443 J-5.3536
G3 X66.5449 Y5.758 I-0.8604 J-4.5577
G3 X66.2156 Y5.7761 I-0.3528 J-3.4008
G3 X65.8493 Y5.7564 I-0.0208 J-3.0276
G3 X65.5185 Y5.6962 I0.2922 J-2.5436
G1 X65.5176 Y5.696
G2 X65.3226 Y5.6491 I-2.5326 J10.0987
G2 X65.2174 Y5.6269 I-0.6495 J2.8188
G2 X65.0352 Y5.5994 I-0.4395 J2.2937
G2 X64.895 Y5.5915 I-0.1426 J1.2868
G2 X64.7194 Y5.607 I-0.0018 J0.9815
G2 X64.5803 Y5.6497 I0.1078 J0.599
G2 X64.4378 Y5.7437 I0.21 J0.4732
G2 X64.3334 Y5.8792 I0.3545 J0.3814
G3 X64.0438 Y6.3343 I-3.1829 J-1.7057
G3 X63.6623 Y6.7774 I-3.3821 J-2.5259
G3 X63.2757 Y7.1277 I-3.4068 J-3.3709
G3 X62.7784 Y7.4945 I-4.2066 J-5.1831
G3 X62.3412 Y7.767 I-4.4904 J-6.7186
G3 X61.7592 Y8.0853 I-6.6818 J-11.5248
G3 X61.5229 Y8.2047 I-7.9091 J-15.356
G3 X61.2245 Y8.3504 I-12.0366 J-24.277
G3 X61.0449 Y8.436 I-14.0559 J-29.2447
G3 X60.6868 Y8.6048 I-54.7916 J-115.813
G2 X60.5895 Y8.6505 I196.8854 J419.5044
G2 X60.541 Y8.6732 I48.8921 J104.1118
G2 X59.123 Y9.3664 I22.157 J47.1245
G2 X57.7251 Y10.103 I23.6251 J46.5299
G2 X56.3502 Y10.8816 I25.0348 J45.8151
G2 X55.2129 Y11.5681 I26.4039 J45.0265
G2 X55.2142 Y11.4902 I-2.3023 J-0.0779
G2 X55.2134 Y11.4288 I-2.3036 J0
G2 X55.1684 Y11.0192 I-2.4886 J0.0663
G2 X55.0618 Y10.634 I-2.5335 J0.4934
G2 X54.8948 Y10.2634 I-2.5145 J0.9103
G2 X54.6735 Y9.9224 I-2.342 J1.2779
G2 X54.408 Y9.6258 I-2.029 J1.5489
G2 X54.0886 Y9.3681 I-1.6941 J1.7728
G2 X53.7438 Y9.1764 I-1.2647 J1.8681
G2 X52.9919 Y8.9839 I-0.9382 J2.1008
G2 X52.1718 Y9.0478 I-0.2107 J2.5934
G2 X51.4123 Y9.3642 I0.6111 J2.5366
G2 X50.8272 Y9.8788 I1.2217 J1.9789
G2 X50.7086 Y10.0897 I0.5596 J0.4535
G2 X50.6645 Y10.3324 I0.7119 J0.2547
G2 X50.6644 Y10.346 I0.86 J0.0136
G2 X50.6907 Y10.5572 I0.8601 J0
G2 X50.7798 Y10.7918 I1.064 J-0.2694
G2 X50.9127 Y10.9954 I1.069 J-0.5528
G2 X51.086 Y11.171 I0.9672 J-0.7814
G2 X51.3003 Y11.3123 I0.7496 J-0.9036
G2 X51.5234 Y11.3943 I0.4478 J-0.8742
G2 X51.786 Y11.4271 I0.2845 J-1.2102
G2 X52.0399 Y11.403 I0.02 J-1.1414
G2 X52.2986 Y11.3111 I-0.2087 J-0.9976
G2 X52.5046 Y11.162 I-0.3898 J-0.7552
G2 X52.6608 Y10.9395 I-0.527 J-0.5361
G2 X52.7329 Y10.6667 I-0.7494 J-0.344
G2 X52.7357 Y10.6019 I-0.7471 J-0.0648
G2 X52.7014 Y10.3778 I-0.7499 J0
G2 X52.6608 Y10.2795 I-0.577 J0.1807
G3 X52.6713 Y10.2764 I0.1263 J0.4079
G3 X52.818 Y10.2589 I0.1291 J0.4585
G3 X52.9601 Y10.2826 I-0.0208 J0.5627
G3 X53.1135 Y10.349 I-0.2105 J0.6966
G3 X53.2486 Y10.4477 I-0.391 J0.677
G3 X53.3575 Y10.5708 I-0.5103 J0.5611
G3 X53.4376 Y10.7202 I-0.5628 J0.398
G3 X53.4727 Y10.8667 I-0.5255 J0.2032
G3 X53.4766 Y10.9435 I-0.7596 J0.0768
G3 X53.4721 Y11.0263 I-0.7635 J0
G3 X53.437 Y11.1915 I-0.8387 J-0.0914
G3 X53.3745 Y11.3406 I-0.8783 J-0.2804
G3 X53.2793 Y11.4905 I-0.9655 J-0.5084
G3 X53.0285 Y11.7377 I-0.9712 J-0.7346
G3 X52.717 Y11.903 I-0.7219 J-0.9839
G3 X52.402 Y11.9789 I-0.512 J-1.4338
G3 X52.0123 Y11.9942 I-0.279 J-2.138
G3 X51.6913 Y11.9584 I0.1391 J-2.705
G3 X51.2761 Y11.8669 I0.7832 J-4.5445
G3 X50.941 Y11.764 I1.2935 J-4.806
G3 X50.688 Y11.6635 I0.9969 J-2.879
G3 X50.3994 Y11.5104 I1.0314 J-2.2928
G3 X50.175 Y11.3474 I0.9672 J-1.5677
G3 X49.9619 Y11.1273 I1.0119 J-1.193
G3 X49.8059 Y10.883 I1.1053 J-0.8778
G3 X49.7035 Y10.5959 I1.1116 J-0.5583
G3 X49.6795 Y10.3789 I0.9713 J-0.2169
G3 X49.6809 Y10.3272 I0.9952 J0
G3 X49.7133 Y10.1187 I1.0311 J0.0537
G3 X49.7917 Y9.9063 I1.1341 J0.2978
G3 X49.8955 Y9.7278 I1.2186 J0.5889
G3 X50.0506 Y9.5309 I1.6006 J1.1018
G3 X50.2042 Y9.3751 I1.7675 J1.588
G3 X50.4115 Y9.1971 I2.4722 J2.6712
G3 X50.5825 Y9.0677 I2.8027 J3.5256
G3 X50.8191 Y8.9037 I4.6835 J6.5048
G3 X52.7139 Y7.7088 I24.4134 J36.6116
G3 X54.8026 Y6.5311 I25.7921 J43.3024
G3 X56.7862 Y5.5256 I25.5407 J47.9278
G3 X58.982 Y4.5191 I27.7829 J57.7112
G3 X59.2553 Y4.4013 I13.9832 J32.0889
G3 X59.434 Y4.3266 I5.8387 J13.716
G3 X59.6827 Y4.2278 I4.603 J11.2154
G3 X59.8892 Y4.1514 I2.9635 J7.7003
G3 X60.3977 Y3.9941 I2.1868 J6.1683
G3 X60.8168 Y3.9051 I1.0982 J4.1392
G3 X61.3151 Y3.8605 I0.5677 J3.5349
G3 X61.7657 Y3.8864 I0.0569 J2.9337
G3 X62.2436 Y3.9984 I-0.345 J2.5489
G3 X62.6415 Y4.1817 I-0.6628 J1.9625
G3 X62.7127 Y4.2258 I-1.2485 J2.0943
G3 X62.8039 Y4.2863 I-2.2151 J3.4413
G3 X62.8583 Y4.3239 I-2.8355 J4.1564
G3 X62.9694 Y4.4024 I-12.0158 J17.1257
G2 X63.1322 Y4.5165 I8.5497 J-12.0186
G2 X63.2156 Y4.5725 I2.0847 J-3.0157
G2 X63.3594 Y4.6605 I1.6272 J-2.4976
G2 X63.4772 Y4.7224 I0.8984 J-1.5658
G2 X63.6266 Y4.7844 I0.6482 J-1.3518
G2 X63.7628 Y4.8229 I0.3699 J-1.0483
G2 X63.9217 Y4.844 I0.2115 J-0.9834
G2 X64.0765 Y4.8392 I0.0484 J-0.9254
G2 X64.2575 Y4.7996 I-0.1063 J-0.92
G2 X64.4607 Y4.7147 I-0.4263 J-1.3062
G2 X64.537 Y4.673 I-0.817 J-1.5851
G2 X64.629 Y4.6173 I-1.4071 J-2.4312
G2 X64.6829 Y4.5826 I-1.8089 J-2.8663
G2 X64.7872 Y4.5133 I-7.3262 J-11.1367
G3 X64.9007 Y4.438 I6.507 J9.692
G3 X64.9555 Y4.4031 I1.5034 J2.2967
G3 X65.2468 Y4.2463 I1.4066 J2.264
G3 X65.5834 Y4.114 I1.3222 J2.8702
G3 X65.8958 Y4.027 I1.1122 J3.3878
G3 X66.2685 Y3.9565 I1.0848 J4.7127
G3 X66.5865 Y3.9181 I0.8478 J5.6953
G3 X66.9889 Y3.89 I0.8333 J9.0186
G3 X67.2564 Y3.8804 I0.534 J11.2103
G3 X67.7202 Y3.8726 I0.7937 J33.4235
G1 Z-0.26 F50
G1 X72.2728 Y3.8275 F30
G3 X71.8394 Y4.0005 I-20.2492 J-50.0721
G3 X70.6254 Y4.467 I-26.9346 J-68.2954
G3 X69.6512 Y4.8248 I-30.6949 J-82.0603
G3 X68.351 Y5.2871 I-52.5172 J-145.6345
G3 X67.9137 Y5.4364 I-9.2234 J-26.3095
G3 X67.6424 Y5.5225 I-3.3588 J-10.1147
G3 X67.2471 Y5.6318 I-2.4813 J-8.1983
G3 X66.9267 Y5.7022 I-1.3443 J-5.3536
G3 X66.5449 Y5.758 I-0.8604 J-4.5577
G3 X66.2156 Y5.7761 I-0.3528 J-3.4008
G3 X65.8493 Y5.7564 I-0.0208 J-3.0276
G3 X65.5185 Y5.6962 I0.2922 J-2.5436
G1 X65.5176 Y5.696
G2 X65.3226 Y5.6491 I-2.5326 J10.0987
G2 X65.2174 Y5.6269 I-0.6495 J2.8188
G2 X65.0352 Y5.5994 I-0.4395 J2.2937
G2 X64.895 Y5.5915 I-0.1426 J1.2868
G2 X64.7194 Y5.607 I-0.0018 J0.9815
G2 X64.5803 Y5.6497 I0.1078 J0.599
G2 X64.4378 Y5.7437 I0.21 J0.4732
G2 X64.3334 Y5.8792 I0.3545 J0.3814
G3 X64.0438 Y6.3343 I-3.1829 J-1.7057
G3 X63.6623 Y6.7774 I-3.3821 J-2.5259
G3 X63.2757 Y7.1277 I-3.4068 J-3.3709
G3 X62.7784 Y7.4945 I-4.2066 J-5.1831
G3 X62.3412 Y7.767 I-4.4904 J-6.7186
G3 X61.7592 Y8.0853 I-6.6818 J-11.5248
G3 X61.5229 Y8.2047 I-7.9091 J-15.356
G3 X61.2245 Y8.3504 I-12.0366 J-24.277
G3 X61.0449 Y8.436 I-14.0559 J-29.2447
G3 X60.6868 Y8.6048 I-54.7916 J-115.813
G2 X60.5895 Y8.6505 I196.8854 J419.5044
G2 X60.541 Y8.6732 I48.8921 J104.1118
G2 X59.123 Y9.3664 I22.157 J47.1245
G2 X57.7251 Y10.103 I23.6251 J46.5299
G2 X56.3502 Y10.8816 I25.0348 J45.8151
G2 X55.2129 Y11.5681 I26.4039 J45.0265
G2 X55.2142 Y11.4902 I-2.3023 J-0.0779
G2 X55.2134 Y11.4288 I-2.3036 J0
G2 X55.1684 Y11.0192 I-2.4886 J0.0663
G2 X55.0618 Y10.634 I-2.5335 J0.4934
G2 X54.8948 Y10.2634 I-2.5145 J0.9103
G2 X54.6735 Y9.9224 I-2.342 J1.2779
G2 X54.408 Y9.6258 I-2.029 J1.5489
G2 X54.0886 Y9.3681 I-1.6941 J1.7728
G2 X53.7438 Y9.1764 I-1.2647 J1.8681
G2 X52.9919 Y8.9839 I-0.9382 J2.1008
G2 X52.1718 Y9.0478 I-0.2107 J2.5934
G2 X51.4123 Y9.3642 I0.6111 J2.5366
G2 X50.8272 Y9.8788 I1.2217 J1.9789
G2 X50.7086 Y10.0897 I0.5596 J0.4535
G2 X50.6645 Y10.3324 I0.7119 J0.2547
G2 X50.6644 Y10.346 I0.86 J0.0136
G2 X50.6907 Y10.5572 I0.8601 J0
G2 X50.7798 Y10.7918 I1.064 J-0.2694
G2 X50.9127 Y10.9954 I1.069 J-0.5528
G2 X51.086 Y11.171 I0.9672 J-0.7814
G2 X51.3003 Y11.3123 I0.7496 J-0.9036
G2 X51.5234 Y11.3943 I0.4478 J-0.8742
G2 X51.786 Y11.4271 I0.2845 J-1.2102
G2 X52.0399 Y11.403 I0.02 J-1.1414
G2 X52.2986 Y11.3111 I-0.2087 J-0.9976
G2 X52.5046 Y11.162 I-0.3898 J-0.7552
G2 X52.6608 Y10.9395 I-0.527 J-0.5361
G2 X52.7329 Y10.6667 I-0.7494 J-0.344
G2 X52.7357 Y10.6019 I-0.7471 J-0.0648
G2 X52.7014 Y10.3778 I-0.7499 J0
G2 X52.6608 Y10.2795 I-0.577 J0.1807
G3 X52.6713 Y10.2764 I0.1263 J0.4079
G3 X52.818 Y10.2589 I0.1291 J0.4585
G3 X52.9601 Y10.2826 I-0.0208 J0.5627
G3 X53.1135 Y10.349 I-0.2105 J0.6966
G3 X53.2486 Y10.4477 I-0.391 J0.677
G3 X53.3575 Y10.5708 I-0.5103 J0.5611
G3 X53.4376 Y10.7202 I-0.5628 J0.398
G3 X53.4727 Y10.8667 I-0.5255 J0.2032
G3 X53.4766 Y10.9435 I-0.7596 J0.0768
G3 X53.4721 Y11.0263 I-0.7635 J0
G3 X53.437 Y11.1915 I-0.8387 J-0.0914
G3 X53.3745 Y11.3406 I-0.8783 J-0.2804
G3 X53.2793 Y11.4905 I-0.9655 J-0.5084
G3 X53.0285 Y11.7377 I-0.9712 J-0.7346
G3 X52.717 Y11.903 I-0.7219 J-0.9839
G3 X52.402 Y11.9789 I-0.512 J-1.4338
G3 X52.0123 Y11.9942 I-0.279 J-2.138
G3 X51.6913 Y11.9584 I0.1391 J-2.705
G3 X51.2761 Y11.8669 I0.7832 J-4.5445
G3 X50.941 Y11.764 I1.2935 J-4.806
G3 X50.688 Y11.6635 I0.9969 J-2.879
G3 X50.3994 Y11.5104 I1.0314 J-2.2928
G3 X50.175 Y11.3474 I0.9672 J-1.5677
G3 X49.9619 Y11.1273 I1.0119 J-1.193
G3 X49.8059 Y10.883 I1.1053 J-0.8778
G3 X49.7035 Y10.5959 I1.1116 J-0.5583
G3 X49.6795 Y10.3789 I0.9713 J-0.2169
G3 X49.6809 Y10.3272 I0.9952 J0
G3 X49.7133 Y10.1187 I1.0311 J0.0537
G3 X49.7917 Y9.9063 I1.1341 J0.2978
G3 X49.8955 Y9.7278 I1.2186 J0.5889
G3 X50.0506 Y9.5309 I1.6006 J1.1018
G3 X50.2042 Y9.3751 I1.7675 J1.588
G3 X50.4115 Y9.1971 I2.4722 J2.6712
G3 X50.5825 Y9.0677 I2.8027 J3.5256
G3 X50.8191 Y8.9037 I4.6835 J6.5048
G3 X52.7139 Y7.7088 I24.4134 J36.6116
G3 X54.8026 Y6.5311 I25.7921 J43.3024
G3 X56.7862 Y5.5256 I25.5407 J47.9278
G3 X58.982 Y4.5191 I27.7829 J57.7112
G3 X59.2553 Y4.4013 I13.9832 J32.0889
G3 X59.434 Y4.3266 I5.8387 J13.716
G3 X59.6827 Y4.2278 I4.603 J11.2154
G3 X59.8892 Y4.1514 I2.9635 J7.7003
G3 X60.3977 Y3.9941 I2.1868 J6.1683
G3 X60.8168 Y3.9051 I1.0982 J4.1392
G3 X61.3151 Y3.8605 I0.5677 J3.5349
G3 X61.7657 Y3.8864 I0.0569 J2.9337
G3 X62.2436 Y3.9984 I-0.345 J2.5489
G3 X62.6415 Y4.1817 I-0.6628 J1.9625
G3 X62.7127 Y4.2258 I-1.2485 J2.0943
G3 X62.8039 Y4.2863 I-2.2151 J3.4413
G3 X62.8583 Y4.3239 I-2.8355 J4.1564
G3 X62.9694 Y4.4024 I-12.0158 J17.1257
G2 X63.1322 Y4.5165 I8.5497 J-12.0186
G2 X63.2156 Y4.5725 I2.0847 J-3.0157
G2 X63.3594 Y4.6605 I1.6272 J-2.4976
G2 X63.4772 Y4.7224 I0.8984 J-1.5658
G2 X63.6266 Y4.7844 I0.6482 J-1.3518
G2 X63.7628 Y4.8229 I0.3699 J-1.0483
G2 X63.9217 Y4.844 I0.2115 J-0.9834
G2 X64.0765 Y4.8392 I0.0484 J-0.9254
G2 X64.2575 Y4.7996 I-0.1063 J-0.92
G2 X64.4607 Y4.7147 I-0.4263 J-1.3062
G2 X64.537 Y4.673 I-0.817 J-1.5851
G2 X64.629 Y4.6173 I-1.4071 J-2.4312
G2 X64.6829 Y4.5826 I-1.8089 J-2.8663
G2 X64.7872 Y4.5133 I-7.3262 J-11.1367
G3 X64.9007 Y4.438 I6.507 J9.692
G3 X64.9555 Y4.4031 I1.5034 J2.2967
G3 X65.2468 Y4.2463 I1.4066 J2.264
G3 X65.5834 Y4.114 I1.3222 J2.8702
G3 X65.8958 Y4.027 I1.1122 J3.3878
G3 X66.2685 Y3.9565 I1.0848 J4.7127
G3 X66.5865 Y3.9181 I0.8478 J5.6953
G3 X66.9889 Y3.89 I0.8333 J9.0186
G3 X67.2564 Y3.8804 I0.534 J11.2103
G3 X67.7202 Y3.8726 I0.7937 J33.4235
G1 Z-0.39 F50
G1 X72.2728 Y3.8275 F30
G3 X71.8394 Y4.0005 I-20.2492 J-50.0721
G3 X70.6254 Y4.467 I-26.9346 J-68.2954
G3 X69.6512 Y4.8248 I-30.6949 J-82.0603
G3 X68.351 Y5.2871 I-52.5172 J-145.6345
G3 X67.9137 Y5.4364 I-9.2234 J-26.3095
G3 X67.6424 Y5.5225 I-3.3588 J-10.1147
G3 X67.2471 Y5.6318 I-2.4813 J-8.1983
G3 X66.9267 Y5.7022 I-1.3443 J-5.3536
G3 X66.5449 Y5.758 I-0.8604 J-4.5577
G3 X66.2156 Y5.7761 I-0.3528 J-3.4008
G3 X65.8493 Y5.7564 I-0.0208 J-3.0276
G3 X65.5185 Y5.6962 I0.2922 J-2.5436
G1 X65.5176 Y5.696
G2 X65.3226 Y5.6491 I-2.5326 J10.0987
G2 X65.2174 Y5.6269 I-0.6495 J2.8188
G2 X65.0352 Y5.5994 I-0.4395 J2.2937
G2 X64.895 Y5.5915 I-0.1426 J1.2868
G2 X64.7194 Y5.607 I-0.0018 J0.9815
G2 X64.5803 Y5.6497 I0.1078 J0.599
G2 X64.4378 Y5.7437 I0.21 J0.4732
G2 X64.3334 Y5.8792 I0.3545 J0.3814
G3 X64.0438 Y6.3343 I-3.1829 J-1.7057
G3 X63.6623 Y6.7774 I-3.3821 J-2.5259
G3 X63.2757 Y7.1277 I-3.4068 J-3.3709
G3 X62.7784 Y7.4945 I-4.2066 J-5.1831
G3 X62.3412 Y7.767 I-4.4904 J-6.7186
G3 X61.7592 Y8.0853 I-6.6818 J-11.5248
G3 X61.5229 Y8.2047 I-7.9091 J-15.356
G3 X61.2245 Y8.3504 I-12.0366 J-24.277
G3 X61.0449 Y8.436 I-14.0559 J-29.2447
G3 X60.6868 Y8.6048 I-54.7916 J-115.813
G2 X60.5895 Y8.6505 I196.8854 J419.5044
G2 X60.541 Y8.6732 I48.8921 J104.1118
G2 X59.123 Y9.3664 I22.157 J47.1245
G2 X57.7251 Y10.103 I23.6251 J46.5299
G2 X56.3502 Y10.8816 I25.0348 J45.8151
G2 X55.2129 Y11.5681 I26.4039 J45.0265
G2 X55.2142 Y11.4902 I-2.3023 J-0.0779
G2 X55.2134 Y11.4288 I-2.3036 J0
G2 X55.1684 Y11.0192 I-2.4886 J0.0663
G2 X55.0618 Y10.634 I-2.5335 J0.4934
G2 X54.8948 Y10.2634 I-2.5145 J0.9103
G2 X54.6735 Y9.9224 I-2.342 J1.2779
G2 X54.408 Y9.6258 I-2.029 J1.5489
G2 X54.0886 Y9.3681 I-1.6941 J1.7728
G2 X53.7438 Y9.1764 I-1.2647 J1.8681
G2 X52.9919 Y8.9839 I-0.9382 J2.1008
G2 X52.1718 Y9.0478 I-0.2107 J2.5934
G2 X51.4123 Y9.3642 I0.6111 J2.5366
G2 X50.8272 Y9.8788 I1.2217 J1.9789
G2 X50.7086 Y10.0897 I0.5596 J0.4535
G2 X50.6645 Y10.3324 I0.7119 J0.2547
G2 X50.6644 Y10.346 I0.86 J0.0136
G2 X50.6907 Y10.5572 I0.8601 J0
G2 X50.7798 Y10.7918 I1.064 J-0.2694
G2 X50.9127 Y10.9954 I1.069 J-0.5528
G2 X51.086 Y11.171 I0.9672 J-0.7814
G2 X51.3003 Y11.3123 I0.7496 J-0.9036
G2 X51.5234 Y11.3943 I0.4478 J-0.8742
G2 X51.786 Y11.4271 I0.2845 J-1.2102
G2 X52.0399 Y11.403 I0.02 J-1.1414
G2 X52.2986 Y11.3111 I-0.2087 J-0.9976
G2 X52.5046 Y11.162 I-0.3898 J-0.7552
G2 X52.6608 Y10.9395 I-0.527 J-0.5361
G2 X52.7329 Y10.6667 I-0.7494 J-0.344
G2 X52.7357 Y10.6019 I-0.7471 J-0.0648
G2 X52.7014 Y10.3778 I-0.7499 J0
G2 X52.6608 Y10.2795 I-0.577 J0.1807
G3 X52.6713 Y10.2764 I0.1263 J0.4079
G3 X52.818 Y10.2589 I0.1291 J0.4585
G3 X52.9601 Y10.2826 I-0.0208 J0.5627
G3 X53.1135 Y10.349 I-0.2105 J0.6966
G3 X53.2486 Y10.4477 I-0.391 J0.677
G3 X53.3575 Y10.5708 I-0.5103 J0.5611
G3 X53.4376 Y10.7202 I-0.5628 J0.398
G3 X53.4727 Y10.8667 I-0.5255 J0.2032
G3 X53.4766 Y10.9435 I-0.7596 J0.0768
G3 X53.4721 Y11.0263 I-0.7635 J0
G3 X53.437 Y11.1915 I-0.8387 J-0.0914
G3 X53.3745 Y11.3406 I-0.8783 J-0.2804
G3 X53.2793 Y11.4905 I-0.9655 J-0.5084
G3 X53.0285 Y11.7377 I-0.9712 J-0.7346
G3 X52.717 Y11.903 I-0.7219 J-0.9839
G3 X52.402 Y11.9789 I-0.512 J-1.4338
G3 X52.0123 Y11.9942 I-0.279 J-2.138
G3 X51.6913 Y11.9584 I0.1391 J-2.705
G3 X51.2761 Y11.8669 I0.7832 J-4.5445
G3 X50.941 Y11.764 I1.2935 J-4.806
G3 X50.688 Y11.6635 I0.9969 J-2.879
G3 X50.3994 Y11.5104 I1.0314 J-2.2928
G3 X50.175 Y11.3474 I0.9672 J-1.5677
G3 X49.9619 Y11.1273 I1.0119 J-1.193
G3 X49.8059 Y10.883 I1.1053 J-0.8778
G3 X49.7035 Y10.5959 I1.1116 J-0.5583
G3 X49.6795 Y10.3789 I0.9713 J-0.2169
G3 X49.6809 Y10.3272 I0.9952 J0
G3 X49.7133 Y10.1187 I1.0311 J0.0537
G3 X49.7917 Y9.9063 I1.1341 J0.2978
G3 X49.8955 Y9.7278 I1.2186 J0.5889
G3 X50.0506 Y9.5309 I1.6006 J1.1018
G3 X50.2042 Y9.3751 I1.7675 J1.588
G3 X50.4115 Y9.1971 I2.4722 J2.6712
G3 X50.5825 Y9.0677 I2.8027 J3.5256
G3 X50.8191 Y8.9037 I4.6835 J6.5048
G3 X52.7139 Y7.7088 I24.4134 J36.6116
G3 X54.8026 Y6.5311 I25.7921 J43.3024
G3 X56.7862 Y5.5256 I25.5407 J47.9278
G3 X58.982 Y4.5191 I27.7829 J57.7112
G3 X59.2553 Y4.4013 I13.9832 J32.0889
G3 X59.434 Y4.3266 I5.8387 J13.716
G3 X59.6827 Y4.2278 I4.603 J11.2154
G3 X59.8892 Y4.1514 I2.9635 J7.7003
G3 X60.3977 Y3.9941 I2.1868 J6.1683
G3 X60.8168 Y3.9051 I1.0982 J4.1392
G3 X61.3151 Y3.8605 I0.5677 J3.5349
G3 X61.7657 Y3.8864 I0.0569 J2.9337
G3 X62.2436 Y3.9984 I-0.345 J2.5489
G3 X62.6415 Y4.1817 I-0.6628 J1.9625
G3 X62.7127 Y4.2258 I-1.2485 J2.0943
G3 X62.8039 Y4.2863 I-2.2151 J3.4413
G3 X62.8583 Y4.3239 I-2.8355 J4.1564
G3 X62.9694 Y4.4024 I-12.0158 J17.1257
G2 X63.1322 Y4.5165 I8.5497 J-12.0186
G2 X63.2156 Y4.5725 I2.0847 J-3.0157
G2 X63.3594 Y4.6605 I1.6272 J-2.4976
G2 X63.4772 Y4.7224 I0.8984 J-1.5658
G2 X63.6266 Y4.7844 I0.6482 J-1.3518
G2 X63.7628 Y4.8229 I0.3699 J-1.0483
G2 X63.9217 Y4.844 I0.2115 J-0.9834
G2 X64.0765 Y4.8392 I0.0484 J-0.9254
G2 X64.2575 Y4.7996 I-0.1063 J-0.92
G2 X64.4607 Y4.7147 I-0.4263 J-1.3062
G2 X64.537 Y4.673 I-0.817 J-1.5851
G2 X64.629 Y4.6173 I-1.4071 J-2.4312
G2 X64.6829 Y4.5826 I-1.8089 J-2.8663
G2 X64.7872 Y4.5133 I-7.3262 J-11.1367
G3 X64.9007 Y4.438 I6.507 J9.692
G3 X64.9555 Y4.4031 I1.5034 J2.2967
G3 X65.2468 Y4.2463 I1.4066 J2.264
G3 X65.5834 Y4.114 I1.3222 J2.8702
G3 X65.8958 Y4.027 I1.1122 J3.3878
G3 X66.2685 Y3.9565 I1.0848 J4.7127
G3 X66.5865 Y3.9181 I0.8478 J5.6953
G3 X66.9889 Y3.89 I0.8333 J9.0186
G3 X67.2564 Y3.8804 I0.534 J11.2103
G3 X67.7202 Y3.8726 I0.7937 J33.4235
G1 Z-0.52 F50
G1 X72.2728 Y3.8275 F30
G3 X71.8394 Y4.0005 I-20.2492 J-50.0721
G3 X70.6254 Y4.467 I-26.9346 J-68.2954
G3 X69.6512 Y4.8248 I-30.6949 J-82.0603
G3 X68.351 Y5.2871 I-52.5172 J-145.6345
G3 X67.9137 Y5.4364 I-9.2234 J-26.3095
G3 X67.6424 Y5.5225 I-3.3588 J-10.1147
G3 X67.2471 Y5.6318 I-2.4813 J-8.1983
G3 X66.9267 Y5.7022 I-1.3443 J-5.3536
G3 X66.5449 Y5.758 I-0.8604 J-4.5577
G3 X66.2156 Y5.7761 I-0.3528 J-3.4008
G3 X65.8493 Y5.7564 I-0.0208 J-3.0276
G3 X65.5185 Y5.6962 I0.2922 J-2.5436
G1 X65.5176 Y5.696
G2 X65.3226 Y5.6491 I-2.5326 J10.0987
G2 X65.2174 Y5.6269 I-0.6495 J2.8188
G2 X65.0352 Y5.5994 I-0.4395 J2.2937
G2 X64.895 Y5.5915 I-0.1426 J1.2868
G2 X64.7194 Y5.607 I-0.0018 J0.9815
G2 X64.5803 Y5.6497 I0.1078 J0.599
G2 X64.4378 Y5.7437 I0.21 J0.4732
G2 X64.3334 Y5.8792 I0.3545 J0.3814
G3 X64.0438 Y6.3343 I-3.1829 J-1.7057
G3 X63.6623 Y6.7774 I-3.3821 J-2.5259
G3 X63.2757 Y7.1277 I-3.4068 J-3.3709
G3 X62.7784 Y7.4945 I-4.2066 J-5.1831
G3 X62.3412 Y7.767 I-4.4904 J-6.7186
G3 X61.7592 Y8.0853 I-6.6818 J-11.5248
G3 X61.5229 Y8.2047 I-7.9091 J-15.356
G3 X61.2245 Y8.3504 I-12.0366 J-24.277
G3 X61.0449 Y8.436 I-14.0559 J-29.2447
G3 X60.6868 Y8.6048 I-54.7916 J-115.813
G2 X60.5895 Y8.6505 I196.8854 J419.5044
G2 X60.541 Y8.6732 I48.8921 J104.1118
G2 X59.123 Y9.3664 I22.157 J47.1245
G2 X57.7251 Y10.103 I23.6251 J46.5299
G2 X56.3502 Y10.8816 I25.0348 J45.8151
G2 X55.2129 Y11.5681 I26.4039 J45.0265
G2 X55.2142 Y11.4902 I-2.3023 J-0.0779
G2 X55.2134 Y11.4288 I-2.3036 J0
G2 X55.1684 Y11.0192 I-2.4886 J0.0663
G2 X55.0618 Y10.634 I-2.5335 J0.4934
G2 X54.8948 Y10.2634 I-2.5145 J0.9103
G2 X54.6735 Y9.9224 I-2.342 J1.2779
G2 X54.408 Y9.6258 I-2.029 J1.5489
G2 X54.0886 Y9.3681 I-1.6941 J1.7728
G2 X53.7438 Y9.1764 I-1.2647 J1.8681
G2 X52.9919 Y8.9839 I-0.9382 J2.1008
G2 X52.1718 Y9.0478 I-0.2107 J2.5934
G2 X51.4123 Y9.3642 I0.6111 J2.5366
G2 X50.8272 Y9.8788 I1.2217 J1.9789
G2 X50.7086 Y10.0897 I0.5596 J0.4535
G2 X50.6645 Y10.3324 I0.7119 J0.2547
G2 X50.6644 Y10.346 I0.86 J0.0136
G2 X50.6907 Y10.5572 I0.8601 J0
G2 X50.7798 Y10.7918 I1.064 J-0.2694
G2 X50.9127 Y10.9954 I1.069 J-0.5528
G2 X51.086 Y11.171 I0.9672 J-0.7814
G2 X51.3003 Y11.3123 I0.7496 J-0.9036
G2 X51.5234 Y11.3943 I0.4478 J-0.8742
G2 X51.786 Y11.4271 I0.2845 J-1.2102
G2 X52.0399 Y11.403 I0.02 J-1.1414
G2 X52.2986 Y11.3111 I-0.2087 J-0.9976
G2 X52.5046 Y11.162 I-0.3898 J-0.7552
G2 X52.6608 Y10.9395 I-0.527 J-0.5361
G2 X52.7329 Y10.6667 I-0.7494 J-0.344
G2 X52.7357 Y10.6019 I-0.7471 J-0.0648
G2 X52.7014 Y10.3778 I-0.7499 J0
G2 X52.6608 Y10.2795 I-0.577 J0.1807
G3 X52.6713 Y10.2764 I0.1263 J0.4079
G3 X52.818 Y10.2589 I0.1291 J0.4585
G3 X52.9601 Y10.2826 I-0.0208 J0.5627
G3 X53.1135 Y10.349 I-0.2105 J0.6966
G3 X53.2486 Y10.4477 I-0.391 J0.677
G3 X53.3575 Y10.5708 I-0.5103 J0.5611
G3 X53.4376 Y10.7202 I-0.5628 J0.398
G3 X53.4727 Y10.8667 I-0.5255 J0.2032
G3 X53.4766 Y10.9435 I-0.7596 J0.0768
G3 X53.4721 Y11.0263 I-0.7635 J0
G3 X53.437 Y11.1915 I-0.8387 J-0.0914
G3 X53.3745 Y11.3406 I-0.8783 J-0.2804
G3 X53.2793 Y11.4905 I-0.9655 J-0.5084
G3 X53.0285 Y11.7377 I-0.9712 J-0.7346
G3 X52.717 Y11.903 I-0.7219 J-0.9839
G3 X52.402 Y11.9789 I-0.512 J-1.4338
G3 X52.0123 Y11.9942 I-0.279 J-2.138
G3 X51.6913 Y11.9584 I0.1391 J-2.705
G3 X51.2761 Y11.8669 I0.7832 J-4.5445
G3 X50.941 Y11.764 I1.2935 J-4.806
G3 X50.688 Y11.6635 I0.9969 J-2.879
G3 X50.3994 Y11.5104 I1.0314 J-2.2928
G3 X50.175 Y11.3474 I0.9672 J-1.5677
G3 X49.9619 Y11.1273 I1.0119 J-1.193
G3 X49.8059 Y10.883 I1.1053 J-0.8778
G3 X49.7035 Y10.5959 I1.1116 J-0.5583
G3 X49.6795 Y10.3789 I0.9713 J-0.2169
G3 X49.6809 Y10.3272 I0.9952 J0
G3 X49.7133 Y10.1187 I1.0311 J0.0537
G3 X49.7917 Y9.9063 I1.1341 J0.2978
G3 X49.8955 Y9.7278 I1.2186 J0.5889
G3 X50.0506 Y9.5309 I1.6006 J1.1018
G3 X50.2042 Y9.3751 I1.7675 J1.588
G3 X50.4115 Y9.1971 I2.4722 J2.6712
G3 X50.5825 Y9.0677 I2.8027 J3.5256
G3 X50.8191 Y8.9037 I4.6835 J6.5048
G3 X52.7139 Y7.7088 I24.4134 J36.6116
G3 X54.8026 Y6.5311 I25.7921 J43.3024
G3 X56.7862 Y5.5256 I25.5407 J47.9278
G3 X58.982 Y4.5191 I27.7829 J57.7112
G3 X59.2553 Y4.4013 I13.9832 J32.0889
G3 X59.434 Y4.3266 I5.8387 J13.716
G3 X59.6827 Y4.2278 I4.603 J11.2154
G3 X59.8892 Y4.1514 I2.9635 J7.7003
G3 X60.3977 Y3.9941 I2.1868 J6.1683
G3 X60.8168 Y3.9051 I1.0982 J4.1392
G3 X61.3151 Y3.8605 I0.5677 J3.5349
G3 X61.7657 Y3.8864 I0.0569 J2.9337
G3 X62.2436 Y3.9984 I-0.345 J2.5489
G3 X62.6415 Y4.1817 I-0.6628 J1.9625
G3 X62.7127 Y4.2258 I-1.2485 J2.0943
G3 X62.8039 Y4.2863 I-2.2151 J3.4413
G3 X62.8583 Y4.3239 I-2.8355 J4.1564
G3 X62.9694 Y4.4024 I-12.0158 J17.1257
G2 X63.1322 Y4.5165 I8.5497 J-12.0186
G2 X63.2156 Y4.5725 I2.0847 J-3.0157
G2 X63.3594 Y4.6605 I1.6272 J-2.4976
G2 X63.4772 Y4.7224 I0.8984 J-1.5658
G2 X63.6266 Y4.7844 I0.6482 J-1.3518
G2 X63.7628 Y4.8229 I0.3699 J-1.0483
G2 X63.9217 Y4.844 I0.2115 J-0.9834
G2 X64.0765 Y4.8392 I0.0484 J-0.9254
G2 X64.2575 Y4.7996 I-0.1063 J-0.92
G2 X64.4607 Y4.7147 I-0.4263 J-1.3062
G2 X64.537 Y4.673 I-0.817 J-1.5851
G2 X64.629 Y4.6173 I-1.4071 J-2.4312
G2 X64.6829 Y4.5826 I-1.8089 J-2.8663
G2 X64.7872 Y4.5133 I-7.3262 J-11.1367
G3 X64.9007 Y4.438 I6.507 J9.692
G3 X64.9555 Y4.4031 I1.5034 J2.2967
G3 X65.2468 Y4.2463 I1.4066 J2.264
G3 X65.5834 Y4.114 I1.3222 J2.8702
G3 X65.8958 Y4.027 I1.1122 J3.3878
G3 X66.2685 Y3.9565 I1.0848 J4.7127
G3 X66.5865 Y3.9181 I0.8478 J5.6953
G3 X66.9889 Y3.89 I0.8333 J9.0186
G3 X67.2564 Y3.8804 I0.534 J11.2103
G3 X67.7202 Y3.8726 I0.7937 J33.4235
G1 Z-0.65 F50
G1 X72.2728 Y3.8275 F30
G3 X71.8394 Y4.0005 I-20.2492 J-50.0721
G3 X70.6254 Y4.467 I-26.9346 J-68.2954
G3 X69.6512 Y4.8248 I-30.6949 J-82.0603
G3 X68.351 Y5.2871 I-52.5172 J-145.6345
G3 X67.9137 Y5.4364 I-9.2234 J-26.3095
G3 X67.6424 Y5.5225 I-3.3588 J-10.1147
G3 X67.2471 Y5.6318 I-2.4813 J-8.1983
G3 X66.9267 Y5.7022 I-1.3443 J-5.3536
G3 X66.5449 Y5.758 I-0.8604 J-4.5577
G3 X66.2156 Y5.7761 I-0.3528 J-3.4008
G3 X65.8493 Y5.7564 I-0.0208 J-3.0276
G3 X65.5185 Y5.6962 I0.2922 J-2.5436
G1 X65.5176 Y5.696
G2 X65.3226 Y5.6491 I-2.5326 J10.0987
G2 X65.2174 Y5.6269 I-0.6495 J2.8188
G2 X65.0352 Y5.5994 I-0.4395 J2.2937
G2 X64.895 Y5.5915 I-0.1426 J1.2868
G2 X64.7194 Y5.607 I-0.0018 J0.9815
G2 X64.5803 Y5.6497 I0.1078 J0.599
G2 X64.4378 Y5.7437 I0.21 J0.4732
G2 X64.3334 Y5.8792 I0.3545 J0.3814
G3 X64.0438 Y6.3343 I-3.1829 J-1.7057
G3 X63.6623 Y6.7774 I-3.3821 J-2.5259
G3 X63.2757 Y7.1277 I-3.4068 J-3.3709
G3 X62.7784 Y7.4945 I-4.2066 J-5.1831
G3 X62.3412 Y7.767 I-4.4904 J-6.7186
G3 X61.7592 Y8.0853 I-6.6818 J-11.5248
G3 X61.5229 Y8.2047 I-7.9091 J-15.356
G3 X61.2245 Y8.3504 I-12.0366 J-24.277
G3 X61.0449 Y8.436 I-14.0559 J-29.2447
G3 X60.6868 Y8.6048 I-54.7916 J-115.813
G2 X60.5895 Y8.6505 I196.8854 J419.5044
G2 X60.541 Y8.6732 I48.8921 J104.1118
G2 X59.123 Y9.3664 I22.157 J47.1245
G2 X57.7251 Y10.103 I23.6251 J46.5299
G2 X56.3502 Y10.8816 I25.0348 J45.8151
G2 X55.2129 Y11.5681 I26.4039 J45.0265
G2 X55.2142 Y11.4902 I-2.3023 J-0.0779
G2 X55.2134 Y11.4288 I-2.3036 J0
G2 X55.1684 Y11.0192 I-2.4886 J0.0663
G2 X55.0618 Y10.634 I-2.5335 J0.4934
G2 X54.8948 Y10.2634 I-2.5145 J0.9103
G2 X54.6735 Y9.9224 I-2.342 J1.2779
G2 X54.408 Y9.6258 I-2.029 J1.5489
G2 X54.0886 Y9.3681 I-1.6941 J1.7728
G2 X53.7438 Y9.1764 I-1.2647 J1.8681
G2 X52.9919 Y8.9839 I-0.9382 J2.1008
G2 X52.1718 Y9.0478 I-0.2107 J2.5934
G2 X51.4123 Y9.3642 I0.6111 J2.5366
G2 X50.8272 Y9.8788 I1.2217 J1.9789
G2 X50.7086 Y10.0897 I0.5596 J0.4535
G2 X50.6645 Y10.3324 I0.7119 J0.2547
G2 X50.6644 Y10.346 I0.86 J0.0136
G2 X50.6907 Y10.5572 I0.8601 J0
G2 X50.7798 Y10.7918 I1.064 J-0.2694
G2 X50.9127 Y10.9954 I1.069 J-0.5528
G2 X51.086 Y11.171 I0.9672 J-0.7814
G2 X51.3003 Y11.3123 I0.7496 J-0.9036
G2 X51.5234 Y11.3943 I0.4478 J-0.8742
G2 X51.786 Y11.4271 I0.2845 J-1.2102
G2 X52.0399 Y11.403 I0.02 J-1.1414
G2 X52.2986 Y11.3111 I-0.2087 J-0.9976
G2 X52.5046 Y11.162 I-0.3898 J-0.7552
G2 X52.6608 Y10.9395 I-0.527 J-0.5361
G2 X52.7329 Y10.6667 I-0.7494 J-0.344
G2 X52.7357 Y10.6019 I-0.7471 J-0.0648
G2 X52.7014 Y10.3778 I-0.7499 J0
G2 X52.6608 Y10.2795 I-0.577 J0.1807
G3 X52.6713 Y10.2764 I0.1263 J0.4079
G3 X52.818 Y10.2589 I0.1291 J0.4585
G3 X52.9601 Y10.2826 I-0.0208 J0.5627
G3 X53.1135 Y10.349 I-0.2105 J0.6966
G3 X53.2486 Y10.4477 I-0.391 J0.677
G3 X53.3575 Y10.5708 I-0.5103 J0.5611
G3 X53.4376 Y10.7202 I-0.5628 J0.398
G3 X53.4727 Y10.8667 I-0.5255 J0.2032
G3 X53.4766 Y10.9435 I-0.7596 J0.0768
G3 X53.4721 Y11.0263 I-0.7635 J0
G3 X53.437 Y11.1915 I-0.8387 J-0.0914
G3 X53.3745 Y11.3406 I-0.8783 J-0.2804
G3 X53.2793 Y11.4905 I-0.9655 J-0.5084
G3 X53.0285 Y11.7377 I-0.9712 J-0.7346
G3 X52.717 Y11.903 I-0.7219 J-0.9839
G3 X52.402 Y11.9789 I-0.512 J-1.4338
G3 X52.0123 Y11.9942 I-0.279 J-2.138
G3 X51.6913 Y11.9584 I0.1391 J-2.705
G3 X51.2761 Y11.8669 I0.7832 J-4.5445
G3 X50.941 Y11.764 I1.2935 J-4.806
G3 X50.688 Y11.6635 I0.9969 J-2.879
G3 X50.3994 Y11.5104 I1.0314 J-2.2928
G3 X50.175 Y11.3474 I0.9672 J-1.5677
G3 X49.9619 Y11.1273 I1.0119 J-1.193
G3 X49.8059 Y10.883 I1.1053 J-0.8778
G3 X49.7035 Y10.5959 I1.1116 J-0.5583
G3 X49.6795 Y10.3789 I0.9713 J-0.2169
G3 X49.6809 Y10.3272 I0.9952 J0
G3 X49.7133 Y10.1187 I1.0311 J0.0537
G3 X49.7917 Y9.9063 I1.1341 J0.2978
G3 X49.8955 Y9.7278 I1.2186 J0.5889
G3 X50.0506 Y9.5309 I1.6006 J1.1018
G3 X50.2042 Y9.3751 I1.7675 J1.588
G3 X50.4115 Y9.1971 I2.4722 J2.6712
G3 X50.5825 Y9.0677 I2.8027 J3.5256
G3 X50.8191 Y8.9037 I4.6835 J6.5048
G3 X52.7139 Y7.7088 I24.4134 J36.6116
G3 X54.8026 Y6.5311 I25.7921 J43.3024
G3 X56.7862 Y5.5256 I25.5407 J47.9278
G3 X58.982 Y4.5191 I27.7829 J57.7112
G3 X59.2553 Y4.4013 I13.9832 J32.0889
G3 X59.434 Y4.3266 I5.8387 J13.716
G3 X59.6827 Y4.2278 I4.603 J11.2154
G3 X59.8892 Y4.1514 I2.9635 J7.7003
G3 X60.3977 Y3.9941 I2.1868 J6.1683
G3 X60.8168 Y3.9051 I1.0982 J4.1392
G3 X61.3151 Y3.8605 I0.5677 J3.5349
G3 X61.7657 Y3.8864 I0.0569 J2.9337
G3 X62.2436 Y3.9984 I-0.345 J2.5489
G3 X62.6415 Y4.1817 I-0.6628 J1.9625
G3 X62.7127 Y4.2258 I-1.2485 J2.0943
G3 X62.8039 Y4.2863 I-2.2151 J3.4413
G3 X62.8583 Y4.3239 I-2.8355 J4.1564
G3 X62.9694 Y4.4024 I-12.0158 J17.1257
G2 X63.1322 Y4.5165 I8.5497 J-12.0186
G2 X63.2156 Y4.5725 I2.0847 J-3.0157
G2 X63.3594 Y4.6605 I1.6272 J-2.4976
G2 X63.4772 Y4.7224 I0.8984 J-1.5658
G2 X63.6266 Y4.7844 I0.6482 J-1.3518
G2 X63.7628 Y4.8229 I0.3699 J-1.0483
G2 X63.9217 Y4.844 I0.2115 J-0.9834
G2 X64.0765 Y4.8392 I0.0484 J-0.9254
G2 X64.2575 Y4.7996 I-0.1063 J-0.92
G2 X64.4607 Y4.7147 I-0.4263 J-1.3062
G2 X64.537 Y4.673 I-0.817 J-1.5851
G2 X64.629 Y4.6173 I-1.4071 J-2.4312
G2 X64.6829 Y4.5826 I-1.8089 J-2.8663
G2 X64.7872 Y4.5133 I-7.3262 J-11.1367
G3 X64.9007 Y4.438 I6.507 J9.692
G3 X64.9555 Y4.4031 I1.5034 J2.2967
G3 X65.2468 Y4.2463 I1.4066 J2.264
G3 X65.5834 Y4.114 I1.3222 J2.8702
G3 X65.8958 Y4.027 I1.1122 J3.3878
G3 X66.2685 Y3.9565 I1.0848 J4.7127
G3 X66.5865 Y3.9181 I0.8478 J5.6953
G3 X66.9889 Y3.89 I0.8333 J9.0186
G3 X67.2564 Y3.8804 I0.534 J11.2103
G3 X67.7202 Y3.8726 I0.7937 J33.4235
G1 Z-0.78 F50
G1 X72.2728 Y3.8275 F30
G3 X71.8394 Y4.0005 I-20.2492 J-50.0721
G3 X70.6254 Y4.467 I-26.9346 J-68.2954
G3 X69.6512 Y4.8248 I-30.6949 J-82.0603
G3 X68.351 Y5.2871 I-52.5172 J-145.6345
G3 X67.9137 Y5.4364 I-9.2234 J-26.3095
G3 X67.6424 Y5.5225 I-3.3588 J-10.1147
G3 X67.2471 Y5.6318 I-2.4813 J-8.1983
G3 X66.9267 Y5.7022 I-1.3443 J-5.3536
G3 X66.5449 Y5.758 I-0.8604 J-4.5577
G3 X66.2156 Y5.7761 I-0.3528 J-3.4008
G3 X65.8493 Y5.7564 I-0.0208 J-3.0276
G3 X65.5185 Y5.6962 I0.2922 J-2.5436
G1 X65.5176 Y5.696
G2 X65.3226 Y5.6491 I-2.5326 J10.0987
G2 X65.2174 Y5.6269 I-0.6495 J2.8188
G2 X65.0352 Y5.5994 I-0.4395 J2.2937
G2 X64.895 Y5.5915 I-0.1426 J1.2868
G2 X64.7194 Y5.607 I-0.0018 J0.9815
G2 X64.5803 Y5.6497 I0.1078 J0.599
G2 X64.4378 Y5.7437 I0.21 J0.4732
G2 X64.3334 Y5.8792 I0.3545 J0.3814
G3 X64.0438 Y6.3343 I-3.1829 J-1.7057
G3 X63.6623 Y6.7774 I-3.3821 J-2.5259
G3 X63.2757 Y7.1277 I-3.4068 J-3.3709
G3 X62.7784 Y7.4945 I-4.2066 J-5.1831
G3 X62.3412 Y7.767 I-4.4904 J-6.7186
G3 X61.7592 Y8.0853 I-6.6818 J-11.5248
G3 X61.5229 Y8.2047 I-7.9091 J-15.356
G3 X61.2245 Y8.3504 I-12.0366 J-24.277
G3 X61.0449 Y8.436 I-14.0559 J-29.2447
G3 X60.6868 Y8.6048 I-54.7916 J-115.813
G2 X60.5895 Y8.6505 I196.8854 J419.5044
G2 X60.541 Y8.6732 I48.8921 J104.1118
G2 X59.123 Y9.3664 I22.157 J47.1245
G2 X57.7251 Y10.103 I23.6251 J46.5299
G2 X56.3502 Y10.8816 I25.0348 J45.8151
G2 X55.2129 Y11.5681 I26.4039 J45.0265
G2 X55.2142 Y11.4902 I-2.3023 J-0.0779
G2 X55.2134 Y11.4288 I-2.3036 J0
G2 X55.1684 Y11.0192 I-2.4886 J0.0663
G2 X55.0618 Y10.634 I-2.5335 J0.4934
G2 X54.8948 Y10.2634 I-2.5145 J0.9103
G2 X54.6735 Y9.9224 I-2.342 J1.2779
G2 X54.408 Y9.6258 I-2.029 J1.5489
G2 X54.0886 Y9.3681 I-1.6941 J1.7728
G2 X53.7438 Y9.1764 I-1.2647 J1.8681
G2 X52.9919 Y8.9839 I-0.9382 J2.1008
G2 X52.1718 Y9.0478 I-0.2107 J2.5934
G2 X51.4123 Y9.3642 I0.6111 J2.5366
G2 X50.8272 Y9.8788 I1.2217 J1.9789
G2 X50.7086 Y10.0897 I0.5596 J0.4535
G2 X50.6645 Y10.3324 I0.7119 J0.2547
G2 X50.6644 Y10.346 I0.86 J0.0136
G2 X50.6907 Y10.5572 I0.8601 J0
G2 X50.7798 Y10.7918 I1.064 J-0.2694
G2 X50.9127 Y10.9954 I1.069 J-0.5528
G2 X51.086 Y11.171 I0.9672 J-0.7814
G2 X51.3003 Y11.3123 I0.7496 J-0.9036
G2 X51.5234 Y11.3943 I0.4478 J-0.8742
G2 X51.786 Y11.4271 I0.2845 J-1.2102
G2 X52.0399 Y11.403 I0.02 J-1.1414
G2 X52.2986 Y11.3111 I-0.2087 J-0.9976
G2 X52.5046 Y11.162 I-0.3898 J-0.7552
G2 X52.6608 Y10.9395 I-0.527 J-0.5361
G2 X52.7329 Y10.6667 I-0.7494 J-0.344
G2 X52.7357 Y10.6019 I-0.7471 J-0.0648
G2 X52.7014 Y10.3778 I-0.7499 J0
G2 X52.6608 Y10.2795 I-0.577 J0.1807
G3 X52.6713 Y10.2764 I0.1263 J0.4079
G3 X52.818 Y10.2589 I0.1291 J0.4585
G3 X52.9601 Y10.2826 I-0.0208 J0.5627
G3 X53.1135 Y10.349 I-0.2105 J0.6966
G3 X53.2486 Y10.4477 I-0.391 J0.677
G3 X53.3575 Y10.5708 I-0.5103 J0.5611
G3 X53.4376 Y10.7202 I-0.5628 J0.398
G3 X53.4727 Y10.8667 I-0.5255 J0.2032
G3 X53.4766 Y10.9435 I-0.7596 J0.0768
G3 X53.4721 Y11.0263 I-0.7635 J0
G3 X53.437 Y11.1915 I-0.8387 J-0.0914
G3 X53.3745 Y11.3406 I-0.8783 J-0.2804
G3 X53.2793 Y11.4905 I-0.9655 J-0.5084
G3 X53.0285 Y11.7377 I-0.9712 J-0.7346
G3 X52.717 Y11.903 I-0.7219 J-0.9839
G3 X52.402 Y11.9789 I-0.512 J-1.4338
G3 X52.0123 Y11.9942 I-0.279 J-2.138
G3 X51.6913 Y11.9584 I0.1391 J-2.705
G3 X51.2761 Y11.8669 I0.7832 J-4.5445
G3 X50.941 Y11.764 I1.2935 J-4.806
G3 X50.688 Y11.6635 I0.9969 J-2.879
G3 X50.3994 Y11.5104 I1.0314 J-2.2928
G3 X50.175 Y11.3474 I0.9672 J-1.5677
G3 X49.9619 Y11.1273 I1.0119 J-1.193
G3 X49.8059 Y10.883 I1.1053 J-0.8778
G3 X49.7035 Y10.5959 I1.1116 J-0.5583
G3 X49.6795 Y10.3789 I0.9713 J-0.2169
G3 X49.6809 Y10.3272 I0.9952 J0
G3 X49.7133 Y10.1187 I1.0311 J0.0537
G3 X49.7917 Y9.9063 I1.1341 J0.2978
G3 X49.8955 Y9.7278 I1.2186 J0.5889
G3 X50.0506 Y9.5309 I1.6006 J1.1018
G3 X50.2042 Y9.3751 I1.7675 J1.588
G3 X50.4115 Y9.1971 I2.4722 J2.6712
G3 X50.5825 Y9.0677 I2.8027 J3.5256
G3 X50.8191 Y8.9037 I4.6835 J6.5048
G3 X52.7139 Y7.7088 I24.4134 J36.6116
G3 X54.8026 Y6.5311 I25.7921 J43.3024
G3 X56.7862 Y5.5256 I25.5407 J47.9278
G3 X58.982 Y4.5191 I27.7829 J57.7112
G3 X59.2553 Y4.4013 I13.9832 J32.0889
G3 X59.434 Y4.3266 I5.8387 J13.716
G3 X59.6827 Y4.2278 I4.603 J11.2154
G3 X59.8892 Y4.1514 I2.9635 J7.7003
G3 X60.3977 Y3.9941 I2.1868 J6.1683
G3 X60.8168 Y3.9051 I1.0982 J4.1392
G3 X61.3151 Y3.8605 I0.5677 J3.5349
G3 X61.7657 Y3.8864 I0.0569 J2.9337
G3 X62.2436 Y3.9984 I-0.345 J2.5489
G3 X62.6415 Y4.1817 I-0.6628 J1.9625
G3 X62.7127 Y4.2258 I-1.2485 J2.0943
G3 X62.8039 Y4.2863 I-2.2151 J3.4413
G3 X62.8583 Y4.3239 I-2.8355 J4.1564
G3 X62.9694 Y4.4024 I-12.0158 J17.1257
G2 X63.1322 Y4.5165 I8.5497 J-12.0186
G2 X63.2156 Y4.5725 I2.0847 J-3.0157
G2 X63.3594 Y4.6605 I1.6272 J-2.4976
G2 X63.4772 Y4.7224 I0.8984 J-1.5658
G2 X63.6266 Y4.7844 I0.6482 J-1.3518
G2 X63.7628 Y4.8229 I0.3699 J-1.0483
G2 X63.9217 Y4.844 I0.2115 J-0.9834
G2 X64.0765 Y4.8392 I0.0484 J-0.9254
G2 X64.2575 Y4.7996 I-0.1063 J-0.92
G2 X64.4607 Y4.7147 I-0.4263 J-1.3062
G2 X64.537 Y4.673 I-0.817 J-1.5851
G2 X64.629 Y4.6173 I-1.4071 J-2.4312
G2 X64.6829 Y4.5826 I-1.8089 J-2.8663
G2 X64.7872 Y4.5133 I-7.3262 J-11.1367
G3 X64.9007 Y4.438 I6.507 J9.692
G3 X64.9555 Y4.4031 I1.5034 J2.2967
G3 X65.2468 Y4.2463 I1.4066 J2.264
G3 X65.5834 Y4.114 I1.3222 J2.8702
G3 X65.8958 Y4.027 I1.1122 J3.3878
G3 X66.2685 Y3.9565 I1.0848 J4.7127
G3 X66.5865 Y3.9181 I0.8478 J5.6953
G3 X66.9889 Y3.89 I0.8333 J9.0186
G3 X67.2564 Y3.8804 I0.534 J11.2103
G3 X67.7202 Y3.8726 I0.7937 J33.4235
G1 Z-0.79 F50
G1 X72.2728 Y3.8275 F30
G3 X71.8394 Y4.0005 I-20.2492 J-50.0721
G3 X70.6254 Y4.467 I-26.9346 J-68.2954
G3 X69.6512 Y4.8248 I-30.6949 J-82.0603
G3 X68.351 Y5.2871 I-52.5172 J-145.6345
G3 X67.9137 Y5.4364 I-9.2234 J-26.3095
G3 X67.6424 Y5.5225 I-3.3588 J-10.1147
G3 X67.2471 Y5.6318 I-2.4813 J-8.1983
G3 X66.9267 Y5.7022 I-1.3443 J-5.3536
G3 X66.5449 Y5.758 I-0.8604 J-4.5577
G3 X66.2156 Y5.7761 I-0.3528 J-3.4008
G3 X65.8493 Y5.7564 I-0.0208 J-3.0276
G3 X65.5185 Y5.6962 I0.2922 J-2.5436
G1 X65.5176 Y5.696
G2 X65.3226 Y5.6491 I-2.5326 J10.0987
G2 X65.2174 Y5.6269 I-0.6495 J2.8188
G2 X65.0352 Y5.5994 I-0.4395 J2.2937
G2 X64.895 Y5.5915 I-0.1426 J1.2868
G2 X64.7194 Y5.607 I-0.0018 J0.9815
G2 X64.5803 Y5.6497 I0.1078 J0.599
G2 X64.4378 Y5.7437 I0.21 J0.4732
G2 X64.3334 Y5.8792 I0.3545 J0.3814
G3 X64.0438 Y6.3343 I-3.1829 J-1.7057
G3 X63.6623 Y6.7774 I-3.3821 J-2.5259
G3 X63.2757 Y7.1277 I-3.4068 J-3.3709
G3 X62.7784 Y7.4945 I-4.2066 J-5.1831
G3 X62.3412 Y7.767 I-4.4904 J-6.7186
G3 X61.7592 Y8.0853 I-6.6818 J-11.5248
G3 X61.5229 Y8.2047 I-7.9091 J-15.356
G3 X61.2245 Y8.3504 I-12.0366 J-24.277
G3 X61.0449 Y8.436 I-14.0559 J-29.2447
G3 X60.6868 Y8.6048 I-54.7916 J-115.813
G2 X60.5895 Y8.6505 I196.8854 J419.5044
G2 X60.541 Y8.6732 I48.8921 J104.1118
G2 X59.123 Y9.3664 I22.157 J47.1245
G2 X57.7251 Y10.103 I23.6251 J46.5299
G2 X56.3502 Y10.8816 I25.0348 J45.8151
G2 X55.2129 Y11.5681 I26.4039 J45.0265
G2 X55.2142 Y11.4902 I-2.3023 J-0.0779
G2 X55.2134 Y11.4288 I-2.3036 J0
G2 X55.1684 Y11.0192 I-2.4886 J0.0663
G2 X55.0618 Y10.634 I-2.5335 J0.4934
G2 X54.8948 Y10.2634 I-2.5145 J0.9103
G2 X54.6735 Y9.9224 I-2.342 J1.2779
G2 X54.408 Y9.6258 I-2.029 J1.5489
G2 X54.0886 Y9.3681 I-1.6941 J1.7728
G2 X53.7438 Y9.1764 I-1.2647 J1.8681
G2 X52.9919 Y8.9839 I-0.9382 J2.1008
G2 X52.1718 Y9.0478 I-0.2107 J2.5934
G2 X51.4123 Y9.3642 I0.6111 J2.5366
G2 X50.8272 Y9.8788 I1.2217 J1.9789
G2 X50.7086 Y10.0897 I0.5596 J0.4535
G2 X50.6645 Y10.3324 I0.7119 J0.2547
G2 X50.6644 Y10.346 I0.86 J0.0136
G2 X50.6907 Y10.5572 I0.8601 J0
G2 X50.7798 Y10.7918 I1.064 J-0.2694
G2 X50.9127 Y10.9954 I1.069 J-0.5528
G2 X51.086 Y11.171 I0.9672 J-0.7814
G2 X51.3003 Y11.3123 I0.7496 J-0.9036
G2 X51.5234 Y11.3943 I0.4478 J-0.8742
G2 X51.786 Y11.4271 I0.2845 J-1.2102
G2 X52.0399 Y11.403 I0.02 J-1.1414
G2 X52.2986 Y11.3111 I-0.2087 J-0.9976
G2 X52.5046 Y11.162 I-0.3898 J-0.7552
G2 X52.6608 Y10.9395 I-0.527 J-0.5361
G2 X52.7329 Y10.6667 I-0.7494 J-0.344
G2 X52.7357 Y10.6019 I-0.7471 J-0.0648
G2 X52.7014 Y10.3778 I-0.7499 J0
G2 X52.6608 Y10.2795 I-0.577 J0.1807
G3 X52.6713 Y10.2764 I0.1263 J0.4079
G3 X52.818 Y10.2589 I0.1291 J0.4585
G3 X52.9601 Y10.2826 I-0.0208 J0.5627
G3 X53.1135 Y10.349 I-0.2105 J0.6966
G3 X53.2486 Y10.4477 I-0.391 J0.677
G3 X53.3575 Y10.5708 I-0.5103 J0.5611
G3 X53.4376 Y10.7202 I-0.5628 J0.398
G3 X53.4727 Y10.8667 I-0.5255 J0.2032
G3 X53.4766 Y10.9435 I-0.7596 J0.0768
G3 X53.4721 Y11.0263 I-0.7635 J0
G3 X53.437 Y11.1915 I-0.8387 J-0.0914
G3 X53.3745 Y11.3406 I-0.8783 J-0.2804
G3 X53.2793 Y11.4905 I-0.9655 J-0.5084
G3 X53.0285 Y11.7377 I-0.9712 J-0.7346
G3 X52.717 Y11.903 I-0.7219 J-0.9839
G3 X52.402 Y11.9789 I-0.512 J-1.4338
G3 X52.0123 Y11.9942 I-0.279 J-2.138
G3 X51.6913 Y11.9584 I0.1391 J-2.705
G3 X51.2761 Y11.8669 I0.7832 J-4.5445
G3 X50.941 Y11.764 I1.2935 J-4.806
G3 X50.688 Y11.6635 I0.9969 J-2.879
G3 X50.3994 Y11.5104 I1.0314 J-2.2928
G3 X50.175 Y11.3474 I0.9672 J-1.5677
G3 X49.9619 Y11.1273 I1.0119 J-1.193
G3 X49.8059 Y10.883 I1.1053 J-0.8778
G3 X49.7035 Y10.5959 I1.1116 J-0.5583
G3 X49.6795 Y10.3789 I0.9713 J-0.2169
G3 X49.6809 Y10.3272 I0.9952 J0
G3 X49.7133 Y10.1187 I1.0311 J0.0537
G3 X49.7917 Y9.9063 I1.1341 J0.2978
G3 X49.8955 Y9.7278 I1.2186 J0.5889
G3 X50.0506 Y9.5309 I1.6006 J1.1018
G3 X50.2042 Y9.3751 I1.7675 J1.588
G3 X50.4115 Y9.1971 I2.4722 J2.6712
G3 X50.5825 Y9.0677 I2.8027 J3.5256
G3 X50.8191 Y8.9037 I4.6835 J6.5048
G3 X52.7139 Y7.7088 I24.4134 J36.6116
G3 X54.8026 Y6.5311 I25.7921 J43.3024
G3 X56.7862 Y5.5256 I25.5407 J47.9278
G3 X58.982 Y4.5191 I27.7829 J57.7112
G3 X59.2553 Y4.4013 I13.9832 J32.0889
G3 X59.434 Y4.3266 I5.8387 J13.716
G3 X59.6827 Y4.2278 I4.603 J11.2154
G3 X59.8892 Y4.1514 I2.9635 J7.7003
G3 X60.3977 Y3.9941 I2.1868 J6.1683
G3 X60.8168 Y3.9051 I1.0982 J4.1392
G3 X61.3151 Y3.8605 I0.5677 J3.5349
G3 X61.7657 Y3.8864 I0.0569 J2.9337
G3 X62.2436 Y3.9984 I-0.345 J2.5489
G3 X62.6415 Y4.1817 I-0.6628 J1.9625
G3 X62.7127 Y4.2258 I-1.2485 J2.0943
G3 X62.8039 Y4.2863 I-2.2151 J3.4413
G3 X62.8583 Y4.3239 I-2.8355 J4.1564
G3 X62.9694 Y4.4024 I-12.0158 J17.1257
G2 X63.1322 Y4.5165 I8.5497 J-12.0186
G2 X63.2156 Y4.5725 I2.0847 J-3.0157
G2 X63.3594 Y4.6605 I1.6272 J-2.4976
G2 X63.4772 Y4.7224 I0.8984 J-1.5658
G2 X63.6266 Y4.7844 I0.6482 J-1.3518
G2 X63.7628 Y4.8229 I0.3699 J-1.0483
G2 X63.9217 Y4.844 I0.2115 J-0.9834
G2 X64.0765 Y4.8392 I0.0484 J-0.9254
G2 X64.2575 Y4.7996 I-0.1063 J-0.92
G2 X64.4607 Y4.7147 I-0.4263 J-1.3062
G2 X64.537 Y4.673 I-0.817 J-1.5851
G2 X64.629 Y4.6173 I-1.4071 J-2.4312
G2 X64.6829 Y4.5826 I-1.8089 J-2.8663
G2 X64.7872 Y4.5133 I-7.3262 J-11.1367
G3 X64.9007 Y4.438 I6.507 J9.692
G3 X64.9555 Y4.4031 I1.5034 J2.2967
G3 X65.2468 Y4.2463 I1.4066 J2.264
G3 X65.5834 Y4.114 I1.3222 J2.8702
G3 X65.8958 Y4.027 I1.1122 J3.3878
G3 X66.2685 Y3.9565 I1.0848 J4.7127
G3 X66.5865 Y3.9181 I0.8478 J5.6953
G3 X66.9889 Y3.89 I0.8333 J9.0186
G3 X67.2564 Y3.8804 I0.534 J11.2103
G3 X67.7202 Y3.8726 I0.7937 J33.4235

(profile 14-3)
G0 Z0.1
G0 X52.9071 Y5.4917
G1 Z-0.13 F50
G3 X50.0801 Y7.2448 I-103.2919 J-163.4027 F30
G3 X47.2234 Y8.9491 I-100.4367 J-165.1094
G3 X44.3392 Y10.6031 I-97.488 J-166.6563
G3 X43.5928 Y11.0181 I-45.429 J-80.8231
G3 X43.1092 Y11.2796 I-18.5616 J-33.7471
G3 X42.4268 Y11.6317 I-14.6958 J-27.646
G3 X41.8579 Y11.9059 I-9.4955 J-18.9716
G3 X41.1812 Y12.2033 I-7.7136 J-16.6304
G3 X40.5754 Y12.4391 I-5.4543 J-13.1207
G3 X39.8897 Y12.6663 I-4.3679 J-12.0327
G3 X39.2514 Y12.8368 I-3.0864 J-10.2762
G3 X38.5586 Y12.9714 I-2.109 J-8.9996
G3 X37.8796 Y13.0495 I-1.3293 J-8.5739
G3 X37.1677 Y13.0723 I-0.6203 J-8.2527
G3 X36.496 Y13.0342 I0.0818 J-7.3972
G3 X35.7991 Y12.9269 I0.7069 J-6.9041
G3 X35.1593 Y12.7582 I1.2389 J-5.9978
G3 X34.5112 Y12.5053 I1.7716 J-5.4968
G3 X33.926 Y12.1892 I2.2163 J-4.8033
G3 X33.3812 Y11.7897 I2.3962 J-3.838
G3 X32.8832 Y11.2972 I3.1546 J-3.6882
G3 X32.4629 Y10.7415 I3.6882 J-3.2269
G3 X32.1328 Y10.143 I3.9573 J-2.5729
G3 X31.8905 Y9.4873 I4.0927 J-1.8847
G3 X31.7638 Y8.8421 I3.8496 J-1.0914
G3 X31.7404 Y8.425 I3.7172 J-0.4171
G3 X31.7502 Y8.1546 I3.7406 J0
G3 X31.8603 Y7.508 I3.4039 J0.2467
G3 X32.0586 Y6.9579 I3.4789 J0.9435
G3 X32.3572 Y6.4169 I3.6515 J1.6624
G3 X32.7185 Y5.9436 I3.5267 J2.3177
G3 X33.1544 Y5.5128 I3.3499 J2.9536
G3 X33.5983 Y5.1775 I2.8398 J3.2984
G3 X34.0512 Y4.9213 I2.1042 J3.1912
G3 X34.5666 Y4.7227 I1.5137 J3.16
G3 X35.0645 Y4.6199 I0.8507 J2.8621
G3 X35.4379 Y4.6023 I0.3099 J2.6043
G3 X35.7747 Y4.6368 I-0.0526 J2.1712
G3 X36.127 Y4.7367 I-0.3424 J1.8787
G3 X36.417 Y4.8871 I-0.561 J1.4364
G3 X36.6779 Y5.1123 I-0.7474 J1.1295
G3 X36.8734 Y5.396 I-1.0077 J0.9037
G3 X36.9883 Y5.7304 I-1.0873 J0.5603
G3 X37.0053 Y5.9131 I-0.9722 J0.1827
G3 X36.9967 Y6.043 I-0.9892 J0
G3 X36.9218 Y6.2791 I-0.8691 J-0.1457
G3 X36.7956 Y6.4624 I-0.6493 J-0.3121
G3 X36.6325 Y6.5926 I-0.5485 J-0.5196
G3 X36.413 Y6.6882 I-0.4914 J-0.8284
G3 X36.182 Y6.7306 I-0.3179 J-1.0804
G3 X35.9166 Y6.7261 I-0.1088 J-1.4052
G3 X35.654 Y6.6727 I0.1672 J-1.4953
G3 X35.4023 Y6.5728 I0.4383 J-1.4704
G2 X35.3802 Y6.5641 I-0.0562 J0.1116
G2 X35.183 Y6.5282 I-0.2843 J1.0023
G2 X34.9717 Y6.5296 I-0.0982 J1.1713
G2 X34.7672 Y6.5675 I0.1153 J1.1929
G2 X34.5783 Y6.6386 I0.2989 J1.08
G2 X34.3992 Y6.7491 I0.4481 J0.9266
G2 X34.2602 Y6.8839 I0.5149 J0.67
G2 X34.1508 Y7.063 I0.5934 J0.4857
G2 X34.096 Y7.2611 I0.6664 J0.2907
G2 X34.0899 Y7.357 I0.7473 J0.0959
G2 X34.107 Y7.5167 I0.7534 J0
G2 X34.206 Y7.7752 I0.8928 J-0.1936
G2 X34.362 Y7.9827 I0.8903 J-0.507
G2 X34.568 Y8.1475 I0.7624 J-0.7418
G2 X34.7773 Y8.2503 I0.6502 J-1.0595
G2 X35.031 Y8.3237 I0.5805 J-1.5306
G2 X35.245 Y8.3552 I0.3922 J-1.9247
G2 X35.5113 Y8.3678 I0.2773 J-3.0443
G2 X35.9318 Y8.3439 I0.0128 J-3.489
G2 X36.3513 Y8.269 I-0.4178 J-3.5508
G2 X36.7621 Y8.1432 I-0.8301 J-3.4459
G2 X37.1444 Y7.9725 I-1.1761 J-3.1468
G2 X37.5125 Y7.747 I-1.4916 J-2.8484
G2 X37.8307 Y7.4858 I-1.6844 J-2.3758
G2 X38.1198 Y7.1656 I-1.9015 J-2.0078
G2 X38.3465 Y6.8159 I-2.0357 J-1.5682
G2 X38.5108 Y6.4266 I-1.9644 J-1.0581
G2 X38.6053 Y5.9931 I-2.3614 J-0.7419
G2 X38.6252 Y5.6743 I-2.5387 J-0.3187
G2 X38.6227 Y5.5606 I-2.5586 J0
G2 X38.567 Y5.1325 I-2.5409 J0.1131
G2 X38.4354 Y4.7135 I-2.3882 J0.52
G2 X38.2402 Y4.3479 I-1.9958 J0.8305
G2 X37.96 Y4.0124 I-1.668 J1.108
G2 X37.9166 Y3.972 I-1.2591 J1.3096
G2 X38.0652 Y3.9621 I-1.8566 J-29.0322
G2 X38.2263 Y3.9506 I-2.3244 J-33.6425
G2 X38.542 Y3.9269 I-9.5789 J-129.6128
G3 X38.9058 Y3.8997 I8.567 J112.2017
G3 X39.0914 Y3.8867 I2.1402 J29.2808
G3 X39.4007 Y3.868 I1.7029 J25.5205
G3 X39.6648 Y3.8554 I1.0163 J18.6261
G3 X40.3249 Y3.8418 I0.6788 J16.8186
G3 X40.9911 Y3.854 I0.019 J17.1445
G2 X41.2439 Y3.8617 I0.6461 J-17.1025
G2 X41.5608 Y3.8671 I0.6197 J-26.9576
G2 X41.7509 Y3.8687 I0.3644 J-32.4588
G2 X42.1308 Y3.8701 I0.6984 J-130.0268
G3 X42.7471 Y3.874 I-0.1953 J79.7207
G3 X43.0525 Y3.8795 I-0.2002 J19.663
G3 X43.5602 Y3.9005 I-0.4171 J16.218
G3 X43.9594 Y3.9313 I-0.5767 J10.1002
G3 X44.4347 Y3.9908 I-0.8253 J8.5156
G3 X44.842 Y4.0669 I-0.9776 J6.3558
G3 X45.2902 Y4.1849 I-1.2411 J5.628
G3 X45.6916 Y4.3274 I-1.4319 J4.6703
G3 X45.7887 Y4.3677 I-2.1533 J5.3179
G3 X45.9862 Y4.453 I-9.2851 J21.7756
G2 X46.1614 Y4.5289 I10.949 J-25.0447
G2 X46.2504 Y4.5663 I2.7139 J-6.3279
G2 X46.4004 Y4.6257 I2.1801 J-5.2864
G2 X46.5224 Y4.6695 I1.2918 J-3.4018
G2 X46.8364 Y4.7563 I0.9062 J-2.669
G2 X47.101 Y4.7934 I0.389 J-1.8103
G2 X47.4246 Y4.7868 I0.124 J-1.8428
G2 X47.8136 Y4.7167 I-0.3053 J-2.8098
G2 X47.9653 Y4.6748 I-0.9042 J-3.5677
G2 X48.1527 Y4.6152 I-1.6701 J-5.5767
G2 X48.2638 Y4.5768 I-2.2403 J-6.6542
G2 X48.4823 Y4.4981 I-9.3177 J-26.2163
G3 X48.6318 Y4.4439 I13.5781 J37.2157
G3 X48.7054 Y4.4177 I3.2762 J9.0929
G3 X49.5109 Y4.1755 I3.0519 J8.69
G3 X50.4123 Y3.9885 I2.6854 J10.6775
G3 X51.2276 Y3.8824 I1.9988 J12.1725
G3 X52.1748 Y3.8187 I1.5743 J16.3326
G3 X52.9706 Y3.8046 I0.739 J19.3243
G3 X53.9676 Y3.824 I-0.089 J30.2827
G3 X54.3712 Y3.8406 I-1.3785 J38.4168
G3 X54.8672 Y3.8657 I-2.6921 J58.0101
G3 X55.1969 Y3.8846 I-3.902 J70.9684
G3 X55.389 Y3.8962 I-12.5301 J210.0815
G3 X52.9071 Y5.4917 I-105.7924 J-161.8366
G1 Z-0.26 F50
G3 X50.0801 Y7.2448 I-103.2919 J-163.4027 F30
G3 X47.2234 Y8.9491 I-100.4367 J-165.1094
G3 X44.3392 Y10.6031 I-97.488 J-166.6563
G3 X43.5928 Y11.0181 I-45.429 J-80.8231
G3 X43.1092 Y11.2796 I-18.5616 J-33.7471
G3 X42.4268 Y11.6317 I-14.6958 J-27.646
G3 X41.8579 Y11.9059 I-9.4955 J-18.9716
G3 X41.1812 Y12.2033 I-7.7136 J-16.6304
G3 X40.5754 Y12.4391 I-5.4543 J-13.1207
G3 X39.8897 Y12.6663 I-4.3679 J-12.0327
G3 X39.2514 Y12.8368 I-3.0864 J-10.2762
G3 X38.5586 Y12.9714 I-2.109 J-8.9996
G3 X37.8796 Y13.0495 I-1.3293 J-8.5739
G3 X37.1677 Y13.0723 I-0.6203 J-8.2527
G3 X36.496 Y13.0342 I0.0818 J-7.3972
G3 X35.7991 Y12.9269 I0.7069 J-6.9041
G3 X35.1593 Y12.7582 I1.2389 J-5.9978
G3 X34.5112 Y12.5053 I1.7716 J-5.4968
G3 X33.926 Y12.1892 I2.2163 J-4.8033
G3 X33.3812 Y11.7897 I2.3962 J-3.838
G3 X32.8832 Y11.2972 I3.1546 J-3.6882
G3 X32.4629 Y10.7415 I3.6882 J-3.2269
G3 X32.1328 Y10.143 I3.9573 J-2.5729
G3 X31.8905 Y9.4873 I4.0927 J-1.8847
G3 X31.7638 Y8.8421 I3.8496 J-1.0914
G3 X31.7404 Y8.425 I3.7172 J-0.4171
G3 X31.7502 Y8.1546 I3.7406 J0
G3 X31.8603 Y7.508 I3.4039 J0.2467
G3 X32.0586 Y6.9579 I3.4789 J0.9435
G3 X32.3572 Y6.4169 I3.6515 J1.6624
G3 X32.7185 Y5.9436 I3.5267 J2.3177
G3 X33.1544 Y5.5128 I3.3499 J2.9536
G3 X33.5983 Y5.1775 I2.8398 J3.2984
G3 X34.0512 Y4.9213 I2.1042 J3.1912
G3 X34.5666 Y4.7227 I1.5137 J3.16
G3 X35.0645 Y4.6199 I0.8507 J2.8621
G3 X35.4379 Y4.6023 I0.3099 J2.6043
G3 X35.7747 Y4.6368 I-0.0526 J2.1712
G3 X36.127 Y4.7367 I-0.3424 J1.8787
G3 X36.417 Y4.8871 I-0.561 J1.4364
G3 X36.6779 Y5.1123 I-0.7474 J1.1295
G3 X36.8734 Y5.396 I-1.0077 J0.9037
G3 X36.9883 Y5.7304 I-1.0873 J0.5603
G3 X37.0053 Y5.9131 I-0.9722 J0.1827
G3 X36.9967 Y6.043 I-0.9892 J0
G3 X36.9218 Y6.2791 I-0.8691 J-0.1457
G3 X36.7956 Y6.4624 I-0.6493 J-0.3121
G3 X36.6325 Y6.5926 I-0.5485 J-0.5196
G3 X36.413 Y6.6882 I-0.4914 J-0.8284
G3 X36.182 Y6.7306 I-0.3179 J-1.0804
G3 X35.9166 Y6.7261 I-0.1088 J-1.4052
G3 X35.654 Y6.6727 I0.1672 J-1.4953
G3 X35.4023 Y6.5728 I0.4383 J-1.4704
G2 X35.3802 Y6.5641 I-0.0562 J0.1116
G2 X35.183 Y6.5282 I-0.2843 J1.0023
G2 X34.9717 Y6.5296 I-0.0982 J1.1713
G2 X34.7672 Y6.5675 I0.1153 J1.1929
G2 X34.5783 Y6.6386 I0.2989 J1.08
G2 X34.3992 Y6.7491 I0.4481 J0.9266
G2 X34.2602 Y6.8839 I0.5149 J0.67
G2 X34.1508 Y7.063 I0.5934 J0.4857
G2 X34.096 Y7.2611 I0.6664 J0.2907
G2 X34.0899 Y7.357 I0.7473 J0.0959
G2 X34.107 Y7.5167 I0.7534 J0
G2 X34.206 Y7.7752 I0.8928 J-0.1936
G2 X34.362 Y7.9827 I0.8903 J-0.507
G2 X34.568 Y8.1475 I0.7624 J-0.7418
G2 X34.7773 Y8.2503 I0.6502 J-1.0595
G2 X35.031 Y8.3237 I0.5805 J-1.5306
G2 X35.245 Y8.3552 I0.3922 J-1.9247
G2 X35.5113 Y8.3678 I0.2773 J-3.0443
G2 X35.9318 Y8.3439 I0.0128 J-3.489
G2 X36.3513 Y8.269 I-0.4178 J-3.5508
G2 X36.7621 Y8.1432 I-0.8301 J-3.4459
G2 X37.1444 Y7.9725 I-1.1761 J-3.1468
G2 X37.5125 Y7.747 I-1.4916 J-2.8484
G2 X37.8307 Y7.4858 I-1.6844 J-2.3758
G2 X38.1198 Y7.1656 I-1.9015 J-2.0078
G2 X38.3465 Y6.8159 I-2.0357 J-1.5682
G2 X38.5108 Y6.4266 I-1.9644 J-1.0581
G2 X38.6053 Y5.9931 I-2.3614 J-0.7419
G2 X38.6252 Y5.6743 I-2.5387 J-0.3187
G2 X38.6227 Y5.5606 I-2.5586 J0
G2 X38.567 Y5.1325 I-2.5409 J0.1131
G2 X38.4354 Y4.7135 I-2.3882 J0.52
G2 X38.2402 Y4.3479 I-1.9958 J0.8305
G2 X37.96 Y4.0124 I-1.668 J1.108
G2 X37.9166 Y3.972 I-1.2591 J1.3096
G2 X38.0652 Y3.9621 I-1.8566 J-29.0322
G2 X38.2263 Y3.9506 I-2.3244 J-33.6425
G2 X38.542 Y3.9269 I-9.5789 J-129.6128
G3 X38.9058 Y3.8997 I8.567 J112.2017
G3 X39.0914 Y3.8867 I2.1402 J29.2808
G3 X39.4007 Y3.868 I1.7029 J25.5205
G3 X39.6648 Y3.8554 I1.0163 J18.6261
G3 X40.3249 Y3.8418 I0.6788 J16.8186
G3 X40.9911 Y3.854 I0.019 J17.1445
G2 X41.2439 Y3.8617 I0.6461 J-17.1025
G2 X41.5608 Y3.8671 I0.6197 J-26.9576
G2 X41.7509 Y3.8687 I0.3644 J-32.4588
G2 X42.1308 Y3.8701 I0.6984 J-130.0268
G3 X42.7471 Y3.874 I-0.1953 J79.7207
G3 X43.0525 Y3.8795 I-0.2002 J19.663
G3 X43.5602 Y3.9005 I-0.4171 J16.218
G3 X43.9594 Y3.9313 I-0.5767 J10.1002
G3 X44.4347 Y3.9908 I-0.8253 J8.5156
G3 X44.842 Y4.0669 I-0.9776 J6.3558
G3 X45.2902 Y4.1849 I-1.2411 J5.628
G3 X45.6916 Y4.3274 I-1.4319 J4.6703
G3 X45.7887 Y4.3677 I-2.1533 J5.3179
G3 X45.9862 Y4.453 I-9.2851 J21.7756
G2 X46.1614 Y4.5289 I10.949 J-25.0447
G2 X46.2504 Y4.5663 I2.7139 J-6.3279
G2 X46.4004 Y4.6257 I2.1801 J-5.2864
G2 X46.5224 Y4.6695 I1.2918 J-3.4018
G2 X46.8364 Y4.7563 I0.9062 J-2.669
G2 X47.101 Y4.7934 I0.389 J-1.8103
G2 X47.4246 Y4.7868 I0.124 J-1.8428
G2 X47.8136 Y4.7167 I-0.3053 J-2.8098
G2 X47.9653 Y4.6748 I-0.9042 J-3.5677
G2 X48.1527 Y4.6152 I-1.6701 J-5.5767
G2 X48.2638 Y4.5768 I-2.2403 J-6.6542
G2 X48.4823 Y4.4981 I-9.3177 J-26.2163
G3 X48.6318 Y4.4439 I13.5781 J37.2157
G3 X48.7054 Y4.4177 I3.2762 J9.0929
G3 X49.5109 Y4.1755 I3.0519 J8.69
G3 X50.4123 Y3.9885 I2.6854 J10.6775
G3 X51.2276 Y3.8824 I1.9988 J12.1725
G3 X52.1748 Y3.8187 I1.5743 J16.3326
G3 X52.9706 Y3.8046 I0.739 J19.3243
G3 X53.9676 Y3.824 I-0.089 J30.2827
G3 X54.3712 Y3.8406 I-1.3785 J38.4168
G3 X54.8672 Y3.8657 I-2.6921 J58.0101
G3 X55.1969 Y3.8846 I-3.902 J70.9684
G3 X55.389 Y3.8962 I-12.5301 J210.0815
G3 X52.9071 Y5.4917 I-105.7924 J-161.8366
G1 Z-0.39 F50
G3 X50.0801 Y7.2448 I-103.2919 J-163.4027 F30
G3 X47.2234 Y8.9491 I-100.4367 J-165.1094
G3 X44.3392 Y10.6031 I-97.488 J-166.6563
G3 X43.5928 Y11.0181 I-45.429 J-80.8231
G3 X43.1092 Y11.2796 I-18.5616 J-33.7471
G3 X42.4268 Y11.6317 I-14.6958 J-27.646
G3 X41.8579 Y11.9059 I-9.4955 J-18.9716
G3 X41.1812 Y12.2033 I-7.7136 J-16.6304
G3 X40.5754 Y12.4391 I-5.4543 J-13.1207
G3 X39.8897 Y12.6663 I-4.3679 J-12.0327
G3 X39.2514 Y12.8368 I-3.0864 J-10.2762
G3 X38.5586 Y12.9714 I-2.109 J-8.9996
G3 X37.8796 Y13.0495 I-1.3293 J-8.5739
G3 X37.1677 Y13.0723 I-0.6203 J-8.2527
G3 X36.496 Y13.0342 I0.0818 J-7.3972
G3 X35.7991 Y12.9269 I0.7069 J-6.9041
G3 X35.1593 Y12.7582 I1.2389 J-5.9978
G3 X34.5112 Y12.5053 I1.7716 J-5.4968
G3 X33.926 Y12.1892 I2.2163 J-4.8033
G3 X33.3812 Y11.7897 I2.3962 J-3.838
G3 X32.8832 Y11.2972 I3.1546 J-3.6882
G3 X32.4629 Y10.7415 I3.6882 J-3.2269
G3 X32.1328 Y10.143 I3.9573 J-2.5729
G3 X31.8905 Y9.4873 I4.0927 J-1.8847
G3 X31.7638 Y8.8421 I3.8496 J-1.0914
G3 X31.7404 Y8.425 I3.7172 J-0.4171
G3 X31.7502 Y8.1546 I3.7406 J0
G3 X31.8603 Y7.508 I3.4039 J0.2467
G3 X32.0586 Y6.9579 I3.4789 J0.9435
G3 X32.3572 Y6.4169 I3.6515 J1.6624
G3 X32.7185 Y5.9436 I3.5267 J2.3177
G3 X33.1544 Y5.5128 I3.3499 J2.9536
G3 X33.5983 Y5.1775 I2.8398 J3.2984
G3 X34.0512 Y4.9213 I2.1042 J3.1912
G3 X34.5666 Y4.7227 I1.5137 J3.16
G3 X35.0645 Y4.6199 I0.8507 J2.8621
G3 X35.4379 Y4.6023 I0.3099 J2.6043
G3 X35.7747 Y4.6368 I-0.0526 J2.1712
G3 X36.127 Y4.7367 I-0.3424 J1.8787
G3 X36.417 Y4.8871 I-0.561 J1.4364
G3 X36.6779 Y5.1123 I-0.7474 J1.1295
G3 X36.8734 Y5.396 I-1.0077 J0.9037
G3 X36.9883 Y5.7304 I-1.0873 J0.5603
G3 X37.0053 Y5.9131 I-0.9722 J0.1827
G3 X36.9967 Y6.043 I-0.9892 J0
G3 X36.9218 Y6.2791 I-0.8691 J-0.1457
G3 X36.7956 Y6.4624 I-0.6493 J-0.3121
G3 X36.6325 Y6.5926 I-0.5485 J-0.5196
G3 X36.413 Y6.6882 I-0.4914 J-0.8284
G3 X36.182 Y6.7306 I-0.3179 J-1.0804
G3 X35.9166 Y6.7261 I-0.1088 J-1.4052
G3 X35.654 Y6.6727 I0.1672 J-1.4953
G3 X35.4023 Y6.5728 I0.4383 J-1.4704
G2 X35.3802 Y6.5641 I-0.0562 J0.1116
G2 X35.183 Y6.5282 I-0.2843 J1.0023
G2 X34.9717 Y6.5296 I-0.0982 J1.1713
G2 X34.7672 Y6.5675 I0.1153 J1.1929
G2 X34.5783 Y6.6386 I0.2989 J1.08
G2 X34.3992 Y6.7491 I0.4481 J0.9266
G2 X34.2602 Y6.8839 I0.5149 J0.67
G2 X34.1508 Y7.063 I0.5934 J0.4857
G2 X34.096 Y7.2611 I0.6664 J0.2907
G2 X34.0899 Y7.357 I0.7473 J0.0959
G2 X34.107 Y7.5167 I0.7534 J0
G2 X34.206 Y7.7752 I0.8928 J-0.1936
G2 X34.362 Y7.9827 I0.8903 J-0.507
G2 X34.568 Y8.1475 I0.7624 J-0.7418
G2 X34.7773 Y8.2503 I0.6502 J-1.0595
G2 X35.031 Y8.3237 I0.5805 J-1.5306
G2 X35.245 Y8.3552 I0.3922 J-1.9247
G2 X35.5113 Y8.3678 I0.2773 J-3.0443
G2 X35.9318 Y8.3439 I0.0128 J-3.489
G2 X36.3513 Y8.269 I-0.4178 J-3.5508
G2 X36.7621 Y8.1432 I-0.8301 J-3.4459
G2 X37.1444 Y7.9725 I-1.1761 J-3.1468
G2 X37.5125 Y7.747 I-1.4916 J-2.8484
G2 X37.8307 Y7.4858 I-1.6844 J-2.3758
G2 X38.1198 Y7.1656 I-1.9015 J-2.0078
G2 X38.3465 Y6.8159 I-2.0357 J-1.5682
G2 X38.5108 Y6.4266 I-1.9644 J-1.0581
G2 X38.6053 Y5.9931 I-2.3614 J-0.7419
G2 X38.6252 Y5.6743 I-2.5387 J-0.3187
G2 X38.6227 Y5.5606 I-2.5586 J0
G2 X38.567 Y5.1325 I-2.5409 J0.1131
G2 X38.4354 Y4.7135 I-2.3882 J0.52
G2 X38.2402 Y4.3479 I-1.9958 J0.8305
G2 X37.96 Y4.0124 I-1.668 J1.108
G2 X37.9166 Y3.972 I-1.2591 J1.3096
G2 X38.0652 Y3.9621 I-1.8566 J-29.0322
G2 X38.2263 Y3.9506 I-2.3244 J-33.6425
G2 X38.542 Y3.9269 I-9.5789 J-129.6128
G3 X38.9058 Y3.8997 I8.567 J112.2017
G3 X39.0914 Y3.8867 I2.1402 J29.2808
G3 X39.4007 Y3.868 I1.7029 J25.5205
G3 X39.6648 Y3.8554 I1.0163 J18.6261
G3 X40.3249 Y3.8418 I0.6788 J16.8186
G3 X40.9911 Y3.854 I0.019 J17.1445
G2 X41.2439 Y3.8617 I0.6461 J-17.1025
G2 X41.5608 Y3.8671 I0.6197 J-26.9576
G2 X41.7509 Y3.8687 I0.3644 J-32.4588
G2 X42.1308 Y3.8701 I0.6984 J-130.0268
G3 X42.7471 Y3.874 I-0.1953 J79.7207
G3 X43.0525 Y3.8795 I-0.2002 J19.663
G3 X43.5602 Y3.9005 I-0.4171 J16.218
G3 X43.9594 Y3.9313 I-0.5767 J10.1002
G3 X44.4347 Y3.9908 I-0.8253 J8.5156
G3 X44.842 Y4.0669 I-0.9776 J6.3558
G3 X45.2902 Y4.1849 I-1.2411 J5.628
G3 X45.6916 Y4.3274 I-1.4319 J4.6703
G3 X45.7887 Y4.3677 I-2.1533 J5.3179
G3 X45.9862 Y4.453 I-9.2851 J21.7756
G2 X46.1614 Y4.5289 I10.949 J-25.0447
G2 X46.2504 Y4.5663 I2.7139 J-6.3279
G2 X46.4004 Y4.6257 I2.1801 J-5.2864
G2 X46.5224 Y4.6695 I1.2918 J-3.4018
G2 X46.8364 Y4.7563 I0.9062 J-2.669
G2 X47.101 Y4.7934 I0.389 J-1.8103
G2 X47.4246 Y4.7868 I0.124 J-1.8428
G2 X47.8136 Y4.7167 I-0.3053 J-2.8098
G2 X47.9653 Y4.6748 I-0.9042 J-3.5677
G2 X48.1527 Y4.6152 I-1.6701 J-5.5767
G2 X48.2638 Y4.5768 I-2.2403 J-6.6542
G2 X48.4823 Y4.4981 I-9.3177 J-26.2163
G3 X48.6318 Y4.4439 I13.5781 J37.2157
G3 X48.7054 Y4.4177 I3.2762 J9.0929
G3 X49.5109 Y4.1755 I3.0519 J8.69
G3 X50.4123 Y3.9885 I2.6854 J10.6775
G3 X51.2276 Y3.8824 I1.9988 J12.1725
G3 X52.1748 Y3.8187 I1.5743 J16.3326
G3 X52.9706 Y3.8046 I0.739 J19.3243
G3 X53.9676 Y3.824 I-0.089 J30.2827
G3 X54.3712 Y3.8406 I-1.3785 J38.4168
G3 X54.8672 Y3.8657 I-2.6921 J58.0101
G3 X55.1969 Y3.8846 I-3.902 J70.9684
G3 X55.389 Y3.8962 I-12.5301 J210.0815
G3 X52.9071 Y5.4917 I-105.7924 J-161.8366
G1 Z-0.52 F50
G3 X50.0801 Y7.2448 I-103.2919 J-163.4027 F30
G3 X47.2234 Y8.9491 I-100.4367 J-165.1094
G3 X44.3392 Y10.6031 I-97.488 J-166.6563
G3 X43.5928 Y11.0181 I-45.429 J-80.8231
G3 X43.1092 Y11.2796 I-18.5616 J-33.7471
G3 X42.4268 Y11.6317 I-14.6958 J-27.646
G3 X41.8579 Y11.9059 I-9.4955 J-18.9716
G3 X41.1812 Y12.2033 I-7.7136 J-16.6304
G3 X40.5754 Y12.4391 I-5.4543 J-13.1207
G3 X39.8897 Y12.6663 I-4.3679 J-12.0327
G3 X39.2514 Y12.8368 I-3.0864 J-10.2762
G3 X38.5586 Y12.9714 I-2.109 J-8.9996
G3 X37.8796 Y13.0495 I-1.3293 J-8.5739
G3 X37.1677 Y13.0723 I-0.6203 J-8.2527
G3 X36.496 Y13.0342 I0.0818 J-7.3972
G3 X35.7991 Y12.9269 I0.7069 J-6.9041
G3 X35.1593 Y12.7582 I1.2389 J-5.9978
G3 X34.5112 Y12.5053 I1.7716 J-5.4968
G3 X33.926 Y12.1892 I2.2163 J-4.8033
G3 X33.3812 Y11.7897 I2.3962 J-3.838
G3 X32.8832 Y11.2972 I3.1546 J-3.6882
G3 X32.4629 Y10.7415 I3.6882 J-3.2269
G3 X32.1328 Y10.143 I3.9573 J-2.5729
G3 X31.8905 Y9.4873 I4.0927 J-1.8847
G3 X31.7638 Y8.8421 I3.8496 J-1.0914
G3 X31.7404 Y8.425 I3.7172 J-0.4171
G3 X31.7502 Y8.1546 I3.7406 J0
G3 X31.8603 Y7.508 I3.4039 J0.2467
G3 X32.0586 Y6.9579 I3.4789 J0.9435
G3 X32.3572 Y6.4169 I3.6515 J1.6624
G3 X32.7185 Y5.9436 I3.5267 J2.3177
G3 X33.1544 Y5.5128 I3.3499 J2.9536
G3 X33.5983 Y5.1775 I2.8398 J3.2984
G3 X34.0512 Y4.9213 I2.1042 J3.1912
G3 X34.5666 Y4.7227 I1.5137 J3.16
G3 X35.0645 Y4.6199 I0.8507 J2.8621
G3 X35.4379 Y4.6023 I0.3099 J2.6043
G3 X35.7747 Y4.6368 I-0.0526 J2.1712
G3 X36.127 Y4.7367 I-0.3424 J1.8787
G3 X36.417 Y4.8871 I-0.561 J1.4364
G3 X36.6779 Y5.1123 I-0.7474 J1.1295
G3 X36.8734 Y5.396 I-1.0077 J0.9037
G3 X36.9883 Y5.7304 I-1.0873 J0.5603
G3 X37.0053 Y5.9131 I-0.9722 J0.1827
G3 X36.9967 Y6.043 I-0.9892 J0
G3 X36.9218 Y6.2791 I-0.8691 J-0.1457
G3 X36.7956 Y6.4624 I-0.6493 J-0.3121
G3 X36.6325 Y6.5926 I-0.5485 J-0.5196
G3 X36.413 Y6.6882 I-0.4914 J-0.8284
G3 X36.182 Y6.7306 I-0.3179 J-1.0804
G3 X35.9166 Y6.7261 I-0.1088 J-1.4052
G3 X35.654 Y6.6727 I0.1672 J-1.4953
G3 X35.4023 Y6.5728 I0.4383 J-1.4704
G2 X35.3802 Y6.5641 I-0.0562 J0.1116
G2 X35.183 Y6.5282 I-0.2843 J1.0023
G2 X34.9717 Y6.5296 I-0.0982 J1.1713
G2 X34.7672 Y6.5675 I0.1153 J1.1929
G2 X34.5783 Y6.6386 I0.2989 J1.08
G2 X34.3992 Y6.7491 I0.4481 J0.9266
G2 X34.2602 Y6.8839 I0.5149 J0.67
G2 X34.1508 Y7.063 I0.5934 J0.4857
G2 X34.096 Y7.2611 I0.6664 J0.2907
G2 X34.0899 Y7.357 I0.7473 J0.0959
G2 X34.107 Y7.5167 I0.7534 J0
G2 X34.206 Y7.7752 I0.8928 J-0.1936
G2 X34.362 Y7.9827 I0.8903 J-0.507
G2 X34.568 Y8.1475 I0.7624 J-0.7418
G2 X34.7773 Y8.2503 I0.6502 J-1.0595
G2 X35.031 Y8.3237 I0.5805 J-1.5306
G2 X35.245 Y8.3552 I0.3922 J-1.9247
G2 X35.5113 Y8.3678 I0.2773 J-3.0443
G2 X35.9318 Y8.3439 I0.0128 J-3.489
G2 X36.3513 Y8.269 I-0.4178 J-3.5508
G2 X36.7621 Y8.1432 I-0.8301 J-3.4459
G2 X37.1444 Y7.9725 I-1.1761 J-3.1468
G2 X37.5125 Y7.747 I-1.4916 J-2.8484
G2 X37.8307 Y7.4858 I-1.6844 J-2.3758
G2 X38.1198 Y7.1656 I-1.9015 J-2.0078
G2 X38.3465 Y6.8159 I-2.0357 J-1.5682
G2 X38.5108 Y6.4266 I-1.9644 J-1.0581
G2 X38.6053 Y5.9931 I-2.3614 J-0.7419
G2 X38.6252 Y5.6743 I-2.5387 J-0.3187
G2 X38.6227 Y5.5606 I-2.5586 J0
G2 X38.567 Y5.1325 I-2.5409 J0.1131
G2 X38.4354 Y4.7135 I-2.3882 J0.52
G2 X38.2402 Y4.3479 I-1.9958 J0.8305
G2 X37.96 Y4.0124 I-1.668 J1.108
G2 X37.9166 Y3.972 I-1.2591 J1.3096
G2 X38.0652 Y3.9621 I-1.8566 J-29.0322
G2 X38.2263 Y3.9506 I-2.3244 J-33.6425
G2 X38.542 Y3.9269 I-9.5789 J-129.6128
G3 X38.9058 Y3.8997 I8.567 J112.2017
G3 X39.0914 Y3.8867 I2.1402 J29.2808
G3 X39.4007 Y3.868 I1.7029 J25.5205
G3 X39.6648 Y3.8554 I1.0163 J18.6261
G3 X40.3249 Y3.8418 I0.6788 J16.8186
G3 X40.9911 Y3.854 I0.019 J17.1445
G2 X41.2439 Y3.8617 I0.6461 J-17.1025
G2 X41.5608 Y3.8671 I0.6197 J-26.9576
G2 X41.7509 Y3.8687 I0.3644 J-32.4588
G2 X42.1308 Y3.8701 I0.6984 J-130.0268
G3 X42.7471 Y3.874 I-0.1953 J79.7207
G3 X43.0525 Y3.8795 I-0.2002 J19.663
G3 X43.5602 Y3.9005 I-0.4171 J16.218
G3 X43.9594 Y3.9313 I-0.5767 J10.1002
G3 X44.4347 Y3.9908 I-0.8253 J8.5156
G3 X44.842 Y4.0669 I-0.9776 J6.3558
G3 X45.2902 Y4.1849 I-1.2411 J5.628
G3 X45.6916 Y4.3274 I-1.4319 J4.6703
G3 X45.7887 Y4.3677 I-2.1533 J5.3179
G3 X45.9862 Y4.453 I-9.2851 J21.7756
