(Generated by PartKam Version 0.05)

G20 G90 G40

(pocket 1-0-0)
G0 Z0.1
T0 M6
G17
M3
G0 X26.2411 Y43.5415
G1 Z-0.13 F50
G1 X36.2794 Y15.9615 F30
G1 X36.3827 Y15.9991
G1 X26.3444 Y43.5791
G1 X26.2411 Y43.5415
G1 X26.1129 Y43.6013 F30
G1 X36.2196 Y15.8334 F30
G1 X36.5109 Y15.9394
G1 X26.4042 Y43.7073
G1 X26.1129 Y43.6013
G1 X25.9847 Y43.661 F30
G1 X36.1598 Y15.7052 F30
G1 X36.6391 Y15.8796
G1 X26.464 Y43.8355
G1 X25.9847 Y43.661
G0 Z0.1
G0 X26.2411 Y43.5415
G1 Z-0.25 F50
G1 X36.2794 Y15.9615 F30
G1 X36.3827 Y15.9991
G1 X26.3444 Y43.5791
G1 X26.2411 Y43.5415
G1 X26.1129 Y43.6013 F30
G1 X36.2196 Y15.8334 F30
G1 X36.5109 Y15.9394
G1 X26.4042 Y43.7073
G1 X26.1129 Y43.6013
G1 X25.9847 Y43.661 F30
G1 X36.1598 Y15.7052 F30
G1 X36.6391 Y15.8796
G1 X26.464 Y43.8355
G1 X25.9847 Y43.661

(pocket 1-1-0)
G0 Z0.1
G0 X76.512 Y15.8846
G1 Z-0.13 F50
G1 X37.162 Y15.8846 F30
G1 X37.162 Y15.7746
G1 X76.512 Y15.7746
G1 X76.512 Y15.8846
G1 X76.612 Y15.9846 F30
G1 X37.062 Y15.9846 F30
G1 X37.062 Y15.6746
G1 X76.612 Y15.6746
G1 X76.612 Y15.9846
G1 X76.712 Y16.0846 F30
G1 X36.962 Y16.0846 F30
G1 X36.962 Y15.5746
G1 X76.712 Y15.5746
G1 X76.712 Y16.0846
G0 Z0.1
G0 X76.512 Y15.8846
G1 Z-0.25 F50
G1 X37.162 Y15.8846 F30
G1 X37.162 Y15.7746
G1 X76.512 Y15.7746
G1 X76.512 Y15.8846
G1 X76.612 Y15.9846 F30
G1 X37.062 Y15.9846 F30
G1 X37.062 Y15.6746
G1 X76.612 Y15.6746
G1 X76.612 Y15.9846
G1 X76.712 Y16.0846 F30
G1 X36.962 Y16.0846 F30
G1 X36.962 Y15.5746
G1 X76.712 Y15.5746
G1 X76.712 Y16.0846

(pocket 1-2-0)
G0 Z0.1
G0 X47.3896 Y27.8925
G1 Z-0.13 F50
G1 X47.3896 Y16.5425 F30
G1 X47.4996 Y16.5425
G1 X47.4996 Y27.8925
G1 X47.3896 Y27.8925
G1 X47.2896 Y27.9925 F30
G1 X47.2896 Y16.4425 F30
G1 X47.5996 Y16.4425
G1 X47.5996 Y27.9925
G1 X47.2896 Y27.9925
G1 X47.1896 Y28.0925 F30
G1 X47.1896 Y16.3425 F30
G1 X47.6996 Y16.3425
G1 X47.6996 Y28.0925
G1 X47.1896 Y28.0925
G0 Z0.1
G0 X47.3896 Y27.8925
G1 Z-0.25 F50
G1 X47.3896 Y16.5425 F30
G1 X47.4996 Y16.5425
G1 X47.4996 Y27.8925
G1 X47.3896 Y27.8925
G1 X47.2896 Y27.9925 F30
G1 X47.2896 Y16.4425 F30
G1 X47.5996 Y16.4425
G1 X47.5996 Y27.9925
G1 X47.2896 Y27.9925
G1 X47.1896 Y28.0925 F30
G1 X47.1896 Y16.3425 F30
G1 X47.6996 Y16.3425
G1 X47.6996 Y28.0925
G1 X47.1896 Y28.0925

(pocket 1-3-0)
G0 Z0.1
G0 X47.493 Y28.6797
G1 Z-0.13 F50
G1 X32.643 Y28.6797 F30
G1 X32.643 Y28.5697
G1 X47.493 Y28.5697
G1 X47.493 Y28.6797
G1 X47.593 Y28.7797 F30
G1 X32.543 Y28.7797 F30
G1 X32.543 Y28.4697
G1 X47.593 Y28.4697
G1 X47.593 Y28.7797
G1 X47.693 Y28.8797 F30
G1 X32.443 Y28.8797 F30
G1 X32.443 Y28.3697
G1 X47.693 Y28.3697
G1 X47.693 Y28.8797
G0 Z0.1
G0 X47.493 Y28.6797
G1 Z-0.25 F50
G1 X32.643 Y28.6797 F30
G1 X32.643 Y28.5697
G1 X47.493 Y28.5697
G1 X47.493 Y28.6797
G1 X47.593 Y28.7797 F30
G1 X32.543 Y28.7797 F30
G1 X32.543 Y28.4697
G1 X47.593 Y28.4697
G1 X47.593 Y28.7797
G1 X47.693 Y28.8797 F30
G1 X32.443 Y28.8797 F30
G1 X32.443 Y28.3697
G1 X47.693 Y28.3697
G1 X47.693 Y28.8797

(pocket 1-4-0)
G0 Z0.1
G0 X76.3959 Y32.9032
G1 Z-0.13 F50
G1 X76.3959 Y16.5532 F30
G1 X76.5059 Y16.5532
G1 X76.5059 Y32.9032
G1 X76.3959 Y32.9032
G1 X76.2959 Y33.0032 F30
G1 X76.2959 Y16.4532 F30
G1 X76.6059 Y16.4532
G1 X76.6059 Y33.0032
G1 X76.2959 Y33.0032
G1 X76.1959 Y33.1032 F30
G1 X76.1959 Y16.3532 F30
G1 X76.7059 Y16.3532
G1 X76.7059 Y33.1032
G1 X76.1959 Y33.1032
G0 Z0.1
G0 X76.3959 Y32.9032
G1 Z-0.25 F50
G1 X76.3959 Y16.5532 F30
G1 X76.5059 Y16.5532
G1 X76.5059 Y32.9032
G1 X76.3959 Y32.9032
G1 X76.2959 Y33.0032 F30
G1 X76.2959 Y16.4532 F30
G1 X76.6059 Y16.4532
G1 X76.6059 Y33.0032
G1 X76.2959 Y33.0032
G1 X76.1959 Y33.1032 F30
G1 X76.1959 Y16.3532 F30
G1 X76.7059 Y16.3532
G1 X76.7059 Y33.1032
G1 X76.1959 Y33.1032

(pocket 1-5-0)
G0 Z0.1
G0 X31.5995 Y8.6198
G1 Z-0.13 F50
G1 X29.5643 Y7.4448 F30
G1 X29.6193 Y7.3495
G1 X31.6545 Y8.5245
G1 X31.5995 Y8.6198
G1 X31.6361 Y8.7564 F30
G1 X29.4277 Y7.4814 F30
G1 X29.5827 Y7.2129
G1 X31.7911 Y8.4879
G1 X31.6361 Y8.7564
G1 X31.6727 Y8.893 F30
G1 X29.2911 Y7.518 F30
G1 X29.5461 Y7.0763
G1 X31.9277 Y8.4513
G1 X31.6727 Y8.893
G0 Z0.1
G0 X31.5995 Y8.6198
G1 Z-0.25 F50
G1 X29.5643 Y7.4448 F30
G1 X29.6193 Y7.3495
G1 X31.6545 Y8.5245
G1 X31.5995 Y8.6198
G1 X31.6361 Y8.7564 F30
G1 X29.4277 Y7.4814 F30
G1 X29.5827 Y7.2129
G1 X31.7911 Y8.4879
G1 X31.6361 Y8.7564
G1 X31.6727 Y8.893 F30
G1 X29.2911 Y7.518 F30
G1 X29.5461 Y7.0763
G1 X31.9277 Y8.4513
G1 X31.6727 Y8.893

(pocket 1-6-0)
G0 Z0.1
G0 X65.5636 Y10.6818
G1 Z-0.13 F50
G1 X65.5636 Y8.3318 F30
G1 X65.6736 Y8.3318
G1 X65.6736 Y10.6818
G1 X65.5636 Y10.6818
G1 X65.4636 Y10.7818 F30
G1 X65.4636 Y8.2318 F30
G1 X65.7736 Y8.2318
G1 X65.7736 Y10.7818
G1 X65.4636 Y10.7818
G1 X65.3636 Y10.8818 F30
G1 X65.3636 Y8.1318 F30
G1 X65.8736 Y8.1318
G1 X65.8736 Y10.8818
G1 X65.3636 Y10.8818
G0 Z0.1
G0 X65.5636 Y10.6818
G1 Z-0.25 F50
G1 X65.5636 Y8.3318 F30
G1 X65.6736 Y8.3318
G1 X65.6736 Y10.6818
G1 X65.5636 Y10.6818
G1 X65.4636 Y10.7818 F30
G1 X65.4636 Y8.2318 F30
G1 X65.7736 Y8.2318
G1 X65.7736 Y10.7818
G1 X65.4636 Y10.7818
G1 X65.3636 Y10.8818 F30
G1 X65.3636 Y8.1318 F30
G1 X65.8736 Y8.1318
G1 X65.8736 Y10.8818
G1 X65.3636 Y10.8818

(pocket 1-7-0)
G0 Z0.1
G0 X36.9958 Y3.3686
G1 Z-0.13 F50
G1 X39.031 Y4.5436 F30
G1 X38.976 Y4.6388
G1 X36.9408 Y3.4638
G1 X36.9958 Y3.3686
G1 X36.9592 Y3.232 F30
G1 X39.1676 Y4.507 F30
G1 X39.0126 Y4.7754
G1 X36.8042 Y3.5004
G1 X36.9592 Y3.232
G1 X36.9226 Y3.0954 F30
G1 X39.3042 Y4.4704 F30
G1 X39.0492 Y4.912
G1 X36.6676 Y3.537
G1 X36.9226 Y3.0954
G0 Z0.1
G0 X36.9958 Y3.3686
G1 Z-0.25 F50
G1 X39.031 Y4.5436 F30
G1 X38.976 Y4.6388
G1 X36.9408 Y3.4638
G1 X36.9958 Y3.3686
G1 X36.9592 Y3.232 F30
G1 X39.1676 Y4.507 F30
G1 X39.0126 Y4.7754
G1 X36.8042 Y3.5004
G1 X36.9592 Y3.232
G1 X36.9226 Y3.0954 F30
G1 X39.3042 Y4.4704 F30
G1 X39.0492 Y4.912
G1 X36.6676 Y3.537
G1 X36.9226 Y3.0954

(pocket 1-8-0)
G0 Z0.1
G0 X76.7461 Y3.2391
G1 Z-0.13 F50
G1 X74.3961 Y3.2391 F30
G1 X74.3961 Y3.1291
G1 X76.7461 Y3.1291
G1 X76.7461 Y3.2391
G1 X76.8461 Y3.3391 F30
G1 X74.2961 Y3.3391 F30
G1 X74.2961 Y3.0291
G1 X76.8461 Y3.0291
G1 X76.8461 Y3.3391
G1 X76.9461 Y3.4391 F30
G1 X74.1961 Y3.4391 F30
G1 X74.1961 Y2.9291
G1 X76.9461 Y2.9291
G1 X76.9461 Y3.4391
G0 Z0.1
G0 X76.7461 Y3.2391
G1 Z-0.25 F50
G1 X74.3961 Y3.2391 F30
G1 X74.3961 Y3.1291
G1 X76.7461 Y3.1291
G1 X76.7461 Y3.2391
G1 X76.8461 Y3.3391 F30
G1 X74.2961 Y3.3391 F30
G1 X74.2961 Y3.0291
G1 X76.8461 Y3.0291
G1 X76.8461 Y3.3391
G1 X76.9461 Y3.4391 F30
G1 X74.1961 Y3.4391 F30
G1 X74.1961 Y2.9291
G1 X76.9461 Y2.9291
G1 X76.9461 Y3.4391

(pocket 1-9-0)
G0 Z0.1
G0 X21.1294 Y3.7074
G1 Z-0.13 F50
G1 X18.7794 Y3.7074 F30
G1 X18.7794 Y3.5974
G1 X21.1294 Y3.5974
G1 X21.1294 Y3.7074
G1 X21.2294 Y3.8074 F30
G1 X18.6794 Y3.8074 F30
G1 X18.6794 Y3.4974
G1 X21.2294 Y3.4974
G1 X21.2294 Y3.8074
G1 X21.3294 Y3.9074 F30
G1 X18.5794 Y3.9074 F30
G1 X18.5794 Y3.3974
G1 X21.3294 Y3.3974
G1 X21.3294 Y3.9074
G0 Z0.1
G0 X21.1294 Y3.7074
G1 Z-0.25 F50
G1 X18.7794 Y3.7074 F30
G1 X18.7794 Y3.5974
G1 X21.1294 Y3.5974
G1 X21.1294 Y3.7074
G1 X21.2294 Y3.8074 F30
G1 X18.6794 Y3.8074 F30
G1 X18.6794 Y3.4974
G1 X21.2294 Y3.4974
G1 X21.2294 Y3.8074
G1 X21.3294 Y3.9074 F30
G1 X18.5794 Y3.9074 F30
G1 X18.5794 Y3.3974
G1 X21.3294 Y3.3974
G1 X21.3294 Y3.9074

(pocket 1-10-0)
G0 Z0.1
G0 X90.888 Y9.5412
G1 Z-0.13 F50
G1 X89.8948 Y7.4114 F30
G1 X89.9945 Y7.3649
G1 X90.9877 Y9.4947
G1 X90.888 Y9.5412
G1 X90.8396 Y9.6741 F30
G1 X89.7619 Y7.363 F30
G1 X90.0429 Y7.232
G1 X91.1206 Y9.5431
G1 X90.8396 Y9.6741
G1 X90.7912 Y9.807 F30
G1 X89.629 Y7.3146 F30
G1 X90.0913 Y7.0991
G1 X91.2535 Y9.5914
G1 X90.7912 Y9.807
G0 Z0.1
G0 X90.888 Y9.5412
G1 Z-0.25 F50
G1 X89.8948 Y7.4114 F30
G1 X89.9945 Y7.3649
G1 X90.9877 Y9.4947
G1 X90.888 Y9.5412
G1 X90.8396 Y9.6741 F30
G1 X89.7619 Y7.363 F30
G1 X90.0429 Y7.232
G1 X91.1206 Y9.5431
G1 X90.8396 Y9.6741
G1 X90.7912 Y9.807 F30
G1 X89.629 Y7.3146 F30
G1 X90.0913 Y7.0991
G1 X91.2535 Y9.5914
G1 X90.7912 Y9.807

(profile 14-0-0)
G0 Z0.1
G0 X66.009 Y6.1947
G1 Z-0.13 F50
G2 X65.2809 Y5.3848 I-5.6524 J4.3495 F30
G2 X64.4379 Y4.6955 I-4.9101 J5.1446
G2 X63.9945 Y4.411 I-3.9236 J5.6282
G3 X64.1042 Y4.4236 I-0.4205 J4.1586
G3 X64.7429 Y4.5549 I-0.5476 J4.282
G3 X65.3545 Y4.7808 I-1.1881 J4.1571
G3 X65.9172 Y5.0925 I-1.7528 J3.8286
G2 X66.0802 Y5.1975 I5.3776 J-8.1678
G2 X66.1726 Y5.2534 I1.5717 J-2.4934
G2 X66.3297 Y5.3369 I1.1927 J-2.0555
G2 X66.4574 Y5.391 I0.6041 J-1.2477
G2 X66.623 Y5.4372 I0.3751 J-1.025
G2 X66.7673 Y5.4506 I0.139 J-0.7109
G2 X66.9338 Y5.4268 I-0.0045 J-0.627
G2 X67.0847 Y5.3603 I-0.1623 J-0.5721
G3 X67.8576 Y4.9508 I3.4175 J5.5167
G3 X68.6868 Y4.6454 I2.6984 J6.0466
G3 X69.5492 Y4.4531 I1.8666 J6.3432
G3 X69.9346 Y4.4057 I0.979 J6.3716
G2 X69.6937 Y4.5562 I60.7189 J97.4973
G2 X69.349 Y4.7751 I16.9379 J27.0481
G2 X68.8001 Y5.1385 I14.2464 J22.1161
G2 X68.368 Y5.4424 I9.5037 J13.9727
G2 X67.8643 Y5.8257 I8.488 J11.677
G2 X67.4403 Y6.1811 I6.8505 J8.6043
G2 X66.9874 Y6.6065 I6.5278 J7.4022
G2 X66.5992 Y7.0227 I5.8408 J5.8375
G3 X66.5712 Y7.0485 I-0.1328 J-0.1156
G2 X66.009 Y6.1947 I-6.0739 J3.3875
G1 Z-0.26 F50
G2 X65.2809 Y5.3848 I-5.6524 J4.3495 F30
G2 X64.4379 Y4.6955 I-4.9101 J5.1446
G2 X63.9945 Y4.411 I-3.9236 J5.6282
G3 X64.1042 Y4.4236 I-0.4205 J4.1586
G3 X64.7429 Y4.5549 I-0.5476 J4.282
G3 X65.3545 Y4.7808 I-1.1881 J4.1571
G3 X65.9172 Y5.0925 I-1.7528 J3.8286
G2 X66.0802 Y5.1975 I5.3776 J-8.1678
G2 X66.1726 Y5.2534 I1.5717 J-2.4934
G2 X66.3297 Y5.3369 I1.1927 J-2.0555
G2 X66.4574 Y5.391 I0.6041 J-1.2477
G2 X66.623 Y5.4372 I0.3751 J-1.025
G2 X66.7673 Y5.4506 I0.139 J-0.7109
G2 X66.9338 Y5.4268 I-0.0045 J-0.627
G2 X67.0847 Y5.3603 I-0.1623 J-0.5721
G3 X67.8576 Y4.9508 I3.4175 J5.5167
G3 X68.6868 Y4.6454 I2.6984 J6.0466
G3 X69.5492 Y4.4531 I1.8666 J6.3432
G3 X69.9346 Y4.4057 I0.979 J6.3716
G2 X69.6937 Y4.5562 I60.7189 J97.4973
G2 X69.349 Y4.7751 I16.9379 J27.0481
G2 X68.8001 Y5.1385 I14.2464 J22.1161
G2 X68.368 Y5.4424 I9.5037 J13.9727
G2 X67.8643 Y5.8257 I8.488 J11.677
G2 X67.4403 Y6.1811 I6.8505 J8.6043
G2 X66.9874 Y6.6065 I6.5278 J7.4022
G2 X66.5992 Y7.0227 I5.8408 J5.8375
G3 X66.5712 Y7.0485 I-0.1328 J-0.1156
G2 X66.009 Y6.1947 I-6.0739 J3.3875
G1 Z-0.39 F50
G2 X65.2809 Y5.3848 I-5.6524 J4.3495 F30
G2 X64.4379 Y4.6955 I-4.9101 J5.1446
G2 X63.9945 Y4.411 I-3.9236 J5.6282
G3 X64.1042 Y4.4236 I-0.4205 J4.1586
G3 X64.7429 Y4.5549 I-0.5476 J4.282
G3 X65.3545 Y4.7808 I-1.1881 J4.1571
G3 X65.9172 Y5.0925 I-1.7528 J3.8286
G2 X66.0802 Y5.1975 I5.3776 J-8.1678
G2 X66.1726 Y5.2534 I1.5717 J-2.4934
G2 X66.3297 Y5.3369 I1.1927 J-2.0555
G2 X66.4574 Y5.391 I0.6041 J-1.2477
G2 X66.623 Y5.4372 I0.3751 J-1.025
G2 X66.7673 Y5.4506 I0.139 J-0.7109
G2 X66.9338 Y5.4268 I-0.0045 J-0.627
G2 X67.0847 Y5.3603 I-0.1623 J-0.5721
G3 X67.8576 Y4.9508 I3.4175 J5.5167
G3 X68.6868 Y4.6454 I2.6984 J6.0466
G3 X69.5492 Y4.4531 I1.8666 J6.3432
G3 X69.9346 Y4.4057 I0.979 J6.3716
G2 X69.6937 Y4.5562 I60.7189 J97.4973
G2 X69.349 Y4.7751 I16.9379 J27.0481
G2 X68.8001 Y5.1385 I14.2464 J22.1161
G2 X68.368 Y5.4424 I9.5037 J13.9727
G2 X67.8643 Y5.8257 I8.488 J11.677
G2 X67.4403 Y6.1811 I6.8505 J8.6043
G2 X66.9874 Y6.6065 I6.5278 J7.4022
G2 X66.5992 Y7.0227 I5.8408 J5.8375
G3 X66.5712 Y7.0485 I-0.1328 J-0.1156
G2 X66.009 Y6.1947 I-6.0739 J3.3875
G1 Z-0.52 F50
G2 X65.2809 Y5.3848 I-5.6524 J4.3495 F30
G2 X64.4379 Y4.6955 I-4.9101 J5.1446
G2 X63.9945 Y4.411 I-3.9236 J5.6282
G3 X64.1042 Y4.4236 I-0.4205 J4.1586
G3 X64.7429 Y4.5549 I-0.5476 J4.282
G3 X65.3545 Y4.7808 I-1.1881 J4.1571
G3 X65.9172 Y5.0925 I-1.7528 J3.8286
G2 X66.0802 Y5.1975 I5.3776 J-8.1678
G2 X66.1726 Y5.2534 I1.5717 J-2.4934
G2 X66.3297 Y5.3369 I1.1927 J-2.0555
G2 X66.4574 Y5.391 I0.6041 J-1.2477
G2 X66.623 Y5.4372 I0.3751 J-1.025
G2 X66.7673 Y5.4506 I0.139 J-0.7109
G2 X66.9338 Y5.4268 I-0.0045 J-0.627
G2 X67.0847 Y5.3603 I-0.1623 J-0.5721
G3 X67.8576 Y4.9508 I3.4175 J5.5167
G3 X68.6868 Y4.6454 I2.6984 J6.0466
G3 X69.5492 Y4.4531 I1.8666 J6.3432
G3 X69.9346 Y4.4057 I0.979 J6.3716
G2 X69.6937 Y4.5562 I60.7189 J97.4973
G2 X69.349 Y4.7751 I16.9379 J27.0481
G2 X68.8001 Y5.1385 I14.2464 J22.1161
G2 X68.368 Y5.4424 I9.5037 J13.9727
G2 X67.8643 Y5.8257 I8.488 J11.677
G2 X67.4403 Y6.1811 I6.8505 J8.6043
G2 X66.9874 Y6.6065 I6.5278 J7.4022
G2 X66.5992 Y7.0227 I5.8408 J5.8375
G3 X66.5712 Y7.0485 I-0.1328 J-0.1156
G2 X66.009 Y6.1947 I-6.0739 J3.3875
G1 Z-0.65 F50
G2 X65.2809 Y5.3848 I-5.6524 J4.3495 F30
G2 X64.4379 Y4.6955 I-4.9101 J5.1446
G2 X63.9945 Y4.411 I-3.9236 J5.6282
G3 X64.1042 Y4.4236 I-0.4205 J4.1586
G3 X64.7429 Y4.5549 I-0.5476 J4.282
G3 X65.3545 Y4.7808 I-1.1881 J4.1571
G3 X65.9172 Y5.0925 I-1.7528 J3.8286
G2 X66.0802 Y5.1975 I5.3776 J-8.1678
G2 X66.1726 Y5.2534 I1.5717 J-2.4934
G2 X66.3297 Y5.3369 I1.1927 J-2.0555
G2 X66.4574 Y5.391 I0.6041 J-1.2477
G2 X66.623 Y5.4372 I0.3751 J-1.025
G2 X66.7673 Y5.4506 I0.139 J-0.7109
G2 X66.9338 Y5.4268 I-0.0045 J-0.627
G2 X67.0847 Y5.3603 I-0.1623 J-0.5721
G3 X67.8576 Y4.9508 I3.4175 J5.5167
G3 X68.6868 Y4.6454 I2.6984 J6.0466
G3 X69.5492 Y4.4531 I1.8666 J6.3432
G3 X69.9346 Y4.4057 I0.979 J6.3716
G2 X69.6937 Y4.5562 I60.7189 J97.4973
G2 X69.349 Y4.7751 I16.9379 J27.0481
G2 X68.8001 Y5.1385 I14.2464 J22.1161
G2 X68.368 Y5.4424 I9.5037 J13.9727
G2 X67.8643 Y5.8257 I8.488 J11.677
G2 X67.4403 Y6.1811 I6.8505 J8.6043
G2 X66.9874 Y6.6065 I6.5278 J7.4022
G2 X66.5992 Y7.0227 I5.8408 J5.8375
G3 X66.5712 Y7.0485 I-0.1328 J-0.1156
G2 X66.009 Y6.1947 I-6.0739 J3.3875
G1 Z-0.78 F50
G2 X65.2809 Y5.3848 I-5.6524 J4.3495 F30
G2 X64.4379 Y4.6955 I-4.9101 J5.1446
G2 X63.9945 Y4.411 I-3.9236 J5.6282
G3 X64.1042 Y4.4236 I-0.4205 J4.1586
G3 X64.7429 Y4.5549 I-0.5476 J4.282
G3 X65.3545 Y4.7808 I-1.1881 J4.1571
G3 X65.9172 Y5.0925 I-1.7528 J3.8286
G2 X66.0802 Y5.1975 I5.3776 J-8.1678
G2 X66.1726 Y5.2534 I1.5717 J-2.4934
G2 X66.3297 Y5.3369 I1.1927 J-2.0555
G2 X66.4574 Y5.391 I0.6041 J-1.2477
G2 X66.623 Y5.4372 I0.3751 J-1.025
G2 X66.7673 Y5.4506 I0.139 J-0.7109
G2 X66.9338 Y5.4268 I-0.0045 J-0.627
G2 X67.0847 Y5.3603 I-0.1623 J-0.5721
G3 X67.8576 Y4.9508 I3.4175 J5.5167
G3 X68.6868 Y4.6454 I2.6984 J6.0466
G3 X69.5492 Y4.4531 I1.8666 J6.3432
G3 X69.9346 Y4.4057 I0.979 J6.3716
G2 X69.6937 Y4.5562 I60.7189 J97.4973
G2 X69.349 Y4.7751 I16.9379 J27.0481
G2 X68.8001 Y5.1385 I14.2464 J22.1161
G2 X68.368 Y5.4424 I9.5037 J13.9727
G2 X67.8643 Y5.8257 I8.488 J11.677
G2 X67.4403 Y6.1811 I6.8505 J8.6043
G2 X66.9874 Y6.6065 I6.5278 J7.4022
G2 X66.5992 Y7.0227 I5.8408 J5.8375
G3 X66.5712 Y7.0485 I-0.1328 J-0.1156
G2 X66.009 Y6.1947 I-6.0739 J3.3875
G1 Z-0.79 F50
G2 X65.2809 Y5.3848 I-5.6524 J4.3495 F30
G2 X64.4379 Y4.6955 I-4.9101 J5.1446
G2 X63.9945 Y4.411 I-3.9236 J5.6282
G3 X64.1042 Y4.4236 I-0.4205 J4.1586
G3 X64.7429 Y4.5549 I-0.5476 J4.282
G3 X65.3545 Y4.7808 I-1.1881 J4.1571
G3 X65.9172 Y5.0925 I-1.7528 J3.8286
G2 X66.0802 Y5.1975 I5.3776 J-8.1678
G2 X66.1726 Y5.2534 I1.5717 J-2.4934
G2 X66.3297 Y5.3369 I1.1927 J-2.0555
G2 X66.4574 Y5.391 I0.6041 J-1.2477
G2 X66.623 Y5.4372 I0.3751 J-1.025
G2 X66.7673 Y5.4506 I0.139 J-0.7109
G2 X66.9338 Y5.4268 I-0.0045 J-0.627
G2 X67.0847 Y5.3603 I-0.1623 J-0.5721
G3 X67.8576 Y4.9508 I3.4175 J5.5167
G3 X68.6868 Y4.6454 I2.6984 J6.0466
G3 X69.5492 Y4.4531 I1.8666 J6.3432
G3 X69.9346 Y4.4057 I0.979 J6.3716
G2 X69.6937 Y4.5562 I60.7189 J97.4973
G2 X69.349 Y4.7751 I16.9379 J27.0481
G2 X68.8001 Y5.1385 I14.2464 J22.1161
G2 X68.368 Y5.4424 I9.5037 J13.9727
G2 X67.8643 Y5.8257 I8.488 J11.677
G2 X67.4403 Y6.1811 I6.8505 J8.6043
G2 X66.9874 Y6.6065 I6.5278 J7.4022
G2 X66.5992 Y7.0227 I5.8408 J5.8375
G3 X66.5712 Y7.0485 I-0.1328 J-0.1156
G2 X66.009 Y6.1947 I-6.0739 J3.3875

(profile 14-1-0)
G0 Z0.1
G0 X48.0837 Y11.523
G1 Z-0.13 F50
G1 X53.1527 Y14.1686 F30
G3 X51.6461 Y14.2318 I-5.0793 J-103.0597
G3 X49.8992 Y14.2775 I-3.5739 J-103.1548
G3 X48.1518 Y14.2936 I-1.8269 J-103.1982
G3 X46.4047 Y14.2802 I-0.0795 J-103.173
G3 X46.1612 Y14.2726 I0.1308 J-8.1084
G3 X45.9916 Y14.2612 I0.185 J-4.0045
G3 X45.7683 Y14.2334 I0.2831 J-3.1874
G3 X45.5943 Y14.1977 I0.3223 J-2.0113
G3 X45.3991 Y14.1356 I0.4043 J-1.6093
G3 X45.2475 Y14.0637 I0.4152 J-1.0714
G3 X45.1522 Y14.0022 I0.4903 J-0.8645
G2 X45.4259 Y13.9425 I-0.6056 J-3.4296
G2 X45.9565 Y13.7605 I-0.9428 J-3.6135
G2 X46.4426 Y13.5095 I-1.5212 J-3.5428
G2 X46.8965 Y13.1873 I-2.0801 J-3.411
G2 X47.3013 Y12.8052 I-2.5403 J-3.0966
G2 X47.6444 Y12.3759 I-2.8694 J-2.6447
G2 X47.929 Y11.8895 I-3.1254 J-2.1553
G2 X48.0837 Y11.523 I-3.2021 J-1.5672
G1 Z-0.26 F50
G1 X53.1527 Y14.1686 F30
G3 X51.6461 Y14.2318 I-5.0793 J-103.0597
G3 X49.8992 Y14.2775 I-3.5739 J-103.1548
G3 X48.1518 Y14.2936 I-1.8269 J-103.1982
G3 X46.4047 Y14.2802 I-0.0795 J-103.173
G3 X46.1612 Y14.2726 I0.1308 J-8.1084
G3 X45.9916 Y14.2612 I0.185 J-4.0045
G3 X45.7683 Y14.2334 I0.2831 J-3.1874
G3 X45.5943 Y14.1977 I0.3223 J-2.0113
G3 X45.3991 Y14.1356 I0.4043 J-1.6093
G3 X45.2475 Y14.0637 I0.4152 J-1.0714
G3 X45.1522 Y14.0022 I0.4903 J-0.8645
G2 X45.4259 Y13.9425 I-0.6056 J-3.4296
G2 X45.9565 Y13.7605 I-0.9428 J-3.6135
G2 X46.4426 Y13.5095 I-1.5212 J-3.5428
G2 X46.8965 Y13.1873 I-2.0801 J-3.411
G2 X47.3013 Y12.8052 I-2.5403 J-3.0966
G2 X47.6444 Y12.3759 I-2.8694 J-2.6447
G2 X47.929 Y11.8895 I-3.1254 J-2.1553
G2 X48.0837 Y11.523 I-3.2021 J-1.5672
G1 Z-0.39 F50
G1 X53.1527 Y14.1686 F30
G3 X51.6461 Y14.2318 I-5.0793 J-103.0597
G3 X49.8992 Y14.2775 I-3.5739 J-103.1548
G3 X48.1518 Y14.2936 I-1.8269 J-103.1982
G3 X46.4047 Y14.2802 I-0.0795 J-103.173
G3 X46.1612 Y14.2726 I0.1308 J-8.1084
G3 X45.9916 Y14.2612 I0.185 J-4.0045
G3 X45.7683 Y14.2334 I0.2831 J-3.1874
G3 X45.5943 Y14.1977 I0.3223 J-2.0113
G3 X45.3991 Y14.1356 I0.4043 J-1.6093
G3 X45.2475 Y14.0637 I0.4152 J-1.0714
G3 X45.1522 Y14.0022 I0.4903 J-0.8645
G2 X45.4259 Y13.9425 I-0.6056 J-3.4296
G2 X45.9565 Y13.7605 I-0.9428 J-3.6135
G2 X46.4426 Y13.5095 I-1.5212 J-3.5428
G2 X46.8965 Y13.1873 I-2.0801 J-3.411
G2 X47.3013 Y12.8052 I-2.5403 J-3.0966
G2 X47.6444 Y12.3759 I-2.8694 J-2.6447
G2 X47.929 Y11.8895 I-3.1254 J-2.1553
G2 X48.0837 Y11.523 I-3.2021 J-1.5672
G1 Z-0.52 F50
G1 X53.1527 Y14.1686 F30
G3 X51.6461 Y14.2318 I-5.0793 J-103.0597
G3 X49.8992 Y14.2775 I-3.5739 J-103.1548
G3 X48.1518 Y14.2936 I-1.8269 J-103.1982
G3 X46.4047 Y14.2802 I-0.0795 J-103.173
G3 X46.1612 Y14.2726 I0.1308 J-8.1084
G3 X45.9916 Y14.2612 I0.185 J-4.0045
G3 X45.7683 Y14.2334 I0.2831 J-3.1874
G3 X45.5943 Y14.1977 I0.3223 J-2.0113
G3 X45.3991 Y14.1356 I0.4043 J-1.6093
G3 X45.2475 Y14.0637 I0.4152 J-1.0714
G3 X45.1522 Y14.0022 I0.4903 J-0.8645
G2 X45.4259 Y13.9425 I-0.6056 J-3.4296
G2 X45.9565 Y13.7605 I-0.9428 J-3.6135
G2 X46.4426 Y13.5095 I-1.5212 J-3.5428
G2 X46.8965 Y13.1873 I-2.0801 J-3.411
G2 X47.3013 Y12.8052 I-2.5403 J-3.0966
G2 X47.6444 Y12.3759 I-2.8694 J-2.6447
G2 X47.929 Y11.8895 I-3.1254 J-2.1553
G2 X48.0837 Y11.523 I-3.2021 J-1.5672
G1 Z-0.65 F50
G1 X53.1527 Y14.1686 F30
G3 X51.6461 Y14.2318 I-5.0793 J-103.0597
G3 X49.8992 Y14.2775 I-3.5739 J-103.1548
G3 X48.1518 Y14.2936 I-1.8269 J-103.1982
G3 X46.4047 Y14.2802 I-0.0795 J-103.173
G3 X46.1612 Y14.2726 I0.1308 J-8.1084
G3 X45.9916 Y14.2612 I0.185 J-4.0045
G3 X45.7683 Y14.2334 I0.2831 J-3.1874
G3 X45.5943 Y14.1977 I0.3223 J-2.0113
G3 X45.3991 Y14.1356 I0.4043 J-1.6093
G3 X45.2475 Y14.0637 I0.4152 J-1.0714
G3 X45.1522 Y14.0022 I0.4903 J-0.8645
G2 X45.4259 Y13.9425 I-0.6056 J-3.4296
G2 X45.9565 Y13.7605 I-0.9428 J-3.6135
G2 X46.4426 Y13.5095 I-1.5212 J-3.5428
G2 X46.8965 Y13.1873 I-2.0801 J-3.411
G2 X47.3013 Y12.8052 I-2.5403 J-3.0966
G2 X47.6444 Y12.3759 I-2.8694 J-2.6447
G2 X47.929 Y11.8895 I-3.1254 J-2.1553
G2 X48.0837 Y11.523 I-3.2021 J-1.5672
G1 Z-0.78 F50
G1 X53.1527 Y14.1686 F30
G3 X51.6461 Y14.2318 I-5.0793 J-103.0597
G3 X49.8992 Y14.2775 I-3.5739 J-103.1548
G3 X48.1518 Y14.2936 I-1.8269 J-103.1982
G3 X46.4047 Y14.2802 I-0.0795 J-103.173
G3 X46.1612 Y14.2726 I0.1308 J-8.1084
G3 X45.9916 Y14.2612 I0.185 J-4.0045
G3 X45.7683 Y14.2334 I0.2831 J-3.1874
G3 X45.5943 Y14.1977 I0.3223 J-2.0113
G3 X45.3991 Y14.1356 I0.4043 J-1.6093
G3 X45.2475 Y14.0637 I0.4152 J-1.0714
G3 X45.1522 Y14.0022 I0.4903 J-0.8645
G2 X45.4259 Y13.9425 I-0.6056 J-3.4296
G2 X45.9565 Y13.7605 I-0.9428 J-3.6135
G2 X46.4426 Y13.5095 I-1.5212 J-3.5428
G2 X46.8965 Y13.1873 I-2.0801 J-3.411
G2 X47.3013 Y12.8052 I-2.5403 J-3.0966
G2 X47.6444 Y12.3759 I-2.8694 J-2.6447
G2 X47.929 Y11.8895 I-3.1254 J-2.1553
G2 X48.0837 Y11.523 I-3.2021 J-1.5672
G1 Z-0.79 F50
G1 X53.1527 Y14.1686 F30
G3 X51.6461 Y14.2318 I-5.0793 J-103.0597
G3 X49.8992 Y14.2775 I-3.5739 J-103.1548
G3 X48.1518 Y14.2936 I-1.8269 J-103.1982
G3 X46.4047 Y14.2802 I-0.0795 J-103.173
G3 X46.1612 Y14.2726 I0.1308 J-8.1084
G3 X45.9916 Y14.2612 I0.185 J-4.0045
G3 X45.7683 Y14.2334 I0.2831 J-3.1874
G3 X45.5943 Y14.1977 I0.3223 J-2.0113
G3 X45.3991 Y14.1356 I0.4043 J-1.6093
G3 X45.2475 Y14.0637 I0.4152 J-1.0714
G3 X45.1522 Y14.0022 I0.4903 J-0.8645
G2 X45.4259 Y13.9425 I-0.6056 J-3.4296
G2 X45.9565 Y13.7605 I-0.9428 J-3.6135
G2 X46.4426 Y13.5095 I-1.5212 J-3.5428
G2 X46.8965 Y13.1873 I-2.0801 J-3.411
G2 X47.3013 Y12.8052 I-2.5403 J-3.0966
G2 X47.6444 Y12.3759 I-2.8694 J-2.6447
G2 X47.929 Y11.8895 I-3.1254 J-2.1553
G2 X48.0837 Y11.523 I-3.2021 J-1.5672

(profile 14-2-0)
G0 Z0.1
G0 X23.6068 Y4.2639
G1 Z-0.13 F50
G1 X28.1594 Y4.309 F30
G3 X28.6232 Y4.3168 I-0.3298 J33.4297
G3 X28.8908 Y4.3263 I-0.2664 J11.2197
G3 X29.2931 Y4.3545 I-0.4309 J9.0466
G3 X29.6111 Y4.3928 I-0.5298 J5.7336
G3 X29.9838 Y4.4634 I-0.712 J4.7832
G3 X30.2962 Y4.5504 I-0.7998 J3.4748
G3 X30.6328 Y4.6827 I-0.9857 J3.0024
G3 X30.9241 Y4.8395 I-1.1152 J2.4208
G3 X30.9789 Y4.8744 I-1.4486 J2.3316
G3 X31.0924 Y4.9497 I-6.3935 J9.7672
G2 X31.1967 Y5.019 I7.4304 J-11.0673
G2 X31.2506 Y5.0537 I1.8628 J-2.8316
G2 X31.3427 Y5.1094 I1.4992 J-2.3755
G2 X31.4189 Y5.1511 I0.8932 J-1.5434
G2 X31.6221 Y5.2359 I0.6295 J-1.2213
G2 X31.8031 Y5.2755 I0.2874 J-0.8805
G2 X31.9579 Y5.2804 I0.1064 J-0.9206
G2 X32.1169 Y5.2593 I-0.0525 J-1.0045
G2 X32.2531 Y5.2208 I-0.2337 J-1.0868
G2 X32.4024 Y5.1588 I-0.4989 J-1.4138
G2 X32.5203 Y5.0969 I-0.7806 J-1.6278
G2 X32.664 Y5.0089 I-1.4834 J-2.5856
G2 X32.7474 Y4.9529 I-2.0013 J-3.0717
G2 X32.9102 Y4.8388 I-8.3869 J-12.1327
G3 X33.0213 Y4.7603 I12.127 J17.0472
G3 X33.0757 Y4.7227 I2.8899 J4.1188
G3 X33.1669 Y4.6622 I2.3064 J3.3808
G3 X33.2381 Y4.6181 I1.3197 J2.0502
G3 X33.636 Y4.4348 I1.0607 J1.7792
G3 X34.114 Y4.3228 I0.823 J2.4369
G3 X34.5645 Y4.2969 I0.3936 J2.9077
G3 X35.0628 Y4.3415 I-0.0694 J3.5795
G3 X35.4819 Y4.4305 I-0.6791 J4.2282
G3 X35.9904 Y4.5878 I-1.6783 J6.3256
G3 X36.197 Y4.6642 I-2.757 J7.7767
G3 X36.4456 Y4.763 I-4.3544 J11.3143
G3 X36.6243 Y4.8377 I-5.66 J13.7908
G3 X36.8976 Y4.9554 I-13.71 J32.2069
G3 X39.0934 Y5.962 I-25.5871 J58.7176
G3 X41.077 Y6.9675 I-23.5571 J48.9332
G3 X43.1657 Y8.1451 I-23.7034 J44.48
G3 X45.0605 Y9.3401 I-22.5187 J37.8066
G3 X45.2971 Y9.5041 I-4.4469 J6.6688
G3 X45.4681 Y9.6335 I-2.6317 J3.655
G3 X45.6755 Y9.8114 I-2.2649 J2.8491
G3 X45.829 Y9.9673 I-1.614 J1.7438
G3 X45.9842 Y10.1641 I-1.4455 J1.2987
G3 X46.0879 Y10.3426 I-1.1149 J0.7674
G3 X46.1663 Y10.555 I-1.0557 J0.5102
G3 X46.1987 Y10.7636 I-0.9986 J0.2622
G3 X46.2001 Y10.8153 I-0.9938 J0.0517
G3 X46.1762 Y11.0323 I-0.9952 J0
G3 X46.0737 Y11.3194 I-1.214 J-0.2711
G3 X45.9177 Y11.5637 I-1.2613 J-0.6335
G3 X45.7046 Y11.7838 I-1.225 J-0.9729
G3 X45.4802 Y11.9468 I-1.1915 J-1.4048
G3 X45.1916 Y12.0999 I-1.32 J-2.1397
G3 X44.9386 Y12.2003 I-1.2499 J-2.7785
G3 X44.6036 Y12.3033 I-1.6285 J-4.703
G3 X44.1883 Y12.3948 I-1.1984 J-4.453
G3 X43.8674 Y12.4305 I-0.46 J-2.6692
G3 X43.4776 Y12.4153 I-0.1107 J-2.1533
G3 X43.1626 Y12.3394 I0.197 J-1.5097
G3 X42.8512 Y12.174 I0.4104 J-1.1492
G3 X42.6003 Y11.9268 I0.7203 J-0.9818
G3 X42.5051 Y11.777 I0.8703 J-0.6583
G3 X42.4426 Y11.6278 I0.8158 J-0.4296
G3 X42.4076 Y11.4626 I0.8037 J-0.2566
G3 X42.4031 Y11.3799 I0.759 J-0.0827
G3 X42.4069 Y11.3031 I0.7635 J0
G3 X42.442 Y11.1565 I0.5606 J0.0567
G3 X42.5221 Y11.0072 I0.6429 J0.2486
G3 X42.631 Y10.884 I0.6192 J0.4379
G3 X42.7661 Y10.7854 I0.526 J0.5783
G3 X42.9195 Y10.7189 I0.3639 J0.6302
G3 X43.0616 Y10.6953 I0.1629 J0.539
G3 X43.2083 Y10.7128 I0.0176 J0.476
G3 X43.2188 Y10.7159 I-0.1158 J0.411
G2 X43.1782 Y10.8142 I0.5364 J0.279
G2 X43.1439 Y11.0383 I0.7156 J0.2241
G2 X43.1467 Y11.1031 I0.7499 J0
G2 X43.2189 Y11.3759 I0.8215 J-0.0712
G2 X43.375 Y11.5983 I0.6832 J-0.3136
G2 X43.581 Y11.7475 I0.5958 J-0.6061
G2 X43.8398 Y11.8394 I0.4675 J-0.9056
G2 X44.0936 Y11.8634 I0.2338 J-1.1174
G2 X44.3563 Y11.8307 I-0.0218 J-1.2429
G2 X44.5793 Y11.7487 I-0.2248 J-0.9562
G2 X44.7937 Y11.6074 I-0.5352 J-1.0449
G2 X44.9669 Y11.4318 I-0.7939 J-0.957
G2 X45.0999 Y11.2282 I-0.9361 J-0.7563
G2 X45.1889 Y10.9935 I-0.975 J-0.5041
G2 X45.2152 Y10.7824 I-0.8338 J-0.2111
G2 X45.2151 Y10.7688 I-0.8601 J0
G2 X45.171 Y10.5261 I-0.756 J0.0119
G2 X45.0524 Y10.3152 I-0.6782 J0.2426
G2 X44.4673 Y9.8006 I-1.8068 J1.4643
G2 X43.7078 Y9.4842 I-1.3706 J2.2202
G2 X42.8877 Y9.4203 I-0.6095 J2.5296
G2 X42.1358 Y9.6127 I0.1863 J2.2932
G2 X41.791 Y9.8045 I0.9199 J2.0599
G2 X41.4716 Y10.0622 I1.3747 J2.0305
G2 X41.2061 Y10.3588 I1.7635 J1.8455
G2 X40.9848 Y10.6998 I2.1207 J1.6188
G2 X40.8178 Y11.0704 I2.3475 J1.2809
G2 X40.7112 Y11.4556 I2.427 J0.8786
G2 X40.6662 Y11.8652 I2.4436 J0.4759
G2 X40.6654 Y11.9265 I2.3028 J0.0613
G2 X40.6667 Y12.0044 I2.3036 J0
G2 X39.5294 Y11.3179 I-27.5411 J44.3399
G2 X38.1545 Y10.5394 I-26.4097 J45.0364
G2 X36.7566 Y9.8028 I-25.0229 J45.7932
G2 X35.3386 Y9.1096 I-23.5751 J46.4314
G2 X35.2901 Y9.0868 I-48.9412 J104.0904
G2 X35.1928 Y9.0412 I-196.9853 J419.4643
G3 X34.8347 Y8.8724 I54.4336 J-115.9818
G3 X34.6551 Y8.7868 I13.8763 J-29.3304
G3 X34.3567 Y8.6411 I11.7383 J-24.4227
G3 X34.1204 Y8.5217 I7.6728 J-15.4754
G3 X33.5384 Y8.2033 I6.0998 J-11.8431
G3 X33.1013 Y7.9309 I4.0532 J-6.991
G3 X32.6039 Y7.5641 I3.7093 J-5.5499
G3 X32.2173 Y7.2137 I3.0202 J-3.7213
G3 X31.8359 Y6.7707 I3.0006 J-2.969
G3 X31.5462 Y6.3155 I2.8932 J-2.1608
G2 X31.4418 Y6.1801 I-0.459 J0.246
G2 X31.2993 Y6.0861 I-0.3524 J0.3792
G2 X31.1602 Y6.0434 I-0.2469 J0.5563
G2 X30.9846 Y6.0279 I-0.1738 J0.966
G2 X30.8444 Y6.0358 I0.0024 J1.2947
G2 X30.6622 Y6.0633 I0.2573 J2.3212
G2 X30.5571 Y6.0854 I0.5443 J2.841
G2 X30.362 Y6.1324 I2.3376 J10.1456
G1 X30.3611 Y6.1326
G3 X30.0303 Y6.1928 I-0.623 J-2.4834
G3 X29.664 Y6.2125 I-0.3455 J-3.0079
G3 X29.3347 Y6.1944 I0.0235 J-3.419
G3 X28.9529 Y6.1386 I0.4785 J-4.6134
G3 X28.6325 Y6.0682 I1.0239 J-5.4239
G3 X28.2372 Y5.9588 I2.086 J-8.3076
G3 X27.9659 Y5.8727 I3.0874 J-10.2008
G3 X27.5286 Y5.7235 I8.786 J-26.4584
G3 X26.2284 Y5.2612 I51.2172 J-146.0975
G3 X25.2542 Y4.9033 I29.7207 J-82.4179
G3 X24.0402 Y4.4369 I25.7205 J-68.7616
G3 X23.6068 Y4.2639 I19.8157 J-50.2448
G1 Z-0.26 F50
G1 X28.1594 Y4.309 F30
G3 X28.6232 Y4.3168 I-0.3298 J33.4297
G3 X28.8908 Y4.3263 I-0.2664 J11.2197
G3 X29.2931 Y4.3545 I-0.4309 J9.0466
G3 X29.6111 Y4.3928 I-0.5298 J5.7336
G3 X29.9838 Y4.4634 I-0.712 J4.7832
G3 X30.2962 Y4.5504 I-0.7998 J3.4748
G3 X30.6328 Y4.6827 I-0.9857 J3.0024
G3 X30.9241 Y4.8395 I-1.1152 J2.4208
G3 X30.9789 Y4.8744 I-1.4486 J2.3316
G3 X31.0924 Y4.9497 I-6.3935 J9.7672
G2 X31.1967 Y5.019 I7.4304 J-11.0673
G2 X31.2506 Y5.0537 I1.8628 J-2.8316
G2 X31.3427 Y5.1094 I1.4992 J-2.3755
G2 X31.4189 Y5.1511 I0.8932 J-1.5434
G2 X31.6221 Y5.2359 I0.6295 J-1.2213
G2 X31.8031 Y5.2755 I0.2874 J-0.8805
G2 X31.9579 Y5.2804 I0.1064 J-0.9206
G2 X32.1169 Y5.2593 I-0.0525 J-1.0045
G2 X32.2531 Y5.2208 I-0.2337 J-1.0868
G2 X32.4024 Y5.1588 I-0.4989 J-1.4138
G2 X32.5203 Y5.0969 I-0.7806 J-1.6278
G2 X32.664 Y5.0089 I-1.4834 J-2.5856
G2 X32.7474 Y4.9529 I-2.0013 J-3.0717
G2 X32.9102 Y4.8388 I-8.3869 J-12.1327
G3 X33.0213 Y4.7603 I12.127 J17.0472
G3 X33.0757 Y4.7227 I2.8899 J4.1188
G3 X33.1669 Y4.6622 I2.3064 J3.3808
G3 X33.2381 Y4.6181 I1.3197 J2.0502
G3 X33.636 Y4.4348 I1.0607 J1.7792
G3 X34.114 Y4.3228 I0.823 J2.4369
G3 X34.5645 Y4.2969 I0.3936 J2.9077
G3 X35.0628 Y4.3415 I-0.0694 J3.5795
G3 X35.4819 Y4.4305 I-0.6791 J4.2282
G3 X35.9904 Y4.5878 I-1.6783 J6.3256
G3 X36.197 Y4.6642 I-2.757 J7.7767
G3 X36.4456 Y4.763 I-4.3544 J11.3143
G3 X36.6243 Y4.8377 I-5.66 J13.7908
G3 X36.8976 Y4.9554 I-13.71 J32.2069
G3 X39.0934 Y5.962 I-25.5871 J58.7176
G3 X41.077 Y6.9675 I-23.5571 J48.9332
G3 X43.1657 Y8.1451 I-23.7034 J44.48
G3 X45.0605 Y9.3401 I-22.5187 J37.8066
G3 X45.2971 Y9.5041 I-4.4469 J6.6688
G3 X45.4681 Y9.6335 I-2.6317 J3.655
G3 X45.6755 Y9.8114 I-2.2649 J2.8491
G3 X45.829 Y9.9673 I-1.614 J1.7438
G3 X45.9842 Y10.1641 I-1.4455 J1.2987
G3 X46.0879 Y10.3426 I-1.1149 J0.7674
G3 X46.1663 Y10.555 I-1.0557 J0.5102
G3 X46.1987 Y10.7636 I-0.9986 J0.2622
G3 X46.2001 Y10.8153 I-0.9938 J0.0517
G3 X46.1762 Y11.0323 I-0.9952 J0
G3 X46.0737 Y11.3194 I-1.214 J-0.2711
G3 X45.9177 Y11.5637 I-1.2613 J-0.6335
G3 X45.7046 Y11.7838 I-1.225 J-0.9729
G3 X45.4802 Y11.9468 I-1.1915 J-1.4048
G3 X45.1916 Y12.0999 I-1.32 J-2.1397
G3 X44.9386 Y12.2003 I-1.2499 J-2.7785
G3 X44.6036 Y12.3033 I-1.6285 J-4.703
G3 X44.1883 Y12.3948 I-1.1984 J-4.453
G3 X43.8674 Y12.4305 I-0.46 J-2.6692
G3 X43.4776 Y12.4153 I-0.1107 J-2.1533
G3 X43.1626 Y12.3394 I0.197 J-1.5097
G3 X42.8512 Y12.174 I0.4104 J-1.1492
G3 X42.6003 Y11.9268 I0.7203 J-0.9818
G3 X42.5051 Y11.777 I0.8703 J-0.6583
G3 X42.4426 Y11.6278 I0.8158 J-0.4296
G3 X42.4076 Y11.4626 I0.8037 J-0.2566
G3 X42.4031 Y11.3799 I0.759 J-0.0827
G3 X42.4069 Y11.3031 I0.7635 J0
G3 X42.442 Y11.1565 I0.5606 J0.0567
G3 X42.5221 Y11.0072 I0.6429 J0.2486
G3 X42.631 Y10.884 I0.6192 J0.4379
G3 X42.7661 Y10.7854 I0.526 J0.5783
G3 X42.9195 Y10.7189 I0.3639 J0.6302
G3 X43.0616 Y10.6953 I0.1629 J0.539
G3 X43.2083 Y10.7128 I0.0176 J0.476
G3 X43.2188 Y10.7159 I-0.1158 J0.411
G2 X43.1782 Y10.8142 I0.5364 J0.279
G2 X43.1439 Y11.0383 I0.7156 J0.2241
G2 X43.1467 Y11.1031 I0.7499 J0
G2 X43.2189 Y11.3759 I0.8215 J-0.0712
G2 X43.375 Y11.5983 I0.6832 J-0.3136
G2 X43.581 Y11.7475 I0.5958 J-0.6061
G2 X43.8398 Y11.8394 I0.4675 J-0.9056
G2 X44.0936 Y11.8634 I0.2338 J-1.1174
G2 X44.3563 Y11.8307 I-0.0218 J-1.2429
G2 X44.5793 Y11.7487 I-0.2248 J-0.9562
G2 X44.7937 Y11.6074 I-0.5352 J-1.0449
G2 X44.9669 Y11.4318 I-0.7939 J-0.957
G2 X45.0999 Y11.2282 I-0.9361 J-0.7563
G2 X45.1889 Y10.9935 I-0.975 J-0.5041
G2 X45.2152 Y10.7824 I-0.8338 J-0.2111
G2 X45.2151 Y10.7688 I-0.8601 J0
G2 X45.171 Y10.5261 I-0.756 J0.0119
G2 X45.0524 Y10.3152 I-0.6782 J0.2426
G2 X44.4673 Y9.8006 I-1.8068 J1.4643
G2 X43.7078 Y9.4842 I-1.3706 J2.2202
G2 X42.8877 Y9.4203 I-0.6095 J2.5296
G2 X42.1358 Y9.6127 I0.1863 J2.2932
G2 X41.791 Y9.8045 I0.9199 J2.0599
G2 X41.4716 Y10.0622 I1.3747 J2.0305
G2 X41.2061 Y10.3588 I1.7635 J1.8455
G2 X40.9848 Y10.6998 I2.1207 J1.6188
G2 X40.8178 Y11.0704 I2.3475 J1.2809
G2 X40.7112 Y11.4556 I2.427 J0.8786
G2 X40.6662 Y11.8652 I2.4436 J0.4759
G2 X40.6654 Y11.9265 I2.3028 J0.0613
G2 X40.6667 Y12.0044 I2.3036 J0
G2 X39.5294 Y11.3179 I-27.5411 J44.3399
G2 X38.1545 Y10.5394 I-26.4097 J45.0364
G2 X36.7566 Y9.8028 I-25.0229 J45.7932
G2 X35.3386 Y9.1096 I-23.5751 J46.4314
G2 X35.2901 Y9.0868 I-48.9412 J104.0904
G2 X35.1928 Y9.0412 I-196.9853 J419.4643
G3 X34.8347 Y8.8724 I54.4336 J-115.9818
G3 X34.6551 Y8.7868 I13.8763 J-29.3304
G3 X34.3567 Y8.6411 I11.7383 J-24.4227
G3 X34.1204 Y8.5217 I7.6728 J-15.4754
G3 X33.5384 Y8.2033 I6.0998 J-11.8431
G3 X33.1013 Y7.9309 I4.0532 J-6.991
G3 X32.6039 Y7.5641 I3.7093 J-5.5499
G3 X32.2173 Y7.2137 I3.0202 J-3.7213
G3 X31.8359 Y6.7707 I3.0006 J-2.969
G3 X31.5462 Y6.3155 I2.8932 J-2.1608
G2 X31.4418 Y6.1801 I-0.459 J0.246
G2 X31.2993 Y6.0861 I-0.3524 J0.3792
G2 X31.1602 Y6.0434 I-0.2469 J0.5563
G2 X30.9846 Y6.0279 I-0.1738 J0.966
G2 X30.8444 Y6.0358 I0.0024 J1.2947
G2 X30.6622 Y6.0633 I0.2573 J2.3212
G2 X30.5571 Y6.0854 I0.5443 J2.841
G2 X30.362 Y6.1324 I2.3376 J10.1456
G1 X30.3611 Y6.1326
G3 X30.0303 Y6.1928 I-0.623 J-2.4834
G3 X29.664 Y6.2125 I-0.3455 J-3.0079
G3 X29.3347 Y6.1944 I0.0235 J-3.419
G3 X28.9529 Y6.1386 I0.4785 J-4.6134
G3 X28.6325 Y6.0682 I1.0239 J-5.4239
G3 X28.2372 Y5.9588 I2.086 J-8.3076
G3 X27.9659 Y5.8727 I3.0874 J-10.2008
G3 X27.5286 Y5.7235 I8.786 J-26.4584
G3 X26.2284 Y5.2612 I51.2172 J-146.0975
G3 X25.2542 Y4.9033 I29.7207 J-82.4179
G3 X24.0402 Y4.4369 I25.7205 J-68.7616
G3 X23.6068 Y4.2639 I19.8157 J-50.2448
G1 Z-0.39 F50
G1 X28.1594 Y4.309 F30
G3 X28.6232 Y4.3168 I-0.3298 J33.4297
G3 X28.8908 Y4.3263 I-0.2664 J11.2197
G3 X29.2931 Y4.3545 I-0.4309 J9.0466
G3 X29.6111 Y4.3928 I-0.5298 J5.7336
G3 X29.9838 Y4.4634 I-0.712 J4.7832
G3 X30.2962 Y4.5504 I-0.7998 J3.4748
G3 X30.6328 Y4.6827 I-0.9857 J3.0024
G3 X30.9241 Y4.8395 I-1.1152 J2.4208
G3 X30.9789 Y4.8744 I-1.4486 J2.3316
G3 X31.0924 Y4.9497 I-6.3935 J9.7672
G2 X31.1967 Y5.019 I7.4304 J-11.0673
G2 X31.2506 Y5.0537 I1.8628 J-2.8316
G2 X31.3427 Y5.1094 I1.4992 J-2.3755
G2 X31.4189 Y5.1511 I0.8932 J-1.5434
G2 X31.6221 Y5.2359 I0.6295 J-1.2213
G2 X31.8031 Y5.2755 I0.2874 J-0.8805
G2 X31.9579 Y5.2804 I0.1064 J-0.9206
G2 X32.1169 Y5.2593 I-0.0525 J-1.0045
G2 X32.2531 Y5.2208 I-0.2337 J-1.0868
G2 X32.4024 Y5.1588 I-0.4989 J-1.4138
G2 X32.5203 Y5.0969 I-0.7806 J-1.6278
G2 X32.664 Y5.0089 I-1.4834 J-2.5856
G2 X32.7474 Y4.9529 I-2.0013 J-3.0717
G2 X32.9102 Y4.8388 I-8.3869 J-12.1327
G3 X33.0213 Y4.7603 I12.127 J17.0472
G3 X33.0757 Y4.7227 I2.8899 J4.1188
G3 X33.1669 Y4.6622 I2.3064 J3.3808
G3 X33.2381 Y4.6181 I1.3197 J2.0502
G3 X33.636 Y4.4348 I1.0607 J1.7792
G3 X34.114 Y4.3228 I0.823 J2.4369
G3 X34.5645 Y4.2969 I0.3936 J2.9077
G3 X35.0628 Y4.3415 I-0.0694 J3.5795
G3 X35.4819 Y4.4305 I-0.6791 J4.2282
G3 X35.9904 Y4.5878 I-1.6783 J6.3256
G3 X36.197 Y4.6642 I-2.757 J7.7767
G3 X36.4456 Y4.763 I-4.3544 J11.3143
G3 X36.6243 Y4.8377 I-5.66 J13.7908
G3 X36.8976 Y4.9554 I-13.71 J32.2069
G3 X39.0934 Y5.962 I-25.5871 J58.7176
G3 X41.077 Y6.9675 I-23.5571 J48.9332
G3 X43.1657 Y8.1451 I-23.7034 J44.48
G3 X45.0605 Y9.3401 I-22.5187 J37.8066
G3 X45.2971 Y9.5041 I-4.4469 J6.6688
G3 X45.4681 Y9.6335 I-2.6317 J3.655
G3 X45.6755 Y9.8114 I-2.2649 J2.8491
G3 X45.829 Y9.9673 I-1.614 J1.7438
G3 X45.9842 Y10.1641 I-1.4455 J1.2987
G3 X46.0879 Y10.3426 I-1.1149 J0.7674
G3 X46.1663 Y10.555 I-1.0557 J0.5102
G3 X46.1987 Y10.7636 I-0.9986 J0.2622
G3 X46.2001 Y10.8153 I-0.9938 J0.0517
G3 X46.1762 Y11.0323 I-0.9952 J0
G3 X46.0737 Y11.3194 I-1.214 J-0.2711
G3 X45.9177 Y11.5637 I-1.2613 J-0.6335
G3 X45.7046 Y11.7838 I-1.225 J-0.9729
G3 X45.4802 Y11.9468 I-1.1915 J-1.4048
G3 X45.1916 Y12.0999 I-1.32 J-2.1397
G3 X44.9386 Y12.2003 I-1.2499 J-2.7785
G3 X44.6036 Y12.3033 I-1.6285 J-4.703
G3 X44.1883 Y12.3948 I-1.1984 J-4.453
G3 X43.8674 Y12.4305 I-0.46 J-2.6692
G3 X43.4776 Y12.4153 I-0.1107 J-2.1533
G3 X43.1626 Y12.3394 I0.197 J-1.5097
G3 X42.8512 Y12.174 I0.4104 J-1.1492
G3 X42.6003 Y11.9268 I0.7203 J-0.9818
G3 X42.5051 Y11.777 I0.8703 J-0.6583
G3 X42.4426 Y11.6278 I0.8158 J-0.4296
G3 X42.4076 Y11.4626 I0.8037 J-0.2566
G3 X42.4031 Y11.3799 I0.759 J-0.0827
G3 X42.4069 Y11.3031 I0.7635 J0
G3 X42.442 Y11.1565 I0.5606 J0.0567
G3 X42.5221 Y11.0072 I0.6429 J0.2486
G3 X42.631 Y10.884 I0.6192 J0.4379
G3 X42.7661 Y10.7854 I0.526 J0.5783
G3 X42.9195 Y10.7189 I0.3639 J0.6302
G3 X43.0616 Y10.6953 I0.1629 J0.539
G3 X43.2083 Y10.7128 I0.0176 J0.476
G3 X43.2188 Y10.7159 I-0.1158 J0.411
G2 X43.1782 Y10.8142 I0.5364 J0.279
G2 X43.1439 Y11.0383 I0.7156 J0.2241
G2 X43.1467 Y11.1031 I0.7499 J0
G2 X43.2189 Y11.3759 I0.8215 J-0.0712
G2 X43.375 Y11.5983 I0.6832 J-0.3136
G2 X43.581 Y11.7475 I0.5958 J-0.6061
G2 X43.8398 Y11.8394 I0.4675 J-0.9056
G2 X44.0936 Y11.8634 I0.2338 J-1.1174
G2 X44.3563 Y11.8307 I-0.0218 J-1.2429
G2 X44.5793 Y11.7487 I-0.2248 J-0.9562
G2 X44.7937 Y11.6074 I-0.5352 J-1.0449
G2 X44.9669 Y11.4318 I-0.7939 J-0.957
G2 X45.0999 Y11.2282 I-0.9361 J-0.7563
G2 X45.1889 Y10.9935 I-0.975 J-0.5041
G2 X45.2152 Y10.7824 I-0.8338 J-0.2111
G2 X45.2151 Y10.7688 I-0.8601 J0
G2 X45.171 Y10.5261 I-0.756 J0.0119
G2 X45.0524 Y10.3152 I-0.6782 J0.2426
G2 X44.4673 Y9.8006 I-1.8068 J1.4643
G2 X43.7078 Y9.4842 I-1.3706 J2.2202
G2 X42.8877 Y9.4203 I-0.6095 J2.5296
G2 X42.1358 Y9.6127 I0.1863 J2.2932
G2 X41.791 Y9.8045 I0.9199 J2.0599
G2 X41.4716 Y10.0622 I1.3747 J2.0305
G2 X41.2061 Y10.3588 I1.7635 J1.8455
G2 X40.9848 Y10.6998 I2.1207 J1.6188
G2 X40.8178 Y11.0704 I2.3475 J1.2809
G2 X40.7112 Y11.4556 I2.427 J0.8786
G2 X40.6662 Y11.8652 I2.4436 J0.4759
G2 X40.6654 Y11.9265 I2.3028 J0.0613
G2 X40.6667 Y12.0044 I2.3036 J0
G2 X39.5294 Y11.3179 I-27.5411 J44.3399
G2 X38.1545 Y10.5394 I-26.4097 J45.0364
G2 X36.7566 Y9.8028 I-25.0229 J45.7932
G2 X35.3386 Y9.1096 I-23.5751 J46.4314
G2 X35.2901 Y9.0868 I-48.9412 J104.0904
G2 X35.1928 Y9.0412 I-196.9853 J419.4643
G3 X34.8347 Y8.8724 I54.4336 J-115.9818
G3 X34.6551 Y8.7868 I13.8763 J-29.3304
G3 X34.3567 Y8.6411 I11.7383 J-24.4227
G3 X34.1204 Y8.5217 I7.6728 J-15.4754
G3 X33.5384 Y8.2033 I6.0998 J-11.8431
G3 X33.1013 Y7.9309 I4.0532 J-6.991
G3 X32.6039 Y7.5641 I3.7093 J-5.5499
G3 X32.2173 Y7.2137 I3.0202 J-3.7213
G3 X31.8359 Y6.7707 I3.0006 J-2.969
G3 X31.5462 Y6.3155 I2.8932 J-2.1608
G2 X31.4418 Y6.1801 I-0.459 J0.246
G2 X31.2993 Y6.0861 I-0.3524 J0.3792
G2 X31.1602 Y6.0434 I-0.2469 J0.5563
G2 X30.9846 Y6.0279 I-0.1738 J0.966
G2 X30.8444 Y6.0358 I0.0024 J1.2947
G2 X30.6622 Y6.0633 I0.2573 J2.3212
G2 X30.5571 Y6.0854 I0.5443 J2.841
G2 X30.362 Y6.1324 I2.3376 J10.1456
G1 X30.3611 Y6.1326
G3 X30.0303 Y6.1928 I-0.623 J-2.4834
G3 X29.664 Y6.2125 I-0.3455 J-3.0079
G3 X29.3347 Y6.1944 I0.0235 J-3.419
G3 X28.9529 Y6.1386 I0.4785 J-4.6134
G3 X28.6325 Y6.0682 I1.0239 J-5.4239
G3 X28.2372 Y5.9588 I2.086 J-8.3076
G3 X27.9659 Y5.8727 I3.0874 J-10.2008
G3 X27.5286 Y5.7235 I8.786 J-26.4584
G3 X26.2284 Y5.2612 I51.2172 J-146.0975
G3 X25.2542 Y4.9033 I29.7207 J-82.4179
G3 X24.0402 Y4.4369 I25.7205 J-68.7616
G3 X23.6068 Y4.2639 I19.8157 J-50.2448
G1 Z-0.52 F50
G1 X28.1594 Y4.309 F30
G3 X28.6232 Y4.3168 I-0.3298 J33.4297
G3 X28.8908 Y4.3263 I-0.2664 J11.2197
G3 X29.2931 Y4.3545 I-0.4309 J9.0466
G3 X29.6111 Y4.3928 I-0.5298 J5.7336
G3 X29.9838 Y4.4634 I-0.712 J4.7832
G3 X30.2962 Y4.5504 I-0.7998 J3.4748
G3 X30.6328 Y4.6827 I-0.9857 J3.0024
G3 X30.9241 Y4.8395 I-1.1152 J2.4208
G3 X30.9789 Y4.8744 I-1.4486 J2.3316
G3 X31.0924 Y4.9497 I-6.3935 J9.7672
G2 X31.1967 Y5.019 I7.4304 J-11.0673
G2 X31.2506 Y5.0537 I1.8628 J-2.8316
G2 X31.3427 Y5.1094 I1.4992 J-2.3755
G2 X31.4189 Y5.1511 I0.8932 J-1.5434
G2 X31.6221 Y5.2359 I0.6295 J-1.2213
G2 X31.8031 Y5.2755 I0.2874 J-0.8805
G2 X31.9579 Y5.2804 I0.1064 J-0.9206
G2 X32.1169 Y5.2593 I-0.0525 J-1.0045
G2 X32.2531 Y5.2208 I-0.2337 J-1.0868
G2 X32.4024 Y5.1588 I-0.4989 J-1.4138
G2 X32.5203 Y5.0969 I-0.7806 J-1.6278
G2 X32.664 Y5.0089 I-1.4834 J-2.5856
G2 X32.7474 Y4.9529 I-2.0013 J-3.0717
G2 X32.9102 Y4.8388 I-8.3869 J-12.1327
G3 X33.0213 Y4.7603 I12.127 J17.0472
G3 X33.0757 Y4.7227 I2.8899 J4.1188
G3 X33.1669 Y4.6622 I2.3064 J3.3808
G3 X33.2381 Y4.6181 I1.3197 J2.0502
G3 X33.636 Y4.4348 I1.0607 J1.7792
G3 X34.114 Y4.3228 I0.823 J2.4369
G3 X34.5645 Y4.2969 I0.3936 J2.9077
G3 X35.0628 Y4.3415 I-0.0694 J3.5795
G3 X35.4819 Y4.4305 I-0.6791 J4.2282
G3 X35.9904 Y4.5878 I-1.6783 J6.3256
G3 X36.197 Y4.6642 I-2.757 J7.7767
G3 X36.4456 Y4.763 I-4.3544 J11.3143
G3 X36.6243 Y4.8377 I-5.66 J13.7908
G3 X36.8976 Y4.9554 I-13.71 J32.2069
G3 X39.0934 Y5.962 I-25.5871 J58.7176
G3 X41.077 Y6.9675 I-23.5571 J48.9332
G3 X43.1657 Y8.1451 I-23.7034 J44.48
G3 X45.0605 Y9.3401 I-22.5187 J37.8066
G3 X45.2971 Y9.5041 I-4.4469 J6.6688
G3 X45.4681 Y9.6335 I-2.6317 J3.655
G3 X45.6755 Y9.8114 I-2.2649 J2.8491
G3 X45.829 Y9.9673 I-1.614 J1.7438
G3 X45.9842 Y10.1641 I-1.4455 J1.2987
G3 X46.0879 Y10.3426 I-1.1149 J0.7674
G3 X46.1663 Y10.555 I-1.0557 J0.5102
G3 X46.1987 Y10.7636 I-0.9986 J0.2622
G3 X46.2001 Y10.8153 I-0.9938 J0.0517
G3 X46.1762 Y11.0323 I-0.9952 J0
G3 X46.0737 Y11.3194 I-1.214 J-0.2711
G3 X45.9177 Y11.5637 I-1.2613 J-0.6335
G3 X45.7046 Y11.7838 I-1.225 J-0.9729
G3 X45.4802 Y11.9468 I-1.1915 J-1.4048
G3 X45.1916 Y12.0999 I-1.32 J-2.1397
G3 X44.9386 Y12.2003 I-1.2499 J-2.7785
G3 X44.6036 Y12.3033 I-1.6285 J-4.703
G3 X44.1883 Y12.3948 I-1.1984 J-4.453
G3 X43.8674 Y12.4305 I-0.46 J-2.6692
G3 X43.4776 Y12.4153 I-0.1107 J-2.1533
G3 X43.1626 Y12.3394 I0.197 J-1.5097
G3 X42.8512 Y12.174 I0.4104 J-1.1492
G3 X42.6003 Y11.9268 I0.7203 J-0.9818
G3 X42.5051 Y11.777 I0.8703 J-0.6583
G3 X42.4426 Y11.6278 I0.8158 J-0.4296
G3 X42.4076 Y11.4626 I0.8037 J-0.2566
G3 X42.4031 Y11.3799 I0.759 J-0.0827
G3 X42.4069 Y11.3031 I0.7635 J0
G3 X42.442 Y11.1565 I0.5606 J0.0567
G3 X42.5221 Y11.0072 I0.6429 J0.2486
G3 X42.631 Y10.884 I0.6192 J0.4379
G3 X42.7661 Y10.7854 I0.526 J0.5783
G3 X42.9195 Y10.7189 I0.3639 J0.6302
G3 X43.0616 Y10.6953 I0.1629 J0.539
G3 X43.2083 Y10.7128 I0.0176 J0.476
G3 X43.2188 Y10.7159 I-0.1158 J0.411
G2 X43.1782 Y10.8142 I0.5364 J0.279
G2 X43.1439 Y11.0383 I0.7156 J0.2241
G2 X43.1467 Y11.1031 I0.7499 J0
G2 X43.2189 Y11.3759 I0.8215 J-0.0712
G2 X43.375 Y11.5983 I0.6832 J-0.3136
G2 X43.581 Y11.7475 I0.5958 J-0.6061
G2 X43.8398 Y11.8394 I0.4675 J-0.9056
G2 X44.0936 Y11.8634 I0.2338 J-1.1174
G2 X44.3563 Y11.8307 I-0.0218 J-1.2429
G2 X44.5793 Y11.7487 I-0.2248 J-0.9562
G2 X44.7937 Y11.6074 I-0.5352 J-1.0449
G2 X44.9669 Y11.4318 I-0.7939 J-0.957
G2 X45.0999 Y11.2282 I-0.9361 J-0.7563
G2 X45.1889 Y10.9935 I-0.975 J-0.5041
G2 X45.2152 Y10.7824 I-0.8338 J-0.2111
G2 X45.2151 Y10.7688 I-0.8601 J0
G2 X45.171 Y10.5261 I-0.756 J0.0119
G2 X45.0524 Y10.3152 I-0.6782 J0.2426
G2 X44.4673 Y9.8006 I-1.8068 J1.4643
G2 X43.7078 Y9.4842 I-1.3706 J2.2202
G2 X42.8877 Y9.4203 I-0.6095 J2.5296
G2 X42.1358 Y9.6127 I0.1863 J2.2932
G2 X41.791 Y9.8045 I0.9199 J2.0599
G2 X41.4716 Y10.0622 I1.3747 J2.0305
G2 X41.2061 Y10.3588 I1.7635 J1.8455
G2 X40.9848 Y10.6998 I2.1207 J1.6188
G2 X40.8178 Y11.0704 I2.3475 J1.2809
G2 X40.7112 Y11.4556 I2.427 J0.8786
G2 X40.6662 Y11.8652 I2.4436 J0.4759
G2 X40.6654 Y11.9265 I2.3028 J0.0613
G2 X40.6667 Y12.0044 I2.3036 J0
G2 X39.5294 Y11.3179 I-27.5411 J44.3399
G2 X38.1545 Y10.5394 I-26.4097 J45.0364
G2 X36.7566 Y9.8028 I-25.0229 J45.7932
G2 X35.3386 Y9.1096 I-23.5751 J46.4314
G2 X35.2901 Y9.0868 I-48.9412 J104.0904
G2 X35.1928 Y9.0412 I-196.9853 J419.4643
G3 X34.8347 Y8.8724 I54.4336 J-115.9818
G3 X34.6551 Y8.7868 I13.8763 J-29.3304
G3 X34.3567 Y8.6411 I11.7383 J-24.4227
G3 X34.1204 Y8.5217 I7.6728 J-15.4754
G3 X33.5384 Y8.2033 I6.0998 J-11.8431
G3 X33.1013 Y7.9309 I4.0532 J-6.991
G3 X32.6039 Y7.5641 I3.7093 J-5.5499
G3 X32.2173 Y7.2137 I3.0202 J-3.7213
G3 X31.8359 Y6.7707 I3.0006 J-2.969
G3 X31.5462 Y6.3155 I2.8932 J-2.1608
G2 X31.4418 Y6.1801 I-0.459 J0.246
G2 X31.2993 Y6.0861 I-0.3524 J0.3792
G2 X31.1602 Y6.0434 I-0.2469 J0.5563
G2 X30.9846 Y6.0279 I-0.1738 J0.966
G2 X30.8444 Y6.0358 I0.0024 J1.2947
G2 X30.6622 Y6.0633 I0.2573 J2.3212
G2 X30.5571 Y6.0854 I0.5443 J2.841
G2 X30.362 Y6.1324 I2.3376 J10.1456
G1 X30.3611 Y6.1326
G3 X30.0303 Y6.1928 I-0.623 J-2.4834
G3 X29.664 Y6.2125 I-0.3455 J-3.0079
G3 X29.3347 Y6.1944 I0.0235 J-3.419
G3 X28.9529 Y6.1386 I0.4785 J-4.6134
G3 X28.6325 Y6.0682 I1.0239 J-5.4239
G3 X28.2372 Y5.9588 I2.086 J-8.3076
G3 X27.9659 Y5.8727 I3.0874 J-10.2008
G3 X27.5286 Y5.7235 I8.786 J-26.4584
G3 X26.2284 Y5.2612 I51.2172 J-146.0975
G3 X25.2542 Y4.9033 I29.7207 J-82.4179
G3 X24.0402 Y4.4369 I25.7205 J-68.7616
G3 X23.6068 Y4.2639 I19.8157 J-50.2448
G1 Z-0.65 F50
G1 X28.1594 Y4.309 F30
G3 X28.6232 Y4.3168 I-0.3298 J33.4297
G3 X28.8908 Y4.3263 I-0.2664 J11.2197
G3 X29.2931 Y4.3545 I-0.4309 J9.0466
G3 X29.6111 Y4.3928 I-0.5298 J5.7336
G3 X29.9838 Y4.4634 I-0.712 J4.7832
G3 X30.2962 Y4.5504 I-0.7998 J3.4748
G3 X30.6328 Y4.6827 I-0.9857 J3.0024
G3 X30.9241 Y4.8395 I-1.1152 J2.4208
G3 X30.9789 Y4.8744 I-1.4486 J2.3316
G3 X31.0924 Y4.9497 I-6.3935 J9.7672
G2 X31.1967 Y5.019 I7.4304 J-11.0673
G2 X31.2506 Y5.0537 I1.8628 J-2.8316
G2 X31.3427 Y5.1094 I1.4992 J-2.3755
G2 X31.4189 Y5.1511 I0.8932 J-1.5434
G2 X31.6221 Y5.2359 I0.6295 J-1.2213
G2 X31.8031 Y5.2755 I0.2874 J-0.8805
G2 X31.9579 Y5.2804 I0.1064 J-0.9206
G2 X32.1169 Y5.2593 I-0.0525 J-1.0045
G2 X32.2531 Y5.2208 I-0.2337 J-1.0868
G2 X32.4024 Y5.1588 I-0.4989 J-1.4138
G2 X32.5203 Y5.0969 I-0.7806 J-1.6278
G2 X32.664 Y5.0089 I-1.4834 J-2.5856
G2 X32.7474 Y4.9529 I-2.0013 J-3.0717
G2 X32.9102 Y4.8388 I-8.3869 J-12.1327
G3 X33.0213 Y4.7603 I12.127 J17.0472
G3 X33.0757 Y4.7227 I2.8899 J4.1188
G3 X33.1669 Y4.6622 I2.3064 J3.3808
G3 X33.2381 Y4.6181 I1.3197 J2.0502
G3 X33.636 Y4.4348 I1.0607 J1.7792
G3 X34.114 Y4.3228 I0.823 J2.4369
G3 X34.5645 Y4.2969 I0.3936 J2.9077
G3 X35.0628 Y4.3415 I-0.0694 J3.5795
G3 X35.4819 Y4.4305 I-0.6791 J4.2282
G3 X35.9904 Y4.5878 I-1.6783 J6.3256
G3 X36.197 Y4.6642 I-2.757 J7.7767
G3 X36.4456 Y4.763 I-4.3544 J11.3143
G3 X36.6243 Y4.8377 I-5.66 J13.7908
G3 X36.8976 Y4.9554 I-13.71 J32.2069
G3 X39.0934 Y5.962 I-25.5871 J58.7176
G3 X41.077 Y6.9675 I-23.5571 J48.9332
G3 X43.1657 Y8.1451 I-23.7034 J44.48
G3 X45.0605 Y9.3401 I-22.5187 J37.8066
G3 X45.2971 Y9.5041 I-4.4469 J6.6688
G3 X45.4681 Y9.6335 I-2.6317 J3.655
G3 X45.6755 Y9.8114 I-2.2649 J2.8491
G3 X45.829 Y9.9673 I-1.614 J1.7438
G3 X45.9842 Y10.1641 I-1.4455 J1.2987
G3 X46.0879 Y10.3426 I-1.1149 J0.7674
G3 X46.1663 Y10.555 I-1.0557 J0.5102
G3 X46.1987 Y10.7636 I-0.9986 J0.2622
G3 X46.2001 Y10.8153 I-0.9938 J0.0517
G3 X46.1762 Y11.0323 I-0.9952 J0
G3 X46.0737 Y11.3194 I-1.214 J-0.2711
G3 X45.9177 Y11.5637 I-1.2613 J-0.6335
G3 X45.7046 Y11.7838 I-1.225 J-0.9729
G3 X45.4802 Y11.9468 I-1.1915 J-1.4048
G3 X45.1916 Y12.0999 I-1.32 J-2.1397
G3 X44.9386 Y12.2003 I-1.2499 J-2.7785
G3 X44.6036 Y12.3033 I-1.6285 J-4.703
G3 X44.1883 Y12.3948 I-1.1984 J-4.453
G3 X43.8674 Y12.4305 I-0.46 J-2.6692
G3 X43.4776 Y12.4153 I-0.1107 J-2.1533
G3 X43.1626 Y12.3394 I0.197 J-1.5097
G3 X42.8512 Y12.174 I0.4104 J-1.1492
G3 X42.6003 Y11.9268 I0.7203 J-0.9818
G3 X42.5051 Y11.777 I0.8703 J-0.6583
G3 X42.4426 Y11.6278 I0.8158 J-0.4296
G3 X42.4076 Y11.4626 I0.8037 J-0.2566
G3 X42.4031 Y11.3799 I0.759 J-0.0827
G3 X42.4069 Y11.3031 I0.7635 J0
G3 X42.442 Y11.1565 I0.5606 J0.0567
G3 X42.5221 Y11.0072 I0.6429 J0.2486
G3 X42.631 Y10.884 I0.6192 J0.4379
G3 X42.7661 Y10.7854 I0.526 J0.5783
G3 X42.9195 Y10.7189 I0.3639 J0.6302
G3 X43.0616 Y10.6953 I0.1629 J0.539
G3 X43.2083 Y10.7128 I0.0176 J0.476
G3 X43.2188 Y10.7159 I-0.1158 J0.411
G2 X43.1782 Y10.8142 I0.5364 J0.279
G2 X43.1439 Y11.0383 I0.7156 J0.2241
G2 X43.1467 Y11.1031 I0.7499 J0
G2 X43.2189 Y11.3759 I0.8215 J-0.0712
G2 X43.375 Y11.5983 I0.6832 J-0.3136
G2 X43.581 Y11.7475 I0.5958 J-0.6061
G2 X43.8398 Y11.8394 I0.4675 J-0.9056
G2 X44.0936 Y11.8634 I0.2338 J-1.1174
G2 X44.3563 Y11.8307 I-0.0218 J-1.2429
G2 X44.5793 Y11.7487 I-0.2248 J-0.9562
G2 X44.7937 Y11.6074 I-0.5352 J-1.0449
G2 X44.9669 Y11.4318 I-0.7939 J-0.957
G2 X45.0999 Y11.2282 I-0.9361 J-0.7563
G2 X45.1889 Y10.9935 I-0.975 J-0.5041
G2 X45.2152 Y10.7824 I-0.8338 J-0.2111
G2 X45.2151 Y10.7688 I-0.8601 J0
G2 X45.171 Y10.5261 I-0.756 J0.0119
G2 X45.0524 Y10.3152 I-0.6782 J0.2426
G2 X44.4673 Y9.8006 I-1.8068 J1.4643
G2 X43.7078 Y9.4842 I-1.3706 J2.2202
G2 X42.8877 Y9.4203 I-0.6095 J2.5296
G2 X42.1358 Y9.6127 I0.1863 J2.2932
G2 X41.791 Y9.8045 I0.9199 J2.0599
G2 X41.4716 Y10.0622 I1.3747 J2.0305
G2 X41.2061 Y10.3588 I1.7635 J1.8455
G2 X40.9848 Y10.6998 I2.1207 J1.6188
G2 X40.8178 Y11.0704 I2.3475 J1.2809
G2 X40.7112 Y11.4556 I2.427 J0.8786
G2 X40.6662 Y11.8652 I2.4436 J0.4759
G2 X40.6654 Y11.9265 I2.3028 J0.0613
G2 X40.6667 Y12.0044 I2.3036 J0
G2 X39.5294 Y11.3179 I-27.5411 J44.3399
G2 X38.1545 Y10.5394 I-26.4097 J45.0364
G2 X36.7566 Y9.8028 I-25.0229 J45.7932
G2 X35.3386 Y9.1096 I-23.5751 J46.4314
G2 X35.2901 Y9.0868 I-48.9412 J104.0904
G2 X35.1928 Y9.0412 I-196.9853 J419.4643
G3 X34.8347 Y8.8724 I54.4336 J-115.9818
G3 X34.6551 Y8.7868 I13.8763 J-29.3304
G3 X34.3567 Y8.6411 I11.7383 J-24.4227
G3 X34.1204 Y8.5217 I7.6728 J-15.4754
G3 X33.5384 Y8.2033 I6.0998 J-11.8431
G3 X33.1013 Y7.9309 I4.0532 J-6.991
G3 X32.6039 Y7.5641 I3.7093 J-5.5499
G3 X32.2173 Y7.2137 I3.0202 J-3.7213
G3 X31.8359 Y6.7707 I3.0006 J-2.969
G3 X31.5462 Y6.3155 I2.8932 J-2.1608
G2 X31.4418 Y6.1801 I-0.459 J0.246
G2 X31.2993 Y6.0861 I-0.3524 J0.3792
G2 X31.1602 Y6.0434 I-0.2469 J0.5563
G2 X30.9846 Y6.0279 I-0.1738 J0.966
G2 X30.8444 Y6.0358 I0.0024 J1.2947
G2 X30.6622 Y6.0633 I0.2573 J2.3212
G2 X30.5571 Y6.0854 I0.5443 J2.841
G2 X30.362 Y6.1324 I2.3376 J10.1456
G1 X30.3611 Y6.1326
G3 X30.0303 Y6.1928 I-0.623 J-2.4834
G3 X29.664 Y6.2125 I-0.3455 J-3.0079
G3 X29.3347 Y6.1944 I0.0235 J-3.419
G3 X28.9529 Y6.1386 I0.4785 J-4.6134
G3 X28.6325 Y6.0682 I1.0239 J-5.4239
G3 X28.2372 Y5.9588 I2.086 J-8.3076
G3 X27.9659 Y5.8727 I3.0874 J-10.2008
G3 X27.5286 Y5.7235 I8.786 J-26.4584
G3 X26.2284 Y5.2612 I51.2172 J-146.0975
G3 X25.2542 Y4.9033 I29.7207 J-82.4179
G3 X24.0402 Y4.4369 I25.7205 J-68.7616
G3 X23.6068 Y4.2639 I19.8157 J-50.2448
G1 Z-0.78 F50
G1 X28.1594 Y4.309 F30
G3 X28.6232 Y4.3168 I-0.3298 J33.4297
G3 X28.8908 Y4.3263 I-0.2664 J11.2197
G3 X29.2931 Y4.3545 I-0.4309 J9.0466
G3 X29.6111 Y4.3928 I-0.5298 J5.7336
G3 X29.9838 Y4.4634 I-0.712 J4.7832
G3 X30.2962 Y4.5504 I-0.7998 J3.4748
G3 X30.6328 Y4.6827 I-0.9857 J3.0024
G3 X30.9241 Y4.8395 I-1.1152 J2.4208
G3 X30.9789 Y4.8744 I-1.4486 J2.3316
G3 X31.0924 Y4.9497 I-6.3935 J9.7672
G2 X31.1967 Y5.019 I7.4304 J-11.0673
G2 X31.2506 Y5.0537 I1.8628 J-2.8316
G2 X31.3427 Y5.1094 I1.4992 J-2.3755
G2 X31.4189 Y5.1511 I0.8932 J-1.5434
G2 X31.6221 Y5.2359 I0.6295 J-1.2213
G2 X31.8031 Y5.2755 I0.2874 J-0.8805
G2 X31.9579 Y5.2804 I0.1064 J-0.9206
G2 X32.1169 Y5.2593 I-0.0525 J-1.0045
G2 X32.2531 Y5.2208 I-0.2337 J-1.0868
G2 X32.4024 Y5.1588 I-0.4989 J-1.4138
G2 X32.5203 Y5.0969 I-0.7806 J-1.6278
G2 X32.664 Y5.0089 I-1.4834 J-2.5856
G2 X32.7474 Y4.9529 I-2.0013 J-3.0717
G2 X32.9102 Y4.8388 I-8.3869 J-12.1327
G3 X33.0213 Y4.7603 I12.127 J17.0472
G3 X33.0757 Y4.7227 I2.8899 J4.1188
G3 X33.1669 Y4.6622 I2.3064 J3.3808
G3 X33.2381 Y4.6181 I1.3197 J2.0502
G3 X33.636 Y4.4348 I1.0607 J1.7792
G3 X34.114 Y4.3228 I0.823 J2.4369
G3 X34.5645 Y4.2969 I0.3936 J2.9077
G3 X35.0628 Y4.3415 I-0.0694 J3.5795
G3 X35.4819 Y4.4305 I-0.6791 J4.2282
G3 X35.9904 Y4.5878 I-1.6783 J6.3256
G3 X36.197 Y4.6642 I-2.757 J7.7767
G3 X36.4456 Y4.763 I-4.3544 J11.3143
G3 X36.6243 Y4.8377 I-5.66 J13.7908
G3 X36.8976 Y4.9554 I-13.71 J32.2069
G3 X39.0934 Y5.962 I-25.5871 J58.7176
G3 X41.077 Y6.9675 I-23.5571 J48.9332
G3 X43.1657 Y8.1451 I-23.7034 J44.48
G3 X45.0605 Y9.3401 I-22.5187 J37.8066
G3 X45.2971 Y9.5041 I-4.4469 J6.6688
G3 X45.4681 Y9.6335 I-2.6317 J3.655
G3 X45.6755 Y9.8114 I-2.2649 J2.8491
G3 X45.829 Y9.9673 I-1.614 J1.7438
G3 X45.9842 Y10.1641 I-1.4455 J1.2987
G3 X46.0879 Y10.3426 I-1.1149 J0.7674
G3 X46.1663 Y10.555 I-1.0557 J0.5102
G3 X46.1987 Y10.7636 I-0.9986 J0.2622
G3 X46.2001 Y10.8153 I-0.9938 J0.0517
G3 X46.1762 Y11.0323 I-0.9952 J0
G3 X46.0737 Y11.3194 I-1.214 J-0.2711
G3 X45.9177 Y11.5637 I-1.2613 J-0.6335
G3 X45.7046 Y11.7838 I-1.225 J-0.9729
G3 X45.4802 Y11.9468 I-1.1915 J-1.4048
G3 X45.1916 Y12.0999 I-1.32 J-2.1397
G3 X44.9386 Y12.2003 I-1.2499 J-2.7785
G3 X44.6036 Y12.3033 I-1.6285 J-4.703
G3 X44.1883 Y12.3948 I-1.1984 J-4.453
G3 X43.8674 Y12.4305 I-0.46 J-2.6692
G3 X43.4776 Y12.4153 I-0.1107 J-2.1533
G3 X43.1626 Y12.3394 I0.197 J-1.5097
G3 X42.8512 Y12.174 I0.4104 J-1.1492
G3 X42.6003 Y11.9268 I0.7203 J-0.9818
G3 X42.5051 Y11.777 I0.8703 J-0.6583
G3 X42.4426 Y11.6278 I0.8158 J-0.4296
G3 X42.4076 Y11.4626 I0.8037 J-0.2566
G3 X42.4031 Y11.3799 I0.759 J-0.0827
G3 X42.4069 Y11.3031 I0.7635 J0
G3 X42.442 Y11.1565 I0.5606 J0.0567
G3 X42.5221 Y11.0072 I0.6429 J0.2486
G3 X42.631 Y10.884 I0.6192 J0.4379
G3 X42.7661 Y10.7854 I0.526 J0.5783
G3 X42.9195 Y10.7189 I0.3639 J0.6302
G3 X43.0616 Y10.6953 I0.1629 J0.539
G3 X43.2083 Y10.7128 I0.0176 J0.476
G3 X43.2188 Y10.7159 I-0.1158 J0.411
G2 X43.1782 Y10.8142 I0.5364 J0.279
G2 X43.1439 Y11.0383 I0.7156 J0.2241
G2 X43.1467 Y11.1031 I0.7499 J0
G2 X43.2189 Y11.3759 I0.8215 J-0.0712
G2 X43.375 Y11.5983 I0.6832 J-0.3136
G2 X43.581 Y11.7475 I0.5958 J-0.6061
G2 X43.8398 Y11.8394 I0.4675 J-0.9056
G2 X44.0936 Y11.8634 I0.2338 J-1.1174
G2 X44.3563 Y11.8307 I-0.0218 J-1.2429
G2 X44.5793 Y11.7487 I-0.2248 J-0.9562
G2 X44.7937 Y11.6074 I-0.5352 J-1.0449
G2 X44.9669 Y11.4318 I-0.7939 J-0.957
G2 X45.0999 Y11.2282 I-0.9361 J-0.7563
G2 X45.1889 Y10.9935 I-0.975 J-0.5041
G2 X45.2152 Y10.7824 I-0.8338 J-0.2111
G2 X45.2151 Y10.7688 I-0.8601 J0
G2 X45.171 Y10.5261 I-0.756 J0.0119
G2 X45.0524 Y10.3152 I-0.6782 J0.2426
G2 X44.4673 Y9.8006 I-1.8068 J1.4643
G2 X43.7078 Y9.4842 I-1.3706 J2.2202
G2 X42.8877 Y9.4203 I-0.6095 J2.5296
G2 X42.1358 Y9.6127 I0.1863 J2.2932
G2 X41.791 Y9.8045 I0.9199 J2.0599
G2 X41.4716 Y10.0622 I1.3747 J2.0305
G2 X41.2061 Y10.3588 I1.7635 J1.8455
G2 X40.9848 Y10.6998 I2.1207 J1.6188
G2 X40.8178 Y11.0704 I2.3475 J1.2809
G2 X40.7112 Y11.4556 I2.427 J0.8786
G2 X40.6662 Y11.8652 I2.4436 J0.4759
G2 X40.6654 Y11.9265 I2.3028 J0.0613
G2 X40.6667 Y12.0044 I2.3036 J0
G2 X39.5294 Y11.3179 I-27.5411 J44.3399
G2 X38.1545 Y10.5394 I-26.4097 J45.0364
G2 X36.7566 Y9.8028 I-25.0229 J45.7932
G2 X35.3386 Y9.1096 I-23.5751 J46.4314
G2 X35.2901 Y9.0868 I-48.9412 J104.0904
G2 X35.1928 Y9.0412 I-196.9853 J419.4643
G3 X34.8347 Y8.8724 I54.4336 J-115.9818
G3 X34.6551 Y8.7868 I13.8763 J-29.3304
G3 X34.3567 Y8.6411 I11.7383 J-24.4227
G3 X34.1204 Y8.5217 I7.6728 J-15.4754
G3 X33.5384 Y8.2033 I6.0998 J-11.8431
G3 X33.1013 Y7.9309 I4.0532 J-6.991
G3 X32.6039 Y7.5641 I3.7093 J-5.5499
G3 X32.2173 Y7.2137 I3.0202 J-3.7213
G3 X31.8359 Y6.7707 I3.0006 J-2.969
G3 X31.5462 Y6.3155 I2.8932 J-2.1608
G2 X31.4418 Y6.1801 I-0.459 J0.246
G2 X31.2993 Y6.0861 I-0.3524 J0.3792
G2 X31.1602 Y6.0434 I-0.2469 J0.5563
G2 X30.9846 Y6.0279 I-0.1738 J0.966
G2 X30.8444 Y6.0358 I0.0024 J1.2947
G2 X30.6622 Y6.0633 I0.2573 J2.3212
G2 X30.5571 Y6.0854 I0.5443 J2.841
G2 X30.362 Y6.1324 I2.3376 J10.1456
G1 X30.3611 Y6.1326
G3 X30.0303 Y6.1928 I-0.623 J-2.4834
G3 X29.664 Y6.2125 I-0.3455 J-3.0079
G3 X29.3347 Y6.1944 I0.0235 J-3.419
G3 X28.9529 Y6.1386 I0.4785 J-4.6134
G3 X28.6325 Y6.0682 I1.0239 J-5.4239
G3 X28.2372 Y5.9588 I2.086 J-8.3076
G3 X27.9659 Y5.8727 I3.0874 J-10.2008
G3 X27.5286 Y5.7235 I8.786 J-26.4584
G3 X26.2284 Y5.2612 I51.2172 J-146.0975
G3 X25.2542 Y4.9033 I29.7207 J-82.4179
G3 X24.0402 Y4.4369 I25.7205 J-68.7616
G3 X23.6068 Y4.2639 I19.8157 J-50.2448
G1 Z-0.79 F50
G1 X28.1594 Y4.309 F30
G3 X28.6232 Y4.3168 I-0.3298 J33.4297
G3 X28.8908 Y4.3263 I-0.2664 J11.2197
G3 X29.2931 Y4.3545 I-0.4309 J9.0466
G3 X29.6111 Y4.3928 I-0.5298 J5.7336
G3 X29.9838 Y4.4634 I-0.712 J4.7832
G3 X30.2962 Y4.5504 I-0.7998 J3.4748
G3 X30.6328 Y4.6827 I-0.9857 J3.0024
G3 X30.9241 Y4.8395 I-1.1152 J2.4208
G3 X30.9789 Y4.8744 I-1.4486 J2.3316
G3 X31.0924 Y4.9497 I-6.3935 J9.7672
G2 X31.1967 Y5.019 I7.4304 J-11.0673
G2 X31.2506 Y5.0537 I1.8628 J-2.8316
G2 X31.3427 Y5.1094 I1.4992 J-2.3755
G2 X31.4189 Y5.1511 I0.8932 J-1.5434
G2 X31.6221 Y5.2359 I0.6295 J-1.2213
G2 X31.8031 Y5.2755 I0.2874 J-0.8805
G2 X31.9579 Y5.2804 I0.1064 J-0.9206
G2 X32.1169 Y5.2593 I-0.0525 J-1.0045
G2 X32.2531 Y5.2208 I-0.2337 J-1.0868
G2 X32.4024 Y5.1588 I-0.4989 J-1.4138
G2 X32.5203 Y5.0969 I-0.7806 J-1.6278
G2 X32.664 Y5.0089 I-1.4834 J-2.5856
G2 X32.7474 Y4.9529 I-2.0013 J-3.0717
G2 X32.9102 Y4.8388 I-8.3869 J-12.1327
G3 X33.0213 Y4.7603 I12.127 J17.0472
G3 X33.0757 Y4.7227 I2.8899 J4.1188
G3 X33.1669 Y4.6622 I2.3064 J3.3808
G3 X33.2381 Y4.6181 I1.3197 J2.0502
G3 X33.636 Y4.4348 I1.0607 J1.7792
G3 X34.114 Y4.3228 I0.823 J2.4369
G3 X34.5645 Y4.2969 I0.3936 J2.9077
G3 X35.0628 Y4.3415 I-0.0694 J3.5795
G3 X35.4819 Y4.4305 I-0.6791 J4.2282
G3 X35.9904 Y4.5878 I-1.6783 J6.3256
G3 X36.197 Y4.6642 I-2.757 J7.7767
G3 X36.4456 Y4.763 I-4.3544 J11.3143
G3 X36.6243 Y4.8377 I-5.66 J13.7908
G3 X36.8976 Y4.9554 I-13.71 J32.2069
G3 X39.0934 Y5.962 I-25.5871 J58.7176
G3 X41.077 Y6.9675 I-23.5571 J48.9332
G3 X43.1657 Y8.1451 I-23.7034 J44.48
G3 X45.0605 Y9.3401 I-22.5187 J37.8066
G3 X45.2971 Y9.5041 I-4.4469 J6.6688
G3 X45.4681 Y9.6335 I-2.6317 J3.655
G3 X45.6755 Y9.8114 I-2.2649 J2.8491
G3 X45.829 Y9.9673 I-1.614 J1.7438
G3 X45.9842 Y10.1641 I-1.4455 J1.2987
G3 X46.0879 Y10.3426 I-1.1149 J0.7674
G3 X46.1663 Y10.555 I-1.0557 J0.5102
G3 X46.1987 Y10.7636 I-0.9986 J0.2622
G3 X46.2001 Y10.8153 I-0.9938 J0.0517
G3 X46.1762 Y11.0323 I-0.9952 J0
G3 X46.0737 Y11.3194 I-1.214 J-0.2711
G3 X45.9177 Y11.5637 I-1.2613 J-0.6335
G3 X45.7046 Y11.7838 I-1.225 J-0.9729
G3 X45.4802 Y11.9468 I-1.1915 J-1.4048
G3 X45.1916 Y12.0999 I-1.32 J-2.1397
G3 X44.9386 Y12.2003 I-1.2499 J-2.7785
G3 X44.6036 Y12.3033 I-1.6285 J-4.703
G3 X44.1883 Y12.3948 I-1.1984 J-4.453
G3 X43.8674 Y12.4305 I-0.46 J-2.6692
G3 X43.4776 Y12.4153 I-0.1107 J-2.1533
G3 X43.1626 Y12.3394 I0.197 J-1.5097
G3 X42.8512 Y12.174 I0.4104 J-1.1492
G3 X42.6003 Y11.9268 I0.7203 J-0.9818
G3 X42.5051 Y11.777 I0.8703 J-0.6583
G3 X42.4426 Y11.6278 I0.8158 J-0.4296
G3 X42.4076 Y11.4626 I0.8037 J-0.2566
G3 X42.4031 Y11.3799 I0.759 J-0.0827
G3 X42.4069 Y11.3031 I0.7635 J0
G3 X42.442 Y11.1565 I0.5606 J0.0567
G3 X42.5221 Y11.0072 I0.6429 J0.2486
G3 X42.631 Y10.884 I0.6192 J0.4379
G3 X42.7661 Y10.7854 I0.526 J0.5783
G3 X42.9195 Y10.7189 I0.3639 J0.6302
G3 X43.0616 Y10.6953 I0.1629 J0.539
G3 X43.2083 Y10.7128 I0.0176 J0.476
G3 X43.2188 Y10.7159 I-0.1158 J0.411
G2 X43.1782 Y10.8142 I0.5364 J0.279
G2 X43.1439 Y11.0383 I0.7156 J0.2241
G2 X43.1467 Y11.1031 I0.7499 J0
G2 X43.2189 Y11.3759 I0.8215 J-0.0712
G2 X43.375 Y11.5983 I0.6832 J-0.3136
G2 X43.581 Y11.7475 I0.5958 J-0.6061
G2 X43.8398 Y11.8394 I0.4675 J-0.9056
G2 X44.0936 Y11.8634 I0.2338 J-1.1174
G2 X44.3563 Y11.8307 I-0.0218 J-1.2429
G2 X44.5793 Y11.7487 I-0.2248 J-0.9562
G2 X44.7937 Y11.6074 I-0.5352 J-1.0449
G2 X44.9669 Y11.4318 I-0.7939 J-0.957
G2 X45.0999 Y11.2282 I-0.9361 J-0.7563
G2 X45.1889 Y10.9935 I-0.975 J-0.5041
G2 X45.2152 Y10.7824 I-0.8338 J-0.2111
G2 X45.2151 Y10.7688 I-0.8601 J0
G2 X45.171 Y10.5261 I-0.756 J0.0119
G2 X45.0524 Y10.3152 I-0.6782 J0.2426
G2 X44.4673 Y9.8006 I-1.8068 J1.4643
G2 X43.7078 Y9.4842 I-1.3706 J2.2202
G2 X42.8877 Y9.4203 I-0.6095 J2.5296
G2 X42.1358 Y9.6127 I0.1863 J2.2932
G2 X41.791 Y9.8045 I0.9199 J2.0599
G2 X41.4716 Y10.0622 I1.3747 J2.0305
G2 X41.2061 Y10.3588 I1.7635 J1.8455
G2 X40.9848 Y10.6998 I2.1207 J1.6188
G2 X40.8178 Y11.0704 I2.3475 J1.2809
G2 X40.7112 Y11.4556 I2.427 J0.8786
G2 X40.6662 Y11.8652 I2.4436 J0.4759
G2 X40.6654 Y11.9265 I2.3028 J0.0613
G2 X40.6667 Y12.0044 I2.3036 J0
G2 X39.5294 Y11.3179 I-27.5411 J44.3399
G2 X38.1545 Y10.5394 I-26.4097 J45.0364
G2 X36.7566 Y9.8028 I-25.0229 J45.7932
G2 X35.3386 Y9.1096 I-23.5751 J46.4314
G2 X35.2901 Y9.0868 I-48.9412 J104.0904
G2 X35.1928 Y9.0412 I-196.9853 J419.4643
G3 X34.8347 Y8.8724 I54.4336 J-115.9818
G3 X34.6551 Y8.7868 I13.8763 J-29.3304
G3 X34.3567 Y8.6411 I11.7383 J-24.4227
G3 X34.1204 Y8.5217 I7.6728 J-15.4754
G3 X33.5384 Y8.2033 I6.0998 J-11.8431
G3 X33.1013 Y7.9309 I4.0532 J-6.991
G3 X32.6039 Y7.5641 I3.7093 J-5.5499
G3 X32.2173 Y7.2137 I3.0202 J-3.7213
G3 X31.8359 Y6.7707 I3.0006 J-2.969
G3 X31.5462 Y6.3155 I2.8932 J-2.1608
G2 X31.4418 Y6.1801 I-0.459 J0.246
G2 X31.2993 Y6.0861 I-0.3524 J0.3792
G2 X31.1602 Y6.0434 I-0.2469 J0.5563
G2 X30.9846 Y6.0279 I-0.1738 J0.966
G2 X30.8444 Y6.0358 I0.0024 J1.2947
G2 X30.6622 Y6.0633 I0.2573 J2.3212
G2 X30.5571 Y6.0854 I0.5443 J2.841
G2 X30.362 Y6.1324 I2.3376 J10.1456
G1 X30.3611 Y6.1326
G3 X30.0303 Y6.1928 I-0.623 J-2.4834
G3 X29.664 Y6.2125 I-0.3455 J-3.0079
G3 X29.3347 Y6.1944 I0.0235 J-3.419
G3 X28.9529 Y6.1386 I0.4785 J-4.6134
G3 X28.6325 Y6.0682 I1.0239 J-5.4239
G3 X28.2372 Y5.9588 I2.086 J-8.3076
G3 X27.9659 Y5.8727 I3.0874 J-10.2008
G3 X27.5286 Y5.7235 I8.786 J-26.4584
G3 X26.2284 Y5.2612 I51.2172 J-146.0975
G3 X25.2542 Y4.9033 I29.7207 J-82.4179
G3 X24.0402 Y4.4369 I25.7205 J-68.7616
G3 X23.6068 Y4.2639 I19.8157 J-50.2448

(profile 14-3-0)
G0 Z0.1
G0 X45.7995 Y7.6812
G1 Z-0.13 F50
G3 X42.9725 Y5.9281 I100.4646 J-165.1553 F30
G3 X40.4906 Y4.3325 I103.3099 J-163.4311
G3 X40.6827 Y4.321 I12.722 J210.068
G3 X41.0124 Y4.3021 I4.2317 J70.9494
G3 X41.5084 Y4.2769 I3.1881 J57.9848
G3 X41.912 Y4.2603 I1.7821 J38.4001
G3 X42.909 Y4.241 I1.0859 J30.2634
G3 X43.7048 Y4.255 I0.0568 J19.3384
G3 X44.6521 Y4.3188 I-0.627 J16.3963
G3 X45.4673 Y4.4249 I-1.1835 J12.2787
G3 X46.3687 Y4.6119 I-1.784 J10.8645
G3 X47.1742 Y4.8541 I-2.2465 J8.9322
G3 X47.2478 Y4.8802 I-3.2026 J9.1189
G3 X47.3973 Y4.9344 I-13.4283 J37.2691
G2 X47.6158 Y5.0132 I9.5362 J-26.1375
G2 X47.7269 Y5.0516 I2.3514 J-6.6158
G2 X47.9143 Y5.1112 I1.8575 J-5.5171
G2 X48.066 Y5.1531 I1.0559 J-3.5258
G2 X48.4551 Y5.2232 I0.6943 J-2.7397
G2 X48.7786 Y5.2298 I0.1995 J-1.8361
G2 X49.0433 Y5.1927 I-0.1243 J-1.8475
G2 X49.3573 Y5.1059 I-0.5922 J-2.7559
G2 X49.4792 Y5.0621 I-1.1699 J-3.4457
G2 X49.6293 Y5.0027 I-2.0301 J-5.346
G2 X49.7182 Y4.9653 I-2.6251 J-6.3655
G2 X49.8934 Y4.8894 I-10.7741 J-25.1213
G3 X50.0909 Y4.8041 I9.483 J21.6913
G3 X50.188 Y4.7638 I2.2504 J5.2778
G3 X50.5894 Y4.6213 I1.8333 J4.5278
G3 X51.0377 Y4.5033 I1.6894 J5.51
G3 X51.4449 Y4.4272 I1.3848 J6.2796
G3 X51.9202 Y4.3676 I1.3006 J8.456
G3 X52.3194 Y4.3369 I0.9759 J10.0694
G3 X52.8271 Y4.3159 I0.9248 J16.197
G3 X53.1325 Y4.3104 I0.5056 J19.6575
G3 X53.7489 Y4.3065 I0.8117 J79.7167
G2 X54.1287 Y4.305 I-0.3186 J-130.0278
G2 X54.3188 Y4.3035 I-0.1744 J-32.4603
G2 X54.6357 Y4.298 I-0.3027 J-26.9629
G2 X54.8885 Y4.2904 I-0.3933 J-17.1102
G3 X55.5547 Y4.2781 I0.6472 J17.1325
G3 X56.2148 Y4.2918 I-0.0187 J16.8326
G3 X56.4789 Y4.3044 I-0.7522 J18.6389
G3 X56.7882 Y4.3231 I-1.3936 J25.5397
G3 X56.9738 Y4.3361 I-1.9546 J29.2943
G3 X57.3376 Y4.3633 I-8.2033 J112.2308
G2 X57.6533 Y4.387 I9.8946 J-129.5904
G2 X57.8144 Y4.3985 I2.4855 J-33.6313
G2 X57.963 Y4.4084 I2.0052 J-29.0226
G2 X57.9196 Y4.4487 I1.2157 J1.3499
G2 X57.6394 Y4.7843 I1.3879 J1.4436
G2 X57.4443 Y5.1499 I1.8006 J1.1961
G2 X57.3127 Y5.5689 I2.2566 J0.939
G2 X57.2569 Y5.9969 I2.4852 J0.5411
G2 X57.2544 Y6.1107 I2.5561 J0.1138
G2 X57.2743 Y6.4295 I2.5586 J0
G2 X57.3689 Y6.863 I2.4559 J-0.3083
G2 X57.5331 Y7.2523 I2.1287 J-0.6688
G2 X57.7598 Y7.6019 I2.2624 J-1.2186
G2 X58.049 Y7.9221 I2.1906 J-1.6876
G2 X58.3671 Y8.1834 I2.0026 J-2.1146
G2 X58.7352 Y8.4088 I1.8597 J-2.6229
G2 X59.1175 Y8.5796 I1.5584 J-2.976
G2 X59.5283 Y8.7053 I1.2409 J-3.3201
G2 X59.9479 Y8.7803 I0.8373 J-3.4758
G2 X60.3683 Y8.8041 I0.4077 J-3.4651
G2 X60.6346 Y8.7915 I-0.0111 J-3.057
G2 X60.8486 Y8.7601 I-0.1782 J-1.9562
G2 X61.1023 Y8.6867 I-0.3269 J-1.6041
G2 X61.3116 Y8.5839 I-0.4408 J-1.1623
G2 X61.5176 Y8.4191 I-0.5564 J-0.9066
G2 X61.6736 Y8.2116 I-0.7343 J-0.7145
G2 X61.7726 Y7.953 I-0.7939 J-0.4521
G2 X61.7897 Y7.7934 I-0.7363 J-0.1596
G2 X61.7836 Y7.6975 I-0.7534 J0
G2 X61.7289 Y7.4994 I-0.7212 J0.0925
G2 X61.6194 Y7.3203 I-0.7029 J0.3065
G2 X61.4804 Y7.1855 I-0.6539 J0.5352
G2 X61.3013 Y7.075 I-0.6272 J0.8161
G2 X61.1124 Y7.0038 I-0.4879 J1.0089
G2 X60.908 Y6.966 I-0.3197 J1.155
G2 X60.6966 Y6.9646 I-0.1131 J1.17
G2 X60.4994 Y7.0005 I0.0871 J1.0382
G2 X60.4773 Y7.0091 I0.0341 J0.1203
G3 X60.2256 Y7.1091 I-0.69 J-1.3704
G3 X59.963 Y7.1625 I-0.4298 J-1.4419
G3 X59.6976 Y7.167 I-0.1566 J-1.4007
G3 X59.4666 Y7.1246 I0.0869 J-1.1228
G3 X59.2471 Y7.029 I0.2719 J-0.924
G3 X59.084 Y6.8987 I0.3854 J-0.6498
G3 X58.9578 Y6.7155 I0.523 J-0.4954
G3 X58.8829 Y6.4794 I0.7942 J-0.3818
G3 X58.8743 Y6.3495 I0.9807 J-0.1299
G3 X58.8914 Y6.1668 I0.9892 J0
G3 X59.0062 Y5.8324 I1.2022 J0.2259
G3 X59.2017 Y5.5487 I1.2032 J0.62
G3 X59.4626 Y5.3235 I1.0083 J0.9043
G3 X59.7526 Y5.1731 I0.851 J1.286
G3 X60.1049 Y5.0732 I0.6947 J1.7788
G3 X60.4417 Y5.0386 I0.3894 J2.1366
G3 X60.8151 Y5.0562 I0.0635 J2.6219
G3 X61.313 Y5.1591 I-0.3528 J2.9649
G3 X61.8285 Y5.3577 I-0.9983 J3.3586
G3 X62.2813 Y5.6139 I-1.6514 J3.4474
G3 X62.7252 Y5.9491 I-2.396 J3.6337
G3 X63.1611 Y6.38 I-2.9139 J3.3845
G3 X63.5224 Y6.8533 I-3.1654 J2.7909
G3 X63.821 Y7.3943 I-3.3529 J2.2035
G3 X64.0194 Y7.9444 I-3.2806 J1.4935
G3 X64.1294 Y8.5909 I-3.2938 J0.8933
G3 X64.1392 Y8.8614 I-3.7308 J0.2704
G3 X64.1159 Y9.2785 I-3.7406 J0
G3 X63.9891 Y9.9237 I-3.9764 J-0.4462
G3 X63.7469 Y10.5794 I-4.335 J-1.229
G3 X63.4167 Y11.1779 I-4.2874 J-1.9743
G3 X62.9964 Y11.7336 I-4.1086 J-2.6712
G3 X62.4984 Y12.226 I-3.6526 J-3.1957
G3 X61.9536 Y12.6256 I-2.941 J-3.4384
G3 X61.3684 Y12.9417 I-2.8015 J-4.4873
G3 X60.7203 Y13.1946 I-2.4196 J-5.244
G3 X60.0805 Y13.3632 I-1.8787 J-5.8291
G3 X59.3836 Y13.4706 I-1.4039 J-6.7968
G3 X58.7119 Y13.5086 I-0.7535 J-7.3591
G3 X58 Y13.4859 I-0.0915 J-8.2755
G3 X57.321 Y13.4078 I0.6503 J-8.652
G3 X56.6282 Y13.2731 I1.4162 J-9.1343
G3 X55.9899 Y13.1027 I2.4481 J-10.4467
G3 X55.3043 Y12.8755 I3.6822 J-12.2599
G3 X54.6984 Y12.6397 I4.8484 J-13.3565
G3 X54.0217 Y12.3423 I7.0369 J-16.9279
G3 X53.4529 Y12.0681 I8.9267 J-19.2459
G3 X52.7705 Y11.716 I14.0134 J-27.9981
G3 X52.2868 Y11.4544 I18.0779 J-34.0086
G3 X51.5405 Y11.0395 I44.6824 J-81.2376
G3 X48.6562 Y9.3854 I94.6038 J-168.3105
G3 X45.7995 Y7.6812 I97.5798 J-166.8133
G1 Z-0.26 F50
G3 X42.9725 Y5.9281 I100.4646 J-165.1553 F30
G3 X40.4906 Y4.3325 I103.3099 J-163.4311
G3 X40.6827 Y4.321 I12.722 J210.068
G3 X41.0124 Y4.3021 I4.2317 J70.9494
G3 X41.5084 Y4.2769 I3.1881 J57.9848
G3 X41.912 Y4.2603 I1.7821 J38.4001
G3 X42.909 Y4.241 I1.0859 J30.2634
G3 X43.7048 Y4.255 I0.0568 J19.3384
G3 X44.6521 Y4.3188 I-0.627 J16.3963
G3 X45.4673 Y4.4249 I-1.1835 J12.2787
G3 X46.3687 Y4.6119 I-1.784 J10.8645
G3 X47.1742 Y4.8541 I-2.2465 J8.9322
G3 X47.2478 Y4.8802 I-3.2026 J9.1189
G3 X47.3973 Y4.9344 I-13.4283 J37.2691
G2 X47.6158 Y5.0132 I9.5362 J-26.1375
G2 X47.7269 Y5.0516 I2.3514 J-6.6158
G2 X47.9143 Y5.1112 I1.8575 J-5.5171
G2 X48.066 Y5.1531 I1.0559 J-3.5258
G2 X48.4551 Y5.2232 I0.6943 J-2.7397
G2 X48.7786 Y5.2298 I0.1995 J-1.8361
G2 X49.0433 Y5.1927 I-0.1243 J-1.8475
G2 X49.3573 Y5.1059 I-0.5922 J-2.7559
G2 X49.4792 Y5.0621 I-1.1699 J-3.4457
G2 X49.6293 Y5.0027 I-2.0301 J-5.346
G2 X49.7182 Y4.9653 I-2.6251 J-6.3655
G2 X49.8934 Y4.8894 I-10.7741 J-25.1213
G3 X50.0909 Y4.8041 I9.483 J21.6913
G3 X50.188 Y4.7638 I2.2504 J5.2778
G3 X50.5894 Y4.6213 I1.8333 J4.5278
G3 X51.0377 Y4.5033 I1.6894 J5.51
G3 X51.4449 Y4.4272 I1.3848 J6.2796
G3 X51.9202 Y4.3676 I1.3006 J8.456
G3 X52.3194 Y4.3369 I0.9759 J10.0694
G3 X52.8271 Y4.3159 I0.9248 J16.197
G3 X53.1325 Y4.3104 I0.5056 J19.6575
G3 X53.7489 Y4.3065 I0.8117 J79.7167
G2 X54.1287 Y4.305 I-0.3186 J-130.0278
G2 X54.3188 Y4.3035 I-0.1744 J-32.4603
G2 X54.6357 Y4.298 I-0.3027 J-26.9629
G2 X54.8885 Y4.2904 I-0.3933 J-17.1102
G3 X55.5547 Y4.2781 I0.6472 J17.1325
G3 X56.2148 Y4.2918 I-0.0187 J16.8326
G3 X56.4789 Y4.3044 I-0.7522 J18.6389
G3 X56.7882 Y4.3231 I-1.3936 J25.5397
G3 X56.9738 Y4.3361 I-1.9546 J29.2943
G3 X57.3376 Y4.3633 I-8.2033 J112.2308
G2 X57.6533 Y4.387 I9.8946 J-129.5904
G2 X57.8144 Y4.3985 I2.4855 J-33.6313
G2 X57.963 Y4.4084 I2.0052 J-29.0226
G2 X57.9196 Y4.4487 I1.2157 J1.3499
G2 X57.6394 Y4.7843 I1.3879 J1.4436
G2 X57.4443 Y5.1499 I1.8006 J1.1961
G2 X57.3127 Y5.5689 I2.2566 J0.939
G2 X57.2569 Y5.9969 I2.4852 J0.5411
G2 X57.2544 Y6.1107 I2.5561 J0.1138
G2 X57.2743 Y6.4295 I2.5586 J0
G2 X57.3689 Y6.863 I2.4559 J-0.3083
G2 X57.5331 Y7.2523 I2.1287 J-0.6688
G2 X57.7598 Y7.6019 I2.2624 J-1.2186
G2 X58.049 Y7.9221 I2.1906 J-1.6876
G2 X58.3671 Y8.1834 I2.0026 J-2.1146
G2 X58.7352 Y8.4088 I1.8597 J-2.6229
G2 X59.1175 Y8.5796 I1.5584 J-2.976
G2 X59.5283 Y8.7053 I1.2409 J-3.3201
G2 X59.9479 Y8.7803 I0.8373 J-3.4758
G2 X60.3683 Y8.8041 I0.4077 J-3.4651
G2 X60.6346 Y8.7915 I-0.0111 J-3.057
G2 X60.8486 Y8.7601 I-0.1782 J-1.9562
G2 X61.1023 Y8.6867 I-0.3269 J-1.6041
G2 X61.3116 Y8.5839 I-0.4408 J-1.1623
G2 X61.5176 Y8.4191 I-0.5564 J-0.9066
G2 X61.6736 Y8.2116 I-0.7343 J-0.7145
G2 X61.7726 Y7.953 I-0.7939 J-0.4521
G2 X61.7897 Y7.7934 I-0.7363 J-0.1596
G2 X61.7836 Y7.6975 I-0.7534 J0
G2 X61.7289 Y7.4994 I-0.7212 J0.0925
G2 X61.6194 Y7.3203 I-0.7029 J0.3065
G2 X61.4804 Y7.1855 I-0.6539 J0.5352
G2 X61.3013 Y7.075 I-0.6272 J0.8161
G2 X61.1124 Y7.0038 I-0.4879 J1.0089
G2 X60.908 Y6.966 I-0.3197 J1.155
G2 X60.6966 Y6.9646 I-0.1131 J1.17
G2 X60.4994 Y7.0005 I0.0871 J1.0382
G2 X60.4773 Y7.0091 I0.0341 J0.1203
G3 X60.2256 Y7.1091 I-0.69 J-1.3704
G3 X59.963 Y7.1625 I-0.4298 J-1.4419
G3 X59.6976 Y7.167 I-0.1566 J-1.4007
G3 X59.4666 Y7.1246 I0.0869 J-1.1228
G3 X59.2471 Y7.029 I0.2719 J-0.924
G3 X59.084 Y6.8987 I0.3854 J-0.6498
G3 X58.9578 Y6.7155 I0.523 J-0.4954
G3 X58.8829 Y6.4794 I0.7942 J-0.3818
G3 X58.8743 Y6.3495 I0.9807 J-0.1299
G3 X58.8914 Y6.1668 I0.9892 J0
G3 X59.0062 Y5.8324 I1.2022 J0.2259
G3 X59.2017 Y5.5487 I1.2032 J0.62
G3 X59.4626 Y5.3235 I1.0083 J0.9043
G3 X59.7526 Y5.1731 I0.851 J1.286
G3 X60.1049 Y5.0732 I0.6947 J1.7788
G3 X60.4417 Y5.0386 I0.3894 J2.1366
G3 X60.8151 Y5.0562 I0.0635 J2.6219
G3 X61.313 Y5.1591 I-0.3528 J2.9649
G3 X61.8285 Y5.3577 I-0.9983 J3.3586
G3 X62.2813 Y5.6139 I-1.6514 J3.4474
G3 X62.7252 Y5.9491 I-2.396 J3.6337
G3 X63.1611 Y6.38 I-2.9139 J3.3845
G3 X63.5224 Y6.8533 I-3.1654 J2.7909
G3 X63.821 Y7.3943 I-3.3529 J2.2035
G3 X64.0194 Y7.9444 I-3.2806 J1.4935
G3 X64.1294 Y8.5909 I-3.2938 J0.8933
G3 X64.1392 Y8.8614 I-3.7308 J0.2704
G3 X64.1159 Y9.2785 I-3.7406 J0
G3 X63.9891 Y9.9237 I-3.9764 J-0.4462
G3 X63.7469 Y10.5794 I-4.335 J-1.229
G3 X63.4167 Y11.1779 I-4.2874 J-1.9743
G3 X62.9964 Y11.7336 I-4.1086 J-2.6712
G3 X62.4984 Y12.226 I-3.6526 J-3.1957
G3 X61.9536 Y12.6256 I-2.941 J-3.4384
G3 X61.3684 Y12.9417 I-2.8015 J-4.4873
G3 X60.7203 Y13.1946 I-2.4196 J-5.244
G3 X60.0805 Y13.3632 I-1.8787 J-5.8291
G3 X59.3836 Y13.4706 I-1.4039 J-6.7968
G3 X58.7119 Y13.5086 I-0.7535 J-7.3591
G3 X58 Y13.4859 I-0.0915 J-8.2755
G3 X57.321 Y13.4078 I0.6503 J-8.652
G3 X56.6282 Y13.2731 I1.4162 J-9.1343
G3 X55.9899 Y13.1027 I2.4481 J-10.4467
G3 X55.3043 Y12.8755 I3.6822 J-12.2599
G3 X54.6984 Y12.6397 I4.8484 J-13.3565
G3 X54.0217 Y12.3423 I7.0369 J-16.9279
G3 X53.4529 Y12.0681 I8.9267 J-19.2459
G3 X52.7705 Y11.716 I14.0134 J-27.9981
G3 X52.2868 Y11.4544 I18.0779 J-34.0086
G3 X51.5405 Y11.0395 I44.6824 J-81.2376
G3 X48.6562 Y9.3854 I94.6038 J-168.3105
G3 X45.7995 Y7.6812 I97.5798 J-166.8133
G1 Z-0.39 F50
G3 X42.9725 Y5.9281 I100.4646 J-165.1553 F30
G3 X40.4906 Y4.3325 I103.3099 J-163.4311
G3 X40.6827 Y4.321 I12.722 J210.068
G3 X41.0124 Y4.3021 I4.2317 J70.9494
G3 X41.5084 Y4.2769 I3.1881 J57.9848
G3 X41.912 Y4.2603 I1.7821 J38.4001
G3 X42.909 Y4.241 I1.0859 J30.2634
G3 X43.7048 Y4.255 I0.0568 J19.3384
G3 X44.6521 Y4.3188 I-0.627 J16.3963
G3 X45.4673 Y4.4249 I-1.1835 J12.2787
G3 X46.3687 Y4.6119 I-1.784 J10.8645
G3 X47.1742 Y4.8541 I-2.2465 J8.9322
G3 X47.2478 Y4.8802 I-3.2026 J9.1189
G3 X47.3973 Y4.9344 I-13.4283 J37.2691
G2 X47.6158 Y5.0132 I9.5362 J-26.1375
G2 X47.7269 Y5.0516 I2.3514 J-6.6158
G2 X47.9143 Y5.1112 I1.8575 J-5.5171
G2 X48.066 Y5.1531 I1.0559 J-3.5258
G2 X48.4551 Y5.2232 I0.6943 J-2.7397
G2 X48.7786 Y5.2298 I0.1995 J-1.8361
G2 X49.0433 Y5.1927 I-0.1243 J-1.8475
G2 X49.3573 Y5.1059 I-0.5922 J-2.7559
G2 X49.4792 Y5.0621 I-1.1699 J-3.4457
G2 X49.6293 Y5.0027 I-2.0301 J-5.346
G2 X49.7182 Y4.9653 I-2.6251 J-6.3655
G2 X49.8934 Y4.8894 I-10.7741 J-25.1213
G3 X50.0909 Y4.8041 I9.483 J21.6913
G3 X50.188 Y4.7638 I2.2504 J5.2778
G3 X50.5894 Y4.6213 I1.8333 J4.5278
G3 X51.0377 Y4.5033 I1.6894 J5.51
G3 X51.4449 Y4.4272 I1.3848 J6.2796
G3 X51.9202 Y4.3676 I1.3006 J8.456
G3 X52.3194 Y4.3369 I0.9759 J10.0694
G3 X52.8271 Y4.3159 I0.9248 J16.197
G3 X53.1325 Y4.3104 I0.5056 J19.6575
G3 X53.7489 Y4.3065 I0.8117 J79.7167
G2 X54.1287 Y4.305 I-0.3186 J-130.0278
G2 X54.3188 Y4.3035 I-0.1744 J-32.4603
G2 X54.6357 Y4.298 I-0.3027 J-26.9629
G2 X54.8885 Y4.2904 I-0.3933 J-17.1102
G3 X55.5547 Y4.2781 I0.6472 J17.1325
G3 X56.2148 Y4.2918 I-0.0187 J16.8326
G3 X56.4789 Y4.3044 I-0.7522 J18.6389
G3 X56.7882 Y4.3231 I-1.3936 J25.5397
G3 X56.9738 Y4.3361 I-1.9546 J29.2943
G3 X57.3376 Y4.3633 I-8.2033 J112.2308
G2 X57.6533 Y4.387 I9.8946 J-129.5904
G2 X57.8144 Y4.3985 I2.4855 J-33.6313
G2 X57.963 Y4.4084 I2.0052 J-29.0226
G2 X57.9196 Y4.4487 I1.2157 J1.3499
G2 X57.6394 Y4.7843 I1.3879 J1.4436
G2 X57.4443 Y5.1499 I1.8006 J1.1961
G2 X57.3127 Y5.5689 I2.2566 J0.939
G2 X57.2569 Y5.9969 I2.4852 J0.5411
G2 X57.2544 Y6.1107 I2.5561 J0.1138
G2 X57.2743 Y6.4295 I2.5586 J0
G2 X57.3689 Y6.863 I2.4559 J-0.3083
G2 X57.5331 Y7.2523 I2.1287 J-0.6688
G2 X57.7598 Y7.6019 I2.2624 J-1.2186
G2 X58.049 Y7.9221 I2.1906 J-1.6876
G2 X58.3671 Y8.1834 I2.0026 J-2.1146
G2 X58.7352 Y8.4088 I1.8597 J-2.6229
G2 X59.1175 Y8.5796 I1.5584 J-2.976
G2 X59.5283 Y8.7053 I1.2409 J-3.3201
G2 X59.9479 Y8.7803 I0.8373 J-3.4758
G2 X60.3683 Y8.8041 I0.4077 J-3.4651
G2 X60.6346 Y8.7915 I-0.0111 J-3.057
G2 X60.8486 Y8.7601 I-0.1782 J-1.9562
G2 X61.1023 Y8.6867 I-0.3269 J-1.6041
G2 X61.3116 Y8.5839 I-0.4408 J-1.1623
G2 X61.5176 Y8.4191 I-0.5564 J-0.9066
G2 X61.6736 Y8.2116 I-0.7343 J-0.7145
G2 X61.7726 Y7.953 I-0.7939 J-0.4521
G2 X61.7897 Y7.7934 I-0.7363 J-0.1596
G2 X61.7836 Y7.6975 I-0.7534 J0
G2 X61.7289 Y7.4994 I-0.7212 J0.0925
G2 X61.6194 Y7.3203 I-0.7029 J0.3065
G2 X61.4804 Y7.1855 I-0.6539 J0.5352
G2 X61.3013 Y7.075 I-0.6272 J0.8161
G2 X61.1124 Y7.0038 I-0.4879 J1.0089
G2 X60.908 Y6.966 I-0.3197 J1.155
G2 X60.6966 Y6.9646 I-0.1131 J1.17
G2 X60.4994 Y7.0005 I0.0871 J1.0382
G2 X60.4773 Y7.0091 I0.0341 J0.1203
G3 X60.2256 Y7.1091 I-0.69 J-1.3704
G3 X59.963 Y7.1625 I-0.4298 J-1.4419
G3 X59.6976 Y7.167 I-0.1566 J-1.4007
G3 X59.4666 Y7.1246 I0.0869 J-1.1228
G3 X59.2471 Y7.029 I0.2719 J-0.924
G3 X59.084 Y6.8987 I0.3854 J-0.6498
G3 X58.9578 Y6.7155 I0.523 J-0.4954
G3 X58.8829 Y6.4794 I0.7942 J-0.3818
G3 X58.8743 Y6.3495 I0.9807 J-0.1299
G3 X58.8914 Y6.1668 I0.9892 J0
G3 X59.0062 Y5.8324 I1.2022 J0.2259
G3 X59.2017 Y5.5487 I1.2032 J0.62
G3 X59.4626 Y5.3235 I1.0083 J0.9043
G3 X59.7526 Y5.1731 I0.851 J1.286
G3 X60.1049 Y5.0732 I0.6947 J1.7788
G3 X60.4417 Y5.0386 I0.3894 J2.1366
G3 X60.8151 Y5.0562 I0.0635 J2.6219
G3 X61.313 Y5.1591 I-0.3528 J2.9649
G3 X61.8285 Y5.3577 I-0.9983 J3.3586
G3 X62.2813 Y5.6139 I-1.6514 J3.4474
G3 X62.7252 Y5.9491 I-2.396 J3.6337
G3 X63.1611 Y6.38 I-2.9139 J3.3845
G3 X63.5224 Y6.8533 I-3.1654 J2.7909
G3 X63.821 Y7.3943 I-3.3529 J2.2035
G3 X64.0194 Y7.9444 I-3.2806 J1.4935
G3 X64.1294 Y8.5909 I-3.2938 J0.8933
G3 X64.1392 Y8.8614 I-3.7308 J0.2704
G3 X64.1159 Y9.2785 I-3.7406 J0
G3 X63.9891 Y9.9237 I-3.9764 J-0.4462
G3 X63.7469 Y10.5794 I-4.335 J-1.229
G3 X63.4167 Y11.1779 I-4.2874 J-1.9743
G3 X62.9964 Y11.7336 I-4.1086 J-2.6712
G3 X62.4984 Y12.226 I-3.6526 J-3.1957
G3 X61.9536 Y12.6256 I-2.941 J-3.4384
G3 X61.3684 Y12.9417 I-2.8015 J-4.4873
G3 X60.7203 Y13.1946 I-2.4196 J-5.244
G3 X60.0805 Y13.3632 I-1.8787 J-5.8291
G3 X59.3836 Y13.4706 I-1.4039 J-6.7968
G3 X58.7119 Y13.5086 I-0.7535 J-7.3591
G3 X58 Y13.4859 I-0.0915 J-8.2755
G3 X57.321 Y13.4078 I0.6503 J-8.652
G3 X56.6282 Y13.2731 I1.4162 J-9.1343
G3 X55.9899 Y13.1027 I2.4481 J-10.4467
G3 X55.3043 Y12.8755 I3.6822 J-12.2599
G3 X54.6984 Y12.6397 I4.8484 J-13.3565
G3 X54.0217 Y12.3423 I7.0369 J-16.9279
G3 X53.4529 Y12.0681 I8.9267 J-19.2459
G3 X52.7705 Y11.716 I14.0134 J-27.9981
G3 X52.2868 Y11.4544 I18.0779 J-34.0086
G3 X51.5405 Y11.0395 I44.6824 J-81.2376
G3 X48.6562 Y9.3854 I94.6038 J-168.3105
G3 X45.7995 Y7.6812 I97.5798 J-166.8133
G1 Z-0.52 F50
G3 X42.9725 Y5.9281 I100.4646 J-165.1553 F30
G3 X40.4906 Y4.3325 I103.3099 J-163.4311
G3 X40.6827 Y4.321 I12.722 J210.068
G3 X41.0124 Y4.3021 I4.2317 J70.9494
G3 X41.5084 Y4.2769 I3.1881 J57.9848
G3 X41.912 Y4.2603 I1.7821 J38.4001
G3 X42.909 Y4.241 I1.0859 J30.2634
G3 X43.7048 Y4.255 I0.0568 J19.3384
G3 X44.6521 Y4.3188 I-0.627 J16.3963
G3 X45.4673 Y4.4249 I-1.1835 J12.2787
G3 X46.3687 Y4.6119 I-1.784 J10.8645
G3 X47.1742 Y4.8541 I-2.2465 J8.9322
G3 X47.2478 Y4.8802 I-3.2026 J9.1189
G3 X47.3973 Y4.9344 I-13.4283 J37.2691
G2 X47.6158 Y5.0132 I9.5362 J-26.1375
G2 X47.7269 Y5.0516 I2.3514 J-6.6158
G2 X47.9143 Y5.1112 I1.8575 J-5.5171
G2 X48.066 Y5.1531 I1.0559 J-3.5258
G2 X48.4551 Y5.2232 I0.6943 J-2.7397
G2 X48.7786 Y5.2298 I0.1995 J-1.8361
G2 X49.0433 Y5.1927 I-0.1243 J-1.8475
G2 X49.3573 Y5.1059 I-0.5922 J-2.7559
G2 X49.4792 Y5.0621 I-1.1699 J-3.4457
G2 X49.6293 Y5.0027 I-2.0301 J-5.346
G2 X49.7182 Y4.9653 I-2.6251 J-6.3655
G2 X49.8934 Y4.8894 I-10.7741 J-25.1213
G3 X50.0909 Y4.8041 I9.483 J21.6913
G3 X50.188 Y4.7638 I2.2504 J5.2778
G3 X50.5894 Y4.6213 I1.8333 J4.5278
G3 X51.0377 Y4.5033 I1.6894 J5.51
G3 X51.4449 Y4.4272 I1.3848 J6.2796
G3 X51.9202 Y4.3676 I1.3006 J8.456
G3 X52.3194 Y4.3369 I0.9759 J10.0694
G3 X52.8271 Y4.3159 I0.9248 J16.197
G3 X53.1325 Y4.3104 I0.5056 J19.6575
G3 X53.7489 Y4.3065 I0.8117 J79.7167
G2 X54.1287 Y4.305 I-0.3186 J-130.0278
G2 X54.3188 Y4.3035 I-0.1744 J-32.4603
G2 X54.6357 Y4.298 I-0.3027 J-26.9629
G2 X54.8885 Y4.2904 I-0.3933 J-17.1102
G3 X55.5547 Y4.2781 I0.6472 J17.1325
G3 X56.2148 Y4.2918 I-0.0187 J16.8326
G3 X56.4789 Y4.3044 I-0.7522 J18.6389
G3 X56.7882 Y4.3231 I-1.3936 J25.5397
G3 X56.9738 Y4.3361 I-1.9546 J29.2943
G3 X57.3376 Y4.3633 I-8.2033 J112.2308
G2 X57.6533 Y4.387 I9.8946 J-129.5904
G2 X57.8144 Y4.3985 I2.4855 J-33.6313
G2 X57.963 Y4.4084 I2.0052 J-29.0226
G2 X57.9196 Y4.4487 I1.2157 J1.3499
G2 X57.6394 Y4.7843 I1.3879 J1.4436
G2 X57.4443 Y5.1499 I1.8006 J1.1961
G2 X57.3127 Y5.5689 I2.2566 J0.939
G2 X57.2569 Y5.9969 I2.4852 J0.5411
G2 X57.2544 Y6.1107 I2.5561 J0.1138
G2 X57.2743 Y6.4295 I2.5586 J0
G2 X57.3689 Y6.863 I2.4559 J-0.3083
G2 X57.5331 Y7.2523 I2.1287 J-0.6688
G2 X57.7598 Y7.6019 I2.2624 J-1.2186
G2 X58.049 Y7.9221 I2.1906 J-1.6876
G2 X58.3671 Y8.1834 I2.0026 J-2.1146
G2 X58.7352 Y8.4088 I1.8597 J-2.6229
G2 X59.1175 Y8.5796 I1.5584 J-2.976
G2 X59.5283 Y8.7053 I1.2409 J-3.3201
G2 X59.9479 Y8.7803 I0.8373 J-3.4758
G2 X60.3683 Y8.8041 I0.4077 J-3.4651
G2 X60.6346 Y8.7915 I-0.0111 J-3.057
G2 X60.8486 Y8.7601 I-0.1782 J-1.9562
G2 X61.1023 Y8.6867 I-0.3269 J-1.6041
G2 X61.3116 Y8.5839 I-0.4408 J-1.1623
G2 X61.5176 Y8.4191 I-0.5564 J-0.9066
G2 X61.6736 Y8.2116 I-0.7343 J-0.7145
G2 X61.7726 Y7.953 I-0.7939 J-0.4521
G2 X61.7897 Y7.7934 I-0.7363 J-0.1596
G2 X61.7836 Y7.6975 I-0.7534 J0
G2 X61.7289 Y7.4994 I-0.7212 J0.0925
G2 X61.6194 Y7.3203 I-0.7029 J0.3065
G2 X61.4804 Y7.1855 I-0.6539 J0.5352
G2 X61.3013 Y7.075 I-0.6272 J0.8161
G2 X61.1124 Y7.0038 I-0.4879 J1.0089
G2 X60.908 Y6.966 I-0.3197 J1.155
G2 X60.6966 Y6.9646 I-0.1131 J1.17
G2 X60.4994 Y7.0005 I0.0871 J1.0382
G2 X60.4773 Y7.0091 I0.0341 J0.1203
G3 X60.2256 Y7.1091 I-0.69 J-1.3704
G3 X59.963 Y7.1625 I-0.4298 J-1.4419
G3 X59.6976 Y7.167 I-0.1566 J-1.4007
G3 X59.4666 Y7.1246 I0.0869 J-1.1228
G3 X59.2471 Y7.029 I0.2719 J-0.924
G3 X59.084 Y6.8987 I0.3854 J-0.6498
G3 X58.9578 Y6.7155 I0.523 J-0.4954
G3 X58.8829 Y6.4794 I0.7942 J-0.3818
G3 X58.8743 Y6.3495 I0.9807 J-0.1299
G3 X58.8914 Y6.1668 I0.9892 J0
G3 X59.0062 Y5.8324 I1.2022 J0.2259
G3 X59.2017 Y5.5487 I1.2032 J0.62
G3 X59.4626 Y5.3235 I1.0083 J0.9043
G3 X59.7526 Y5.1731 I0.851 J1.286
G3 X60.1049 Y5.0732 I0.6947 J1.7788
G3 X60.4417 Y5.0386 I0.3894 J2.1366
G3 X60.8151 Y5.0562 I0.0635 J2.6219
G3 X61.313 Y5.1591 I-0.3528 J2.9649
G3 X61.8285 Y5.3577 I-0.9983 J3.3586
G3 X62.2813 Y5.6139 I-1.6514 J3.4474
G3 X62.7252 Y5.9491 I-2.396 J3.6337
G3 X63.1611 Y6.38 I-2.9139 J3.3845
G3 X63.5224 Y6.8533 I-3.1654 J2.7909
G3 X63.821 Y7.3943 I-3.3529 J2.2035
G3 X64.0194 Y7.9444 I-3.2806 J1.4935
G3 X64.1294 Y8.5909 I-3.2938 J0.8933
G3 X64.1392 Y8.8614 I-3.7308 J0.2704
G3 X64.1159 Y9.2785 I-3.7406 J0
G3 X63.9891 Y9.9237 I-3.9764 J-0.4462
G3 X63.7469 Y10.5794 I-4.335 J-1.229
G3 X63.4167 Y11.1779 I-4.2874 J-1.9743
G3 X62.9964 Y11.7336 I-4.1086 J-2.6712
G3 X62.4984 Y12.226 I-3.6526 J-3.1957
G3 X61.9536 Y12.6256 I-2.941 J-3.4384
G3 X61.3684 Y12.9417 I-2.8015 J-4.4873
G3 X60.7203 Y13.1946 I-2.4196 J-5.244
G3 X60.0805 Y13.3632 I-1.8787 J-5.8291
G3 X59.3836 Y13.4706 I-1.4039 J-6.7968
G3 X58.7119 Y13.5086 I-0.7535 J-7.3591
G3 X58 Y13.4859 I-0.0915 J-8.2755
G3 X57.321 Y13.4078 I0.6503 J-8.652
G3 X56.6282 Y13.2731 I1.4162 J-9.1343
G3 X55.9899 Y13.1027 I2.4481 J-10.4467
G3 X55.3043 Y12.8755 I3.6822 J-12.2599
G3 X54.6984 Y12.6397 I4.8484 J-13.3565
G3 X54.0217 Y12.3423 I7.0369 J-16.9279
G3 X53.4529 Y12.0681 I8.9267 J-19.2459
G3 X52.7705 Y11.716 I14.0134 J-27.9981
G3 X52.2868 Y11.4544 I18.0779 J-34.0086
G3 X51.5405 Y11.0395 I44.6824 J-81.2376
G3 X48.6562 Y9.3854 I94.6038 J-168.3105
G3 X45.7995 Y7.6812 I97.5798 J-166.8133
G1 Z-0.65 F50
G3 X42.9725 Y5.9281 I100.4646 J-165.1553 F30
G3 X40.4906 Y4.3325 I103.3099 J-163.4311
G3 X40.6827 Y4.321 I12.722 J210.068
G3 X41.0124 Y4.3021 I4.2317 J70.9494
G3 X41.5084 Y4.2769 I3.1881 J57.9848
G3 X41.912 Y4.2603 I1.7821 J38.4001
G3 X42.909 Y4.241 I1.0859 J30.2634
G3 X43.7048 Y4.255 I0.0568 J19.3384
G3 X44.6521 Y4.3188 I-0.627 J16.3963
G3 X45.4673 Y4.4249 I-1.1835 J12.2787
G3 X46.3687 Y4.6119 I-1.784 J10.8645
G3 X47.1742 Y4.8541 I-2.2465 J8.9322
G3 X47.2478 Y4.8802 I-3.2026 J9.1189
G3 X47.3973 Y4.9344 I-13.4283 J37.2691
G2 X47.6158 Y5.0132 I9.5362 J-26.1375
G2 X47.7269 Y5.0516 I2.3514 J-6.6158
G2 X47.9143 Y5.1112 I1.8575 J-5.5171
G2 X48.066 Y5.1531 I1.0559 J-3.5258
G2 X48.4551 Y5.2232 I0.6943 J-2.7397
G2 X48.7786 Y5.2298 I0.1995 J-1.8361
G2 X49.0433 Y5.1927 I-0.1243 J-1.8475
G2 X49.3573 Y5.1059 I-0.5922 J-2.7559
G2 X49.4792 Y5.0621 I-1.1699 J-3.4457
G2 X49.6293 Y5.0027 I-2.0301 J-5.346
G2 X49.7182 Y4.9653 I-2.6251 J-6.3655
G2 X49.8934 Y4.8894 I-10.7741 J-25.1213
G3 X50.0909 Y4.8041 I9.483 J21.6913
G3 X50.188 Y4.7638 I2.2504 J5.2778
G3 X50.5894 Y4.6213 I1.8333 J4.5278
G3 X51.0377 Y4.5033 I1.6894 J5.51
G3 X51.4449 Y4.4272 I1.3848 J6.2796
G3 X51.9202 Y4.3676 I1.3006 J8.456
G3 X52.3194 Y4.3369 I0.9759 J10.0694
G3 X52.8271 Y4.3159 I0.9248 J16.197
G3 X53.1325 Y4.3104 I0.5056 J19.6575
G3 X53.7489 Y4.3065 I0.8117 J79.7167
G2 X54.1287 Y4.305 I-0.3186 J-130.0278
G2 X54.3188 Y4.3035 I-0.1744 J-32.4603
G2 X54.6357 Y4.298 I-0.3027 J-26.9629
G2 X54.8885 Y4.2904 I-0.3933 J-17.1102
G3 X55.5547 Y4.2781 I0.6472 J17.1325
G3 X56.2148 Y4.2918 I-0.0187 J16.8326
G3 X56.4789 Y4.3044 I-0.7522 J18.6389
G3 X56.7882 Y4.3231 I-1.3936 J25.5397
G3 X56.9738 Y4.3361 I-1.9546 J29.2943
G3 X57.3376 Y4.3633 I-8.2033 J112.2308
G2 X57.6533 Y4.387 I9.8946 J-129.5904
G2 X57.8144 Y4.3985 I2.4855 J-33.6313
G2 X57.963 Y4.4084 I2.0052 J-29.0226
G2 X57.9196 Y4.4487 I1.2157 J1.3499
G2 X57.6394 Y4.7843 I1.3879 J1.4436
G2 X57.4443 Y5.1499 I1.8006 J1.1961
G2 X57.3127 Y5.5689 I2.2566 J0.939
G2 X57.2569 Y5.9969 I2.4852 J0.5411
G2 X57.2544 Y6.1107 I2.5561 J0.1138
G2 X57.2743 Y6.4295 I2.5586 J0
G2 X57.3689 Y6.863 I2.4559 J-0.3083
G2 X57.5331 Y7.2523 I2.1287 J-0.6688
G2 X57.7598 Y7.6019 I2.2624 J-1.2186
G2 X58.049 Y7.9221 I2.1906 J-1.6876
G2 X58.3671 Y8.1834 I2.0026 J-2.1146
G2 X58.7352 Y8.4088 I1.8597 J-2.6229
G2 X59.1175 Y8.5796 I1.5584 J-2.976
G2 X59.5283 Y8.7053 I1.2409 J-3.3201
G2 X59.9479 Y8.7803 I0.8373 J-3.4758
G2 X60.3683 Y8.8041 I0.4077 J-3.4651
G2 X60.6346 Y8.7915 I-0.0111 J-3.057
G2 X60.8486 Y8.7601 I-0.1782 J-1.9562
G2 X61.1023 Y8.6867 I-0.3269 J-1.6041
G2 X61.3116 Y8.5839 I-0.4408 J-1.1623
G2 X61.5176 Y8.4191 I-0.5564 J-0.9066
G2 X61.6736 Y8.2116 I-0.7343 J-0.7145
G2 X61.7726 Y7.953 I-0.7939 J-0.4521
G2 X61.7897 Y7.7934 I-0.7363 J-0.1596
G2 X61.7836 Y7.6975 I-0.7534 J0
G2 X61.7289 Y7.4994 I-0.7212 J0.0925
G2 X61.6194 Y7.3203 I-0.7029 J0.3065
G2 X61.4804 Y7.1855 I-0.6539 J0.5352
G2 X61.3013 Y7.075 I-0.6272 J0.8161
G2 X61.1124 Y7.0038 I-0.4879 J1.0089
G2 X60.908 Y6.966 I-0.3197 J1.155
G2 X60.6966 Y6.9646 I-0.1131 J1.17
G2 X60.4994 Y7.0005 I0.0871 J1.0382
G2 X60.4773 Y7.0091 I0.0341 J0.1203
G3 X60.2256 Y7.1091 I-0.69 J-1.3704
G3 X59.963 Y7.1625 I-0.4298 J-1.4419
G3 X59.6976 Y7.167 I-0.1566 J-1.4007
G3 X59.4666 Y7.1246 I0.0869 J-1.1228
G3 X59.2471 Y7.029 I0.2719 J-0.924
G3 X59.084 Y6.8987 I0.3854 J-0.6498
G3 X58.9578 Y6.7155 I0.523 J-0.4954
G3 X58.8829 Y6.4794 I0.7942 J-0.3818
G3 X58.8743 Y6.3495 I0.9807 J-0.1299
G3 X58.8914 Y6.1668 I0.9892 J0
G3 X59.0062 Y5.8324 I1.2022 J0.2259
G3 X59.2017 Y5.5487 I1.2032 J0.62
G3 X59.4626 Y5.3235 I1.0083 J0.9043
G3 X59.7526 Y5.1731 I0.851 J1.286
G3 X60.1049 Y5.0732 I0.6947 J1.7788
G3 X60.4417 Y5.0386 I0.3894 J2.1366
G3 X60.8151 Y5.0562 I0.0635 J2.6219
G3 X61.313 Y5.1591 I-0.3528 J2.9649
G3 X61.8285 Y5.3577 I-0.9983 J3.3586
G3 X62.2813 Y5.6139 I-1.6514 J3.4474
G3 X62.7252 Y5.9491 I-2.396 J3.6337
G3 X63.1611 Y6.38 I-2.9139 J3.3845
G3 X63.5224 Y6.8533 I-3.1654 J2.7909
G3 X63.821 Y7.3943 I-3.3529 J2.2035
G3 X64.0194 Y7.9444 I-3.2806 J1.4935
G3 X64.1294 Y8.5909 I-3.2938 J0.8933
G3 X64.1392 Y8.8614 I-3.7308 J0.2704
G3 X64.1159 Y9.2785 I-3.7406 J0
G3 X63.9891 Y9.9237 I-3.9764 J-0.4462
G3 X63.7469 Y10.5794 I-4.335 J-1.229
G3 X63.4167 Y11.1779 I-4.2874 J-1.9743
G3 X62.9964 Y11.7336 I-4.1086 J-2.6712
G3 X62.4984 Y12.226 I-3.6526 J-3.1957
G3 X61.9536 Y12.6256 I-2.941 J-3.4384
G3 X61.3684 Y12.9417 I-2.8015 J-4.4873
G3 X60.7203 Y13.1946 I-2.4196 J-5.244
G3 X60.0805 Y13.3632 I-1.8787 J-5.8291
G3 X59.3836 Y13.4706 I-1.4039 J-6.7968
G3 X58.7119 Y13.5086 I-0.7535 J-7.3591
G3 X58 Y13.4859 I-0.0915 J-8.2755
G3 X57.321 Y13.4078 I0.6503 J-8.652
G3 X56.6282 Y13.2731 I1.4162 J-9.1343
G3 X55.9899 Y13.1027 I2.4481 J-10.4467
G3 X55.3043 Y12.8755 I3.6822 J-12.2599
G3 X54.6984 Y12.6397 I4.8484 J-13.3565
G3 X54.0217 Y12.3423 I7.0369 J-16.9279
G3 X53.4529 Y12.0681 I8.9267 J-19.2459
G3 X52.7705 Y11.716 I14.0134 J-27.9981
G3 X52.2868 Y11.4544 I18.0779 J-34.0086
G3 X51.5405 Y11.0395 I44.6824 J-81.2376
G3 X48.6562 Y9.3854 I94.6038 J-168.3105
G3 X45.7995 Y7.6812 I97.5798 J-166.8133
G1 Z-0.78 F50
G3 X42.9725 Y5.9281 I100.4646 J-165.1553 F30
G3 X40.4906 Y4.3325 I103.3099 J-163.4311
G3 X40.6827 Y4.321 I12.722 J210.068
G3 X41.0124 Y4.3021 I4.2317 J70.9494
G3 X41.5084 Y4.2769 I3.1881 J57.9848
G3 X41.912 Y4.2603 I1.7821 J38.4001
G3 X42.909 Y4.241 I1.0859 J30.2634
G3 X43.7048 Y4.255 I0.0568 J19.3384
G3 X44.6521 Y4.3188 I-0.627 J16.3963
G3 X45.4673 Y4.4249 I-1.1835 J12.2787
G3 X46.3687 Y4.6119 I-1.784 J10.8645
G3 X47.1742 Y4.8541 I-2.2465 J8.9322
G3 X47.2478 Y4.8802 I-3.2026 J9.1189
G3 X47.3973 Y4.9344 I-13.4283 J37.2691
G2 X47.6158 Y5.0132 I9.5362 J-26.1375
G2 X47.7269 Y5.0516 I2.3514 J-6.6158
G2 X47.9143 Y5.1112 I1.8575 J-5.5171
G2 X48.066 Y5.1531 I1.0559 J-3.5258
G2 X48.4551 Y5.2232 I0.6943 J-2.7397
G2 X48.7786 Y5.2298 I0.1995 J-1.8361
G2 X49.0433 Y5.1927 I-0.1243 J-1.8475
G2 X49.3573 Y5.1059 I-0.5922 J-2.7559
G2 X49.4792 Y5.0621 I-1.1699 J-3.4457
G2 X49.6293 Y5.0027 I-2.0301 J-5.346
G2 X49.7182 Y4.9653 I-2.6251 J-6.3655
G2 X49.8934 Y4.8894 I-10.7741 J-25.1213
G3 X50.0909 Y4.8041 I9.483 J21.6913
G3 X50.188 Y4.7638 I2.2504 J5.2778
G3 X50.5894 Y4.6213 I1.8333 J4.5278
G3 X51.0377 Y4.5033 I1.6894 J5.51
G3 X51.4449 Y4.4272 I1.3848 J6.2796
G3 X51.9202 Y4.3676 I1.3006 J8.456
G3 X52.3194 Y4.3369 I0.9759 J10.0694
G3 X52.8271 Y4.3159 I0.9248 J16.197
G3 X53.1325 Y4.3104 I0.5056 J19.6575
G3 X53.7489 Y4.3065 I0.8117 J79.7167
G2 X54.1287 Y4.305 I-0.3186 J-130.0278
G2 X54.3188 Y4.3035 I-0.1744 J-32.4603
G2 X54.6357 Y4.298 I-0.3027 J-26.9629
G2 X54.8885 Y4.2904 I-0.3933 J-17.1102
G3 X55.5547 Y4.2781 I0.6472 J17.1325
G3 X56.2148 Y4.2918 I-0.0187 J16.8326
G3 X56.4789 Y4.3044 I-0.7522 J18.6389
G3 X56.7882 Y4.3231 I-1.3936 J25.5397
G3 X56.9738 Y4.3361 I-1.9546 J29.2943
G3 X57.3376 Y4.3633 I-8.2033 J112.2308
G2 X57.6533 Y4.387 I9.8946 J-129.5904
G2 X57.8144 Y4.3985 I2.4855 J-33.6313
G2 X57.963 Y4.4084 I2.0052 J-29.0226
G2 X57.9196 Y4.4487 I1.2157 J1.3499
G2 X57.6394 Y4.7843 I1.3879 J1.4436
G2 X57.4443 Y5.1499 I1.8006 J1.1961
G2 X57.3127 Y5.5689 I2.2566 J0.939
G2 X57.2569 Y5.9969 I2.4852 J0.5411
G2 X57.2544 Y6.1107 I2.5561 J0.1138
G2 X57.2743 Y6.4295 I2.5586 J0
G2 X57.3689 Y6.863 I2.4559 J-0.3083
G2 X57.5331 Y7.2523 I2.1287 J-0.6688
G2 X57.7598 Y7.6019 I2.2624 J-1.2186
G2 X58.049 Y7.9221 I2.1906 J-1.6876
G2 X58.3671 Y8.1834 I2.0026 J-2.1146
G2 X58.7352 Y8.4088 I1.8597 J-2.6229
G2 X59.1175 Y8.5796 I1.5584 J-2.976
G2 X59.5283 Y8.7053 I1.2409 J-3.3201
G2 X59.9479 Y8.7803 I0.8373 J-3.4758
G2 X60.3683 Y8.8041 I0.4077 J-3.4651
G2 X60.6346 Y8.7915 I-0.0111 J-3.057
G2 X60.8486 Y8.7601 I-0.1782 J-1.9562
G2 X61.1023 Y8.6867 I-0.3269 J-1.6041
G2 X61.3116 Y8.5839 I-0.4408 J-1.1623
G2 X61.5176 Y8.4191 I-0.5564 J-0.9066
G2 X61.6736 Y8.2116 I-0.7343 J-0.7145
G2 X61.7726 Y7.953 I-0.7939 J-0.4521
G2 X61.7897 Y7.7934 I-0.7363 J-0.1596
G2 X61.7836 Y7.6975 I-0.7534 J0
G2 X61.7289 Y7.4994 I-0.7212 J0.0925
G2 X61.6194 Y7.3203 I-0.7029 J0.3065
G2 X61.4804 Y7.1855 I-0.6539 J0.5352
G2 X61.3013 Y7.075 I-0.6272 J0.8161
G2 X61.1124 Y7.0038 I-0.4879 J1.0089
G2 X60.908 Y6.966 I-0.3197 J1.155
G2 X60.6966 Y6.9646 I-0.1131 J1.17
G2 X60.4994 Y7.0005 I0.0871 J1.0382
G2 X60.4773 Y7.0091 I0.0341 J0.1203
G3 X60.2256 Y7.1091 I-0.69 J-1.3704
G3 X59.963 Y7.1625 I-0.4298 J-1.4419
G3 X59.6976 Y7.167 I-0.1566 J-1.4007
G3 X59.4666 Y7.1246 I0.0869 J-1.1228
G3 X59.2471 Y7.029 I0.2719 J-0.924
G3 X59.084 Y6.8987 I0.3854 J-0.6498
G3 X58.9578 Y6.7155 I0.523 J-0.4954
G3 X58.8829 Y6.4794 I0.7942 J-0.3818
G3 X58.8743 Y6.3495 I0.9807 J-0.1299
G3 X58.8914 Y6.1668 I0.9892 J0
G3 X59.0062 Y5.8324 I1.2022 J0.2259
G3 X59.2017 Y5.5487 I1.2032 J0.62
G3 X59.4626 Y5.3235 I1.0083 J0.9043
G3 X59.7526 Y5.1731 I0.851 J1.286
G3 X60.1049 Y5.0732 I0.6947 J1.7788
G3 X60.4417 Y5.0386 I0.3894 J2.1366
G3 X60.8151 Y5.0562 I0.0635 J2.6219
G3 X61.313 Y5.1591 I-0.3528 J2.9649
G3 X61.8285 Y5.3577 I-0.9983 J3.3586
G3 X62.2813 Y5.6139 I-1.6514 J3.4474
G3 X62.7252 Y5.9491 I-2.396 J3.6337
G3 X63.1611 Y6.38 I-2.9139 J3.3845
G3 X63.5224 Y6.8533 I-3.1654 J2.7909
G3 X63.821 Y7.3943 I-3.3529 J2.2035
G3 X64.0194 Y7.9444 I-3.2806 J1.4935
G3 X64.1294 Y8.5909 I-3.2938 J0.8933
G3 X64.1392 Y8.8614 I-3.7308 J0.2704
G3 X64.1159 Y9.2785 I-3.7406 J0
G3 X63.9891 Y9.9237 I-3.9764 J-0.4462
G3 X63.7469 Y10.5794 I-4.335 J-1.229
G3 X63.4167 Y11.1779 I-4.2874 J-1.9743
G3 X62.9964 Y11.7336 I-4.1086 J-2.6712
G3 X62.4984 Y12.226 I-3.6526 J-3.1957
G3 X61.9536 Y12.6256 I-2.941 J-3.4384
G3 X61.3684 Y12.9417 I-2.8015 J-4.4873
G3 X60.7203 Y13.1946 I-2.4196 J-5.244
G3 X60.0805 Y13.3632 I-1.8787 J-5.8291
G3 X59.3836 Y13.4706 I-1.4039 J-6.7968
G3 X58.7119 Y13.5086 I-0.7535 J-7.3591
G3 X58 Y13.4859 I-0.0915 J-8.2755
G3 X57.321 Y13.4078 I0.6503 J-8.652
G3 X56.6282 Y13.2731 I1.4162 J-9.1343
G3 X55.9899 Y13.1027 I2.4481 J-10.4467
G3 X55.3043 Y12.8755 I3.6822 J-12.2599
G3 X54.6984 Y12.6397 I4.8484 J-13.3565
G3 X54.0217 Y12.3423 I7.0369 J-16.9279
G3 X53.4529 Y12.0681 I8.9267 J-19.2459
G3 X52.7705 Y11.716 I14.0134 J-27.9981
G3 X52.2868 Y11.4544 I18.0779 J-34.0086
G3 X51.5405 Y11.0395 I44.6824 J-81.2376
G3 X48.6562 Y9.3854 I94.6038 J-168.3105
G3 X45.7995 Y7.6812 I97.5798 J-166.8133
G1 Z-0.79 F50
G3 X42.9725 Y5.9281 I100.4646 J-165.1553 F30
G3 X40.4906 Y4.3325 I103.3099 J-163.4311
G3 X40.6827 Y4.321 I12.722 J210.068
G3 X41.0124 Y4.3021 I4.2317 J70.9494
G3 X41.5084 Y4.2769 I3.1881 J57.9848
G3 X41.912 Y4.2603 I1.7821 J38.4001
G3 X42.909 Y4.241 I1.0859 J30.2634
G3 X43.7048 Y4.255 I0.0568 J19.3384
G3 X44.6521 Y4.3188 I-0.627 J16.3963
G3 X45.4673 Y4.4249 I-1.1835 J12.2787
G3 X46.3687 Y4.6119 I-1.784 J10.8645
G3 X47.1742 Y4.8541 I-2.2465 J8.9322
G3 X47.2478 Y4.8802 I-3.2026 J9.1189
G3 X47.3973 Y4.9344 I-13.4283 J37.2691
G2 X47.6158 Y5.0132 I9.5362 J-26.1375
G2 X47.7269 Y5.0516 I2.3514 J-6.6158
G2 X47.9143 Y5.1112 I1.8575 J-5.5171
G2 X48.066 Y5.1531 I1.0559 J-3.5258
G2 X48.4551 Y5.2232 I0.6943 J-2.7397
G2 X48.7786 Y5.2298 I0.1995 J-1.8361
G2 X49.0433 Y5.1927 I-0.1243 J-1.8475
G2 X49.3573 Y5.1059 I-0.5922 J-2.7559
G2 X49.4792 Y5.0621 I-1.1699 J-3.4457
G2 X49.6293 Y5.0027 I-2.0301 J-5.346
G2 X49.7182 Y4.9653 I-2.6251 J-6.3655
G2 X49.8934 Y4.8894 I-10.7741 J-25.1213
G3 X50.0909 Y4.8041 I9.483 J21.6913
G3 X50.188 Y4.7638 I2.2504 J5.2778
G3 X50.5894 Y4.6213 I1.8333 J4.5278
G3 X51.0377 Y4.5033 I1.6894 J5.51
G3 X51.4449 Y4.4272 I1.3848 J6.2796
G3 X51.9202 Y4.3676 I1.3006 J8.456
G3 X52.3194 Y4.3369 I0.9759 J10.0694
G3 X52.8271 Y4.3159 I0.9248 J16.197
G3 X53.1325 Y4.3104 I0.5056 J19.6575
G3 X53.7489 Y4.3065 I0.8117 J79.7167
G2 X54.1287 Y4.305 I-0.3186 J-130.0278
G2 X54.3188 Y4.3035 I-0.1744 J-32.4603
G2 X54.6357 Y4.298 I-0.3027 J-26.9629
G2 X54.8885 Y4.2904 I-0.3933 J-17.1102
G3 X55.5547 Y4.2781 I0.6472 J17.1325
G3 X56.2148 Y4.2918 I-0.0187 J16.8326
G3 X56.4789 Y4.3044 I-0.7522 J18.6389
G3 X56.7882 Y4.3231 I-1.3936 J25.5397
G3 X56.9738 Y4.3361 I-1.9546 J29.2943
G3 X57.3376 Y4.3633 I-8.2033 J112.2308
G2 X57.6533 Y4.387 I9.8946 J-129.5904
G2 X57.8144 Y4.3985 I2.4855 J-33.6313
G2 X57.963 Y4.4084 I2.0052 J-29.0226
G2 X57.9196 Y4.4487 I1.2157 J1.3499
G2 X57.6394 Y4.7843 I1.3879 J1.4436
G2 X57.4443 Y5.1499 I1.8006 J1.1961
G2 X57.3127 Y5.5689 I2.2566 J0.939
G2 X57.2569 Y5.9969 I2.4852 J0.5411
G2 X57.2544 Y6.1107 I2.5561 J0.1138
G2 X57.2743 Y6.4295 I2.5586 J0
G2 X57.3689 Y6.863 I2.4559 J-0.3083
G2 X57.5331 Y7.2523 I2.1287 J-0.6688
G2 X57.7598 Y7.6019 I2.2624 J-1.2186
G2 X58.049 Y7.9221 I2.1906 J-1.6876
G2 X58.3671 Y8.1834 I2.0026 J-2.1146
G2 X58.7352 Y8.4088 I1.8597 J-2.6229
G2 X59.1175 Y8.5796 I1.5584 J-2.976
G2 X59.5283 Y8.7053 I1.2409 J-3.3201
G2 X59.9479 Y8.7803 I0.8373 J-3.4758
G2 X60.3683 Y8.8041 I0.4077 J-3.4651
G2 X60.6346 Y8.7915 I-0.0111 J-3.057
G2 X60.8486 Y8.7601 I-0.1782 J-1.9562
G2 X61.1023 Y8.6867 I-0.3269 J-1.6041
G2 X61.3116 Y8.5839 I-0.4408 J-1.1623
G2 X61.5176 Y8.4191 I-0.5564 J-0.9066
G2 X61.6736 Y8.2116 I-0.7343 J-0.7145
G2 X61.7726 Y7.953 I-0.7939 J-0.4521
G2 X61.7897 Y7.7934 I-0.7363 J-0.1596
G2 X61.7836 Y7.6975 I-0.7534 J0
G2 X61.7289 Y7.4994 I-0.7212 J0.0925
G2 X61.6194 Y7.3203 I-0.7029 J0.3065
G2 X61.4804 Y7.1855 I-0.6539 J0.5352
G2 X61.3013 Y7.075 I-0.6272 J0.8161
G2 X61.1124 Y7.0038 I-0.4879 J1.0089
G2 X60.908 Y6.966 I-0.3197 J1.155
G2 X60.6966 Y6.9646 I-0.1131 J1.17
G2 X60.4994 Y7.0005 I0.0871 J1.0382
G2 X60.4773 Y7.0091 I0.0341 J0.1203
G3 X60.2256 Y7.1091 I-0.69 J-1.3704
G3 X59.963 Y7.1625 I-0.4298 J-1.4419
G3 X59.6976 Y7.167 I-0.1566 J-1.4007
G3 X59.4666 Y7.1246 I0.0869 J-1.1228
G3 X59.2471 Y7.029 I0.2719 J-0.924
G3 X59.084 Y6.8987 I0.3854 J-0.6498
G3 X58.9578 Y6.7155 I0.523 J-0.4954
G3 X58.8829 Y6.4794 I0.7942 J-0.3818
G3 X58.8743 Y6.3495 I0.9807 J-0.1299
G3 X58.8914 Y6.1668 I0.9892 J0
G3 X59.0062 Y5.8324 I1.2022 J0.2259
G3 X59.2017 Y5.5487 I1.2032 J0.62
G3 X59.4626 Y5.3235 I1.0083 J0.9043
G3 X59.7526 Y5.1731 I0.851 J1.286
G3 X60.1049 Y5.0732 I0.6947 J1.7788
G3 X60.4417 Y5.0386 I0.3894 J2.1366
G3 X60.8151 Y5.0562 I0.0635 J2.6219
G3 X61.313 Y5.1591 I-0.3528 J2.9649
G3 X61.8285 Y5.3577 I-0.9983 J3.3586
G3 X62.2813 Y5.6139 I-1.6514 J3.4474
G3 X62.7252 Y5.9491 I-2.396 J3.6337
G3 X63.1611 Y6.38 I-2.9139 J3.3845
G3 X63.5224 Y6.8533 I-3.1654 J2.7909
G3 X63.821 Y7.3943 I-3.3529 J2.2035
G3 X64.0194 Y7.9444 I-3.2806 J1.4935
G3 X64.1294 Y8.5909 I-3.2938 J0.8933
G3 X64.1392 Y8.8614 I-3.7308 J0.2704
G3 X64.1159 Y9.2785 I-3.7406 J0
G3 X63.9891 Y9.9237 I-3.9764 J-0.4462
G3 X63.7469 Y10.5794 I-4.335 J-1.229
G3 X63.4167 Y11.1779 I-4.2874 J-1.9743
G3 X62.9964 Y11.7336 I-4.1086 J-2.6712
G3 X62.4984 Y12.226 I-3.6526 J-3.1957
G3 X61.9536 Y12.6256 I-2.941 J-3.4384
G3 X61.3684 Y12.9417 I-2.8015 J-4.4873
G3 X60.7203 Y13.1946 I-2.4196 J-5.244
G3 X60.0805 Y13.3632 I-1.8787 J-5.8291
G3 X59.3836 Y13.4706 I-1.4039 J-6.7968
G3 X58.7119 Y13.5086 I-0.7535 J-7.3591
G3 X58 Y13.4859 I-0.0915 J-8.2755
G3 X57.321 Y13.4078 I0.6503 J-8.652
G3 X56.6282 Y13.2731 I1.4162 J-9.1343
G3 X55.9899 Y13.1027 I2.4481 J-10.4467
G3 X55.3043 Y12.8755 I3.6822 J-12.2599
G3 X54.6984 Y12.6397 I4.8484 J-13.3565
G3 X54.0217 Y12.3423 I7.0369 J-16.9279
G3 X53.4529 Y12.0681 I8.9267 J-19.2459
G3 X52.7705 Y11.716 I14.0134 J-27.9981
G3 X52.2868 Y11.4544 I18.0779 J-34.0086
G3 X51.5405 Y11.0395 I44.6824 J-81.2376
G3 X48.6562 Y9.3854 I94.6038 J-168.3105
G3 X45.7995 Y7.6812 I97.5798 J-166.8133

(profile 14-4-0)
G0 Z0.1
G0 X74.1132 Y5.0149
G1 Z-0.13 F50
G3 X76.2937 Y4.5347 I4.9556 J17.3132 F30
G3 X78.5169 Y4.3282 I2.7731 J17.7806
G3 X80.7255 Y4.3992 I0.5387 J17.6206
G3 X82.5853 Y4.6825 I-1.5843 J16.6501
G3 X84.2834 Y5.1478 I-3.02 J14.3514
G3 X86.0165 Y5.8744 I-4.3575 J12.8245
G3 X87.5142 Y6.7741 I-5.2725 J10.473
G3 X87.9187 Y7.0774 I-5.2352 J7.4027
G3 X88.2674 Y7.3724 I-4.6159 J5.8107
G3 X88.63 Y7.7246 I-4.4563 J4.9509
G3 X88.9276 Y8.0641 I-3.8608 J3.6845
G3 X89.2156 Y8.4625 I-3.7183 J2.9909
G3 X89.4344 Y8.8469 I-3.2631 J2.1116
G3 X89.6169 Y9.2866 I-3.1876 J1.5811
G3 X89.7303 Y9.7201 I-2.9981 J1.0154
G3 X89.7825 Y10.2833 I-3.0112 J0.5632
G3 X89.7721 Y10.5356 I-3.0634 J0
G3 X89.5906 Y11.4036 I-3.5807 J-0.2958
G3 X89.2229 Y12.181 I-3.6444 J-1.2479
G3 X88.6899 Y12.8608 I-3.3062 J-2.0434
G3 X88.0584 Y13.3896 I-3.0218 J-2.9674
G3 X87.2795 Y13.8247 I-2.7928 J-4.085
G3 X86.4861 Y14.1062 I-2.1936 J-4.9232
G3 X85.6117 Y14.2732 I-1.5624 J-5.8077
G3 X84.7865 Y14.3145 I-0.732 J-6.3577
G3 X83.9536 Y14.2491 I0.0952 J-6.5408
G3 X83.1358 Y14.078 I0.9287 J-6.4798
G3 X82.3543 Y13.8063 I1.7132 J-6.1881
G3 X81.7953 Y13.5331 I2.1779 J-5.1654
G3 X81.344 Y13.2414 I2.0564 J-3.6758
G3 X80.8902 Y12.8423 I2.1546 J-2.9076
G3 X80.5586 Y12.4253 I2.0453 J-1.9669
G3 X80.3031 Y11.9106 I2.059 J-1.3427
G3 X80.178 Y11.3619 I2.2245 J-0.7958
G3 X80.1665 Y11.1416 I2.0954 J-0.2204
G3 X80.1981 Y10.7777 I2.1069 J0
G3 X80.3657 Y10.2853 I1.6662 J0.2921
G3 X80.5688 Y9.9833 I1.4707 J0.77
G3 X80.8438 Y9.7202 I1.3786 J1.1659
G3 X81.1478 Y9.5268 I1.2106 J1.5676
G3 X81.5162 Y9.3743 I1.0998 J2.1359
G3 X81.8895 Y9.2845 I0.8009 J2.5061
G3 X82.2948 Y9.2462 I0.4784 J2.9044
G3 X82.6799 Y9.2614 I0.0746 J3.001
G2 X82.5302 Y9.3795 I0.6945 J1.0344
G2 X82.329 Y9.6118 I0.9261 J1.0051
G2 X82.1762 Y9.8953 I1.2506 J0.8574
G2 X82.0865 Y10.2045 I1.4072 J0.5755
G2 X82.0652 Y10.4468 I1.3618 J0.2422
G2 X82.0667 Y10.5124 I1.3832 J0
G2 X82.1244 Y10.8346 I1.2643 J-0.0601
G2 X82.258 Y11.1142 I1.0665 J-0.3378
G2 X82.4786 Y11.3702 I1.1166 J-0.7391
G2 X82.7812 Y11.5865 I1.1073 J-1.2297
G2 X83.0867 Y11.7228 I0.9252 J-1.6627
G2 X83.4409 Y11.8141 I0.7502 J-2.1777
G2 X83.9343 Y11.8502 I0.4274 J-2.4487
G2 X84.4183 Y11.7881 I-0.0641 J-2.4144
G2 X84.8962 Y11.6188 I-0.5172 J-2.2196
G2 X85.2986 Y11.3603 I-0.879 J-1.811
G2 X85.6366 Y10.9971 I-1.2053 J-1.4603
G2 X85.8742 Y10.551 I-1.6057 J-1.1415
G2 X85.9883 Y10.0458 I-1.7547 J-0.6619
G2 X85.994 Y9.9097 I-1.6225 J-0.1361
G2 X85.9564 Y9.5616 I-1.6282 J0
G2 X85.8103 Y9.1525 I-1.6696 J0.3654
G2 X85.5422 Y8.7447 I-1.9571 J0.9949
G2 X85.2431 Y8.4395 I-2.0046 J1.6648
G2 X84.8534 Y8.1479 I-2.2396 J2.587
G2 X84.307 Y7.8522 I-2.2331 J3.4749
G2 X83.6969 Y7.6304 I-1.846 J4.1267
